%
(25mmCircle)
(just trying)
(T1  D=6.35 CR=0 - ZMIN=-25 - flat end mill)
G90 G94
G17
G21
G28 G91 Z0
G90

(2D Contour1)
M9
T1 M6
S8000 M3
G54
M9
G0 X21.023 Y66.077
Z15
Z6
G1 Z-4.365 F750
X21.025 Y66.069 Z-4.464
X21.032 Y66.047 Z-4.561
X21.043 Y66.011 Z-4.653
X21.058 Y65.961 Z-4.738
X21.077 Y65.899 Z-4.814
X21.099 Y65.826 Z-4.879
X21.124 Y65.745 Z-4.931
X21.15 Y65.657 Z-4.969
X21.179 Y65.564 Z-4.992
X21.207 Y65.469 Z-5
X21.793 Y63.538 F1000
G2 X21.37 Y62.746 I-0.608 J-0.184
G3 X40.63 Y-0.746 I9.63 J-31.746
X21.37 Y62.746 I-9.63 J31.746
G2 X20.578 Y63.17 I-0.184 J0.608
G1 X20.393 Y63.777
X20.365 Y63.873 Z-4.992
X20.337 Y63.965 Z-4.969
X20.31 Y64.053 Z-4.931
X20.285 Y64.135 Z-4.879
X20.263 Y64.207 Z-4.814
X20.244 Y64.269 Z-4.738
X20.229 Y64.319 Z-4.653
X20.218 Y64.355 Z-4.561
X20.211 Y64.378 Z-4.464
X20.209 Y64.385 Z-4.365
G0 Z5
X-4.077 Y21.023
G1 Z1 F1000
Z-9.365 F750
X-4.069 Y21.025 Z-9.464
X-4.047 Y21.032 Z-9.561
X-4.011 Y21.043 Z-9.653
X-3.961 Y21.058 Z-9.738
X-3.899 Y21.077 Z-9.814
X-3.826 Y21.099 Z-9.879
X-3.745 Y21.124 Z-9.931
X-3.657 Y21.15 Z-9.969
X-3.564 Y21.179 Z-9.992
X-3.469 Y21.207 Z-10
X-1.538 Y21.793 F1000
G2 X-0.746 Y21.37 I0.184 J-0.608
G3 X62.746 Y40.63 I31.746 J9.63
X-0.746 Y21.37 I-31.746 J-9.63
G2 X-1.17 Y20.578 I-0.608 J-0.184
G1 X-1.777 Y20.393
X-1.873 Y20.365 Z-9.992
X-1.965 Y20.337 Z-9.969
X-2.053 Y20.31 Z-9.931
X-2.135 Y20.285 Z-9.879
X-2.207 Y20.263 Z-9.814
X-2.269 Y20.244 Z-9.738
X-2.319 Y20.229 Z-9.653
X-2.355 Y20.218 Z-9.561
X-2.378 Y20.211 Z-9.464
X-2.385 Y20.209 Z-9.365
G0 Z5
X-4.077 Y21.023
G1 Z-4 F1000
Z-14.365 F750
X-4.069 Y21.025 Z-14.464
X-4.047 Y21.032 Z-14.561
X-4.011 Y21.043 Z-14.653
X-3.961 Y21.058 Z-14.738
X-3.899 Y21.077 Z-14.814
X-3.826 Y21.099 Z-14.879
X-3.745 Y21.124 Z-14.931
X-3.657 Y21.15 Z-14.969
X-3.564 Y21.179 Z-14.992
X-3.469 Y21.207 Z-15
X-1.538 Y21.793 F1000
G2 X-0.746 Y21.37 I0.184 J-0.608
G3 X62.746 Y40.63 I31.746 J9.63
X-0.746 Y21.37 I-31.746 J-9.63
G2 X-1.17 Y20.578 I-0.608 J-0.184
G1 X-1.777 Y20.393
X-1.873 Y20.365 Z-14.992
X-1.965 Y20.337 Z-14.969
X-2.053 Y20.31 Z-14.931
X-2.135 Y20.285 Z-14.879
X-2.207 Y20.263 Z-14.814
X-2.269 Y20.244 Z-14.738
X-2.319 Y20.229 Z-14.653
X-2.355 Y20.218 Z-14.561
X-2.378 Y20.211 Z-14.464
X-2.385 Y20.209 Z-14.365
G0 Z5
X-4.077 Y21.023
G1 Z-9 F1000
Z-19.365 F750
X-4.069 Y21.025 Z-19.464
X-4.047 Y21.032 Z-19.561
X-4.011 Y21.043 Z-19.653
X-3.961 Y21.058 Z-19.738
X-3.899 Y21.077 Z-19.814
X-3.826 Y21.099 Z-19.879
X-3.745 Y21.124 Z-19.931
X-3.657 Y21.15 Z-19.969
X-3.564 Y21.179 Z-19.992
X-3.469 Y21.207 Z-20
X-1.538 Y21.793 F1000
G2 X-0.746 Y21.37 I0.184 J-0.608
G3 X62.746 Y40.63 I31.746 J9.63
X-0.746 Y21.37 I-31.746 J-9.63
G2 X-1.17 Y20.578 I-0.608 J-0.184
G1 X-1.777 Y20.393
X-1.873 Y20.365 Z-19.992
X-1.965 Y20.337 Z-19.969
X-2.053 Y20.31 Z-19.931
X-2.135 Y20.285 Z-19.879
X-2.207 Y20.263 Z-19.814
X-2.269 Y20.244 Z-19.738
X-2.319 Y20.229 Z-19.653
X-2.355 Y20.218 Z-19.561
X-2.378 Y20.211 Z-19.464
X-2.385 Y20.209 Z-19.365
G0 Z5
X-4.077 Y21.023
G1 Z-14 F1000
Z-24.365 F750
X-4.069 Y21.025 Z-24.464
X-4.047 Y21.032 Z-24.561
X-4.011 Y21.043 Z-24.653
X-3.961 Y21.058 Z-24.738
X-3.899 Y21.077 Z-24.814
X-3.826 Y21.099 Z-24.879
X-3.745 Y21.124 Z-24.931
X-3.657 Y21.15 Z-24.969
X-3.564 Y21.179 Z-24.992
X-3.469 Y21.207 Z-25
X-1.538 Y21.793 F1000
G2 X-0.746 Y21.37 I0.184 J-0.608
G3 X41.782 Y-0.374 I31.746 J9.63
G1 Z-23.413
G3 X52.78 Y5.976 I-10.782 J31.374
G1 Z-25 F750
G3 Y56.024 I-21.78 J25.024 F1000
G1 Z-23.413
G3 X41.782 Y62.374 I-21.78 J-25.024
G1 Z-25 F750
G3 X-1.562 Y37.35 I-10.782 J-31.374 F1000
G1 Z-23.413
G3 Y24.65 I32.562 J-6.35
G1 Z-25 F750
G3 X-0.746 Y21.37 I32.562 J6.35 F1000
G2 X-1.17 Y20.578 I-0.608 J-0.184
G1 X-1.777 Y20.393
X-1.873 Y20.365 Z-24.992
X-1.965 Y20.337 Z-24.969
X-2.053 Y20.31 Z-24.931
X-2.135 Y20.285 Z-24.879
X-2.207 Y20.263 Z-24.814
X-2.269 Y20.244 Z-24.738
X-2.319 Y20.229 Z-24.653
X-2.355 Y20.218 Z-24.561
X-2.378 Y20.211 Z-24.464
X-2.385 Y20.209 Z-24.365
G0 Z15
M9
G28 G91 Z0
G28 X0 Y0
M30
%
