%
(25mmSquare)
(25mm Square Origin in the center)
(T1  D=6.35 CR=0 - ZMIN=-25.5 - flat end mill)
G90 G94
G17
G21
G28 G91 Z0
G90

(2D Contour2)
M9
T1 M6
S8000 M3
G54
M9
G0 X-0.635 Y17.58
Z10
Z6
G1 Z-4.365 F762
G19 G2 Y16.945 Z-5 J-0.635
G1 Y16.31 F1219.2
G17 G3 X0 Y15.675 I0.635
G1 X12.5
G2 X15.675 Y12.5 J-3.175
G1 Y-12.5
G2 X12.5 Y-15.675 I-3.175
G1 X-12.5
G2 X-15.675 Y-12.5 J3.175
G1 Y12.5
G2 X-12.5 Y15.675 I3.175
G1 X0
G3 X0.635 Y16.31 J0.635
G1 Y16.945
G19 G3 Y17.58 Z-4.365 K0.635
G0 Z5
X-0.635
G1 Z1 F1219.2
Z-9.365 F762
G2 Y16.945 Z-10 J-0.635
G1 Y16.31 F1219.2
G17 G3 X0 Y15.675 I0.635
G1 X12.5
G2 X15.675 Y12.5 J-3.175
G1 Y-12.5
G2 X12.5 Y-15.675 I-3.175
G1 X-12.5
G2 X-15.675 Y-12.5 J3.175
G1 Y12.5
G2 X-12.5 Y15.675 I3.175
G1 X0
G3 X0.635 Y16.31 J0.635
G1 Y16.945
G19 G3 Y17.58 Z-9.365 K0.635
G0 Z5
X-0.635
G1 Z-4 F1219.2
Z-14.365 F762
G2 Y16.945 Z-15 J-0.635
G1 Y16.31 F1219.2
G17 G3 X0 Y15.675 I0.635
G1 X12.5
G2 X15.675 Y12.5 J-3.175
G1 Y-12.5
G2 X12.5 Y-15.675 I-3.175
G1 X-12.5
G2 X-15.675 Y-12.5 J3.175
G1 Y12.5
G2 X-12.5 Y15.675 I3.175
G1 X0
G3 X0.635 Y16.31 J0.635
G1 Y16.945
G19 G3 Y17.58 Z-14.365 K0.635
G0 Z5
X-0.635
G1 Z-9 F1219.2
Z-19.365 F762
G2 Y16.945 Z-20 J-0.635
G1 Y16.31 F1219.2
G17 G3 X0 Y15.675 I0.635
G1 X12.5
G2 X15.675 Y12.5 J-3.175
G1 Y-12.5
G2 X12.5 Y-15.675 I-3.175
G1 X-12.5
G2 X-15.675 Y-12.5 J3.175
G1 Y12.5
G2 X-12.5 Y15.675 I3.175
G1 X0
G3 X0.635 Y16.31 J0.635
G1 Y16.945
G19 G3 Y17.58 Z-19.365 K0.635
G0 Z5
X-0.635
G1 Z-14 F1219.2
Z-22.115 F762
G2 Y16.945 Z-22.75 J-0.635
G1 Y16.31 F1219.2
G17 G3 X0 Y15.675 I0.635
G1 X12.5
G2 X15.675 Y12.5 J-3.175
G1 Y-12.5
G2 X12.5 Y-15.675 I-3.175
G1 X-12.5
G2 X-15.675 Y-12.5 J3.175
G1 Y12.5
G2 X-12.5 Y15.675 I3.175
G1 X0
G3 X0.635 Y16.31 J0.635
G1 Y16.945
G19 G3 Y17.58 Z-22.115 K0.635
G0 Z5
X-0.635
G1 Z-16.75 F1219.2
Z-23.913 F762
Y16.945
Y16.31 F1219.2
G17 G3 X0 Y15.675 I0.635
G1 X6.35
Z-25.5 F762
X12.5 F1219.2
G2 X15.675 Y12.5 J-3.175
G1 Y6.35
Z-23.913
Y-6.35
Z-25.5 F762
Y-12.5 F1219.2
G2 X12.5 Y-15.675 I-3.175
G1 X6.35
Z-23.913
X-6.35
Z-25.5 F762
X-12.5 F1219.2
G2 X-15.675 Y-12.5 J3.175
G1 Y-6.35
Z-23.913
Y6.35
Z-25.5 F762
Y12.5 F1219.2
G2 X-12.5 Y15.675 I3.175
G1 X-6.35
Z-23.913
X0
G3 X0.635 Y16.31 J0.635
G1 Y17.58
G0 Z10
M9
G28 G91 Z0
G28 X0 Y0
M30
%
