%
(50mmStarHandlle)
(T2  D=6 CR=0 - ZMIN=-25 - flat end mill)
G90 G94
G17
G21
G28 G91 Z0
G90

(2D Contour1)
M9
T2 M6
S5000 M3
G54
M9
G0 X20.244 Y61.665
Z15
Z6
G1 Z-4.4 F333.3
X20.251 Y61.666 Z-4.494
X20.273 Y61.667 Z-4.585
X20.309 Y61.668 Z-4.672
X20.358 Y61.671 Z-4.753
X20.419 Y61.673 Z-4.824
X20.491 Y61.677 Z-4.885
X20.571 Y61.681 Z-4.935
X20.658 Y61.685 Z-4.971
X20.749 Y61.689 Z-4.993
X20.843 Y61.693 Z-5
X21.442 Y61.721 F1000
G3 X22.014 Y62.348 I-0.028 J0.599
G2 X37.761 Y75.654 I12.986 J0.603
G3 X40.37 Y76.325 I0.637 J2.932
G2 X44.397 Y79.251 I18.406 J-21.1
G3 X45.842 Y81.525 I-1.541 J2.574
G2 X71.711 I12.935 J-1.3
G3 X73.156 Y79.251 I2.985 J0.3
G2 X77.183 Y76.325 I-14.379 J-24.026
G3 X79.792 Y75.654 I1.972 J2.261
G2 X87.786 Y51.051 I2.761 J-12.704
G3 X86.07 Y48.974 I1.208 J-2.746
G2 X84.531 Y44.24 I-27.293 J6.25
G3 X84.7 Y41.551 I2.759 J-1.177
G2 X63.771 Y26.345 I-11.229 J-6.551
G3 X61.265 Y27.336 I-2.239 J-1.997
G2 X56.287 I-2.489 J27.889
G3 X53.782 Y26.345 I-0.267 J-2.988
G2 X32.853 Y41.551 I-9.7 J8.655
G3 X33.021 Y44.24 I-2.591 J1.512
G2 X31.483 Y48.974 I25.755 J10.985
G3 X29.767 Y51.051 I-2.924 J-0.67
G2 X22.014 Y62.348 I5.233 J11.9
G3 X21.387 Y62.92 I-0.599 J-0.028
G1 X20.787 Y62.892
X20.694 Y62.888 Z-4.993
X20.602 Y62.883 Z-4.971
X20.515 Y62.879 Z-4.935
X20.435 Y62.876 Z-4.885
X20.364 Y62.872 Z-4.824
X20.303 Y62.869 Z-4.753
X20.253 Y62.867 Z-4.672
X20.217 Y62.865 Z-4.585
X20.196 Y62.864 Z-4.494
X20.188 Z-4.4
G0 Z5
X20.244 Y61.665
G1 Z1 F1000
Z-9.4 F333.3
X20.251 Y61.666 Z-9.494
X20.273 Y61.667 Z-9.585
X20.309 Y61.668 Z-9.672
X20.358 Y61.671 Z-9.753
X20.419 Y61.673 Z-9.824
X20.491 Y61.677 Z-9.885
X20.571 Y61.681 Z-9.935
X20.658 Y61.685 Z-9.971
X20.749 Y61.689 Z-9.993
X20.843 Y61.693 Z-10
X21.442 Y61.721 F1000
G3 X22.014 Y62.348 I-0.028 J0.599
G2 X37.761 Y75.654 I12.986 J0.603
G3 X40.37 Y76.325 I0.637 J2.932
G2 X44.397 Y79.251 I18.406 J-21.1
G3 X45.842 Y81.525 I-1.541 J2.574
G2 X71.711 I12.935 J-1.3
G3 X73.156 Y79.251 I2.985 J0.3
G2 X77.183 Y76.325 I-14.379 J-24.026
G3 X79.792 Y75.654 I1.972 J2.261
G2 X87.786 Y51.051 I2.761 J-12.704
G3 X86.07 Y48.974 I1.208 J-2.746
G2 X84.531 Y44.24 I-27.293 J6.25
G3 X84.7 Y41.551 I2.759 J-1.177
G2 X63.771 Y26.345 I-11.229 J-6.551
G3 X61.265 Y27.336 I-2.239 J-1.997
G2 X56.287 I-2.489 J27.889
G3 X53.782 Y26.345 I-0.267 J-2.988
G2 X32.853 Y41.551 I-9.7 J8.655
G3 X33.021 Y44.24 I-2.591 J1.512
G2 X31.483 Y48.974 I25.755 J10.985
G3 X29.767 Y51.051 I-2.924 J-0.67
G2 X22.014 Y62.348 I5.233 J11.9
G3 X21.387 Y62.92 I-0.599 J-0.028
G1 X20.787 Y62.892
X20.694 Y62.888 Z-9.993
X20.602 Y62.883 Z-9.971
X20.515 Y62.879 Z-9.935
X20.435 Y62.876 Z-9.885
X20.364 Y62.872 Z-9.824
X20.303 Y62.869 Z-9.753
X20.253 Y62.867 Z-9.672
X20.217 Y62.865 Z-9.585
X20.196 Y62.864 Z-9.494
X20.188 Z-9.4
G0 Z5
X20.244 Y61.665
G1 Z-4 F1000
Z-14.4 F333.3
X20.251 Y61.666 Z-14.494
X20.273 Y61.667 Z-14.585
X20.309 Y61.668 Z-14.672
X20.358 Y61.671 Z-14.753
X20.419 Y61.673 Z-14.824
X20.491 Y61.677 Z-14.885
X20.571 Y61.681 Z-14.935
X20.658 Y61.685 Z-14.971
X20.749 Y61.689 Z-14.993
X20.843 Y61.693 Z-15
X21.442 Y61.721 F1000
G3 X22.014 Y62.348 I-0.028 J0.599
G2 X37.761 Y75.654 I12.986 J0.603
G3 X40.37 Y76.325 I0.637 J2.932
G2 X44.397 Y79.251 I18.406 J-21.1
G3 X45.842 Y81.525 I-1.541 J2.574
G2 X71.711 I12.935 J-1.3
G3 X73.156 Y79.251 I2.985 J0.3
G2 X77.183 Y76.325 I-14.379 J-24.026
G3 X79.792 Y75.654 I1.972 J2.261
G2 X87.786 Y51.051 I2.761 J-12.704
G3 X86.07 Y48.974 I1.208 J-2.746
G2 X84.531 Y44.24 I-27.293 J6.25
G3 X84.7 Y41.551 I2.759 J-1.177
G2 X63.771 Y26.345 I-11.229 J-6.551
G3 X61.265 Y27.336 I-2.239 J-1.997
G2 X56.287 I-2.489 J27.889
G3 X53.782 Y26.345 I-0.267 J-2.988
G2 X32.853 Y41.551 I-9.7 J8.655
G3 X33.021 Y44.24 I-2.591 J1.512
G2 X31.483 Y48.974 I25.755 J10.985
G3 X29.767 Y51.051 I-2.924 J-0.67
G2 X22.014 Y62.348 I5.233 J11.9
G3 X21.387 Y62.92 I-0.599 J-0.028
G1 X20.787 Y62.892
X20.694 Y62.888 Z-14.993
X20.602 Y62.883 Z-14.971
X20.515 Y62.879 Z-14.935
X20.435 Y62.876 Z-14.885
X20.364 Y62.872 Z-14.824
X20.303 Y62.869 Z-14.753
X20.253 Y62.867 Z-14.672
X20.217 Y62.865 Z-14.585
X20.196 Y62.864 Z-14.494
X20.188 Z-14.4
G0 Z5
X20.244 Y61.665
G1 Z-9 F1000
Z-19.4 F333.3
X20.251 Y61.666 Z-19.494
X20.273 Y61.667 Z-19.585
X20.309 Y61.668 Z-19.672
X20.358 Y61.671 Z-19.753
X20.419 Y61.673 Z-19.824
X20.491 Y61.677 Z-19.885
X20.571 Y61.681 Z-19.935
X20.658 Y61.685 Z-19.971
X20.749 Y61.689 Z-19.993
X20.843 Y61.693 Z-20
X21.442 Y61.721 F1000
G3 X22.014 Y62.348 I-0.028 J0.599
G2 X37.761 Y75.654 I12.986 J0.603
G3 X40.37 Y76.325 I0.637 J2.932
G2 X44.397 Y79.251 I18.406 J-21.1
G3 X45.842 Y81.525 I-1.541 J2.574
G2 X71.711 I12.935 J-1.3
G3 X73.156 Y79.251 I2.985 J0.3
G2 X77.183 Y76.325 I-14.379 J-24.026
G3 X79.792 Y75.654 I1.972 J2.261
G2 X87.786 Y51.051 I2.761 J-12.704
G3 X86.07 Y48.974 I1.208 J-2.746
G2 X84.531 Y44.24 I-27.293 J6.25
G3 X84.7 Y41.551 I2.759 J-1.177
G2 X63.771 Y26.345 I-11.229 J-6.551
G3 X61.265 Y27.336 I-2.239 J-1.997
G2 X56.287 I-2.489 J27.889
G3 X53.782 Y26.345 I-0.267 J-2.988
G2 X32.853 Y41.551 I-9.7 J8.655
G3 X33.021 Y44.24 I-2.591 J1.512
G2 X31.483 Y48.974 I25.755 J10.985
G3 X29.767 Y51.051 I-2.924 J-0.67
G2 X22.014 Y62.348 I5.233 J11.9
G3 X21.387 Y62.92 I-0.599 J-0.028
G1 X20.787 Y62.892
X20.694 Y62.888 Z-19.993
X20.602 Y62.883 Z-19.971
X20.515 Y62.879 Z-19.935
X20.435 Y62.876 Z-19.885
X20.364 Y62.872 Z-19.824
X20.303 Y62.869 Z-19.753
X20.253 Y62.867 Z-19.672
X20.217 Y62.865 Z-19.585
X20.196 Y62.864 Z-19.494
X20.188 Z-19.4
G0 Z5
X20.244 Y61.665
G1 Z-14 F1000
Z-23.5 F333.3
X20.843 Y61.693
X21.442 Y61.721 F1000
G3 X22.014 Y62.348 I-0.028 J0.599
G2 X25.886 Y72.221 I12.986 J0.603
G1 Z-25 F333.3
G2 X37.761 Y75.654 I9.114 J-9.27 F1000
G3 X40.37 Y76.325 I0.637 J2.932
G2 X44.397 Y79.251 I18.406 J-21.1
G3 X45.842 Y81.525 I-1.541 J2.574
G2 X52.776 Y91.758 I12.935 J-1.3
G1 Z-23.5
G2 X64.776 I6 J-11.533
G1 Z-25 F333.3
G2 X71.711 Y81.525 I-6 J-11.533 F1000
G3 X73.156 Y79.251 I2.985 J0.3
G2 X77.183 Y76.325 I-14.379 J-24.026
G3 X79.792 Y75.654 I1.972 J2.261
G2 X91.667 Y72.221 I2.761 J-12.704
G1 Z-23.5
G2 X95.375 Y60.808 I-9.114 J-9.27
G1 Z-25 F333.3
G2 X87.786 Y51.051 I-12.822 J2.143 F1000
G3 X86.07 Y48.974 I1.208 J-2.746
G2 X84.531 Y44.24 I-27.293 J6.25
G3 X84.7 Y41.551 I2.759 J-1.177
G2 X85.104 Y29.197 I-11.229 J-6.551
G1 Z-23.5
G2 X75.396 Y22.143 I-11.633 J5.803
G1 Z-25 F333.3
G2 X63.771 Y26.345 I-1.925 J12.857 F1000
G3 X61.265 Y27.336 I-2.239 J-1.997
G2 X56.287 I-2.489 J27.889
G3 X53.782 Y26.345 I-0.267 J-2.988
G2 X42.157 Y22.143 I-9.7 J8.655
G1 Z-23.5
G2 X32.449 Y29.197 I1.925 J12.857
G1 Z-25 F333.3
G2 X32.853 Y41.551 I11.633 J5.803 F1000
G3 X33.021 Y44.24 I-2.591 J1.512
G2 X31.483 Y48.974 I25.755 J10.985
G3 X29.767 Y51.051 I-2.924 J-0.67
G2 X22.178 Y60.808 I5.233 J11.9
G1 Z-23.5
G2 X22.014 Y62.348 I12.822 J2.143
G3 X21.387 Y62.92 I-0.599 J-0.028
G1 X20.188 Y62.864
G0 Z15
M9
G28 G91 Z0
G28 X0 Y0
M30
%
