%
(50mmStarHandleNoG28)
(T2  D=6 CR=0 - ZMIN=-23 - flat end mill)
G90 G94
G17
G21

(2D Contour1)
M9
T2 M6
S5000 M3
G54
M9
G0 X-38.533 Y4.053
Z10
Z6
G1 Z-4.4 F333.3
X-38.525 Z-4.494
X-38.503 Y4.054 Z-4.585
X-38.467 Y4.056 Z-4.672
X-38.418 Y4.058 Z-4.753
X-38.357 Y4.061 Z-4.824
X-38.286 Y4.064 Z-4.885
X-38.205 Y4.068 Z-4.935
X-38.118 Y4.072 Z-4.971
X-38.027 Y4.076 Z-4.993
X-37.933 Y4.08 Z-5
X-37.334 Y4.108 F1000
G3 X-36.762 Y4.735 I-0.028 J0.599
G2 X-21.016 Y18.042 I12.986 J0.603
G3 X-18.407 Y18.712 I0.637 J2.932
G2 X-14.379 Y21.638 I18.406 J-21.1
G3 X-12.935 Y23.913 I-1.541 J2.574
G2 X12.935 I12.935 J-1.3
G3 X14.379 Y21.638 I2.985 J0.3
G2 X18.406 Y18.713 I-14.379 J-24.026
G3 X21.016 Y18.042 I1.972 J2.261
G2 X29.01 Y-6.562 I2.761 J-12.703
G3 X27.293 Y-8.638 I1.208 J-2.746
G2 X25.755 Y-13.373 I-27.293 J6.251
G3 X25.923 Y-16.061 I2.76 J-1.177
G2 X4.994 Y-31.267 I-11.229 J-6.551
G3 X2.489 Y-30.276 I-2.239 J-1.997
G2 X-2.489 I-2.489 J27.889
G3 X-4.994 Y-31.267 I-0.267 J-2.988
G2 X-25.923 Y-16.061 I-9.7 J8.655
G3 X-25.755 Y-13.373 I-2.591 J1.512
G2 X-27.293 Y-8.638 I25.755 J10.985
G3 X-29.01 Y-6.562 I-2.924 J-0.67
G2 X-36.762 Y4.735 I5.233 J11.9
G3 X-37.39 Y5.307 I-0.599 J-0.028
G1 X-37.989 Y5.279
X-38.083 Y5.275 Z-4.993
X-38.174 Y5.271 Z-4.971
X-38.261 Y5.266 Z-4.935
X-38.341 Y5.263 Z-4.885
X-38.413 Y5.259 Z-4.824
X-38.474 Y5.257 Z-4.753
X-38.523 Y5.254 Z-4.672
X-38.559 Y5.253 Z-4.585
X-38.581 Y5.252 Z-4.494
X-38.588 Y5.251 Z-4.4
G0 Z5
X-38.533 Y4.053
G1 Z1 F1000
Z-9.4 F333.3
X-38.525 Z-9.494
X-38.503 Y4.054 Z-9.585
X-38.467 Y4.056 Z-9.672
X-38.418 Y4.058 Z-9.753
X-38.357 Y4.061 Z-9.824
X-38.286 Y4.064 Z-9.885
X-38.205 Y4.068 Z-9.935
X-38.118 Y4.072 Z-9.971
X-38.027 Y4.076 Z-9.993
X-37.933 Y4.08 Z-10
X-37.334 Y4.108 F1000
G3 X-36.762 Y4.735 I-0.028 J0.599
G2 X-21.016 Y18.042 I12.986 J0.603
G3 X-18.407 Y18.712 I0.637 J2.932
G2 X-14.379 Y21.638 I18.406 J-21.1
G3 X-12.935 Y23.913 I-1.541 J2.574
G2 X12.935 I12.935 J-1.3
G3 X14.379 Y21.638 I2.985 J0.3
G2 X18.406 Y18.713 I-14.379 J-24.026
G3 X21.016 Y18.042 I1.972 J2.261
G2 X29.01 Y-6.562 I2.761 J-12.703
G3 X27.293 Y-8.638 I1.208 J-2.746
G2 X25.755 Y-13.373 I-27.293 J6.251
G3 X25.923 Y-16.061 I2.76 J-1.177
G2 X4.994 Y-31.267 I-11.229 J-6.551
G3 X2.489 Y-30.276 I-2.239 J-1.997
G2 X-2.489 I-2.489 J27.889
G3 X-4.994 Y-31.267 I-0.267 J-2.988
G2 X-25.923 Y-16.061 I-9.7 J8.655
G3 X-25.755 Y-13.373 I-2.591 J1.512
G2 X-27.293 Y-8.638 I25.755 J10.985
G3 X-29.01 Y-6.562 I-2.924 J-0.67
G2 X-36.762 Y4.735 I5.233 J11.9
G3 X-37.39 Y5.307 I-0.599 J-0.028
G1 X-37.989 Y5.279
X-38.083 Y5.275 Z-9.993
X-38.174 Y5.271 Z-9.971
X-38.261 Y5.266 Z-9.935
X-38.341 Y5.263 Z-9.885
X-38.413 Y5.259 Z-9.824
X-38.474 Y5.257 Z-9.753
X-38.523 Y5.254 Z-9.672
X-38.559 Y5.253 Z-9.585
X-38.581 Y5.252 Z-9.494
X-38.588 Y5.251 Z-9.4
G0 Z5
X-38.533 Y4.053
G1 Z-4 F1000
Z-14.4 F333.3
X-38.525 Z-14.494
X-38.503 Y4.054 Z-14.585
X-38.467 Y4.056 Z-14.672
X-38.418 Y4.058 Z-14.753
X-38.357 Y4.061 Z-14.824
X-38.286 Y4.064 Z-14.885
X-38.205 Y4.068 Z-14.935
X-38.118 Y4.072 Z-14.971
X-38.027 Y4.076 Z-14.993
X-37.933 Y4.08 Z-15
X-37.334 Y4.108 F1000
G3 X-36.762 Y4.735 I-0.028 J0.599
G2 X-21.016 Y18.042 I12.986 J0.603
G3 X-18.407 Y18.712 I0.637 J2.932
G2 X-14.379 Y21.638 I18.406 J-21.1
G3 X-12.935 Y23.913 I-1.541 J2.574
G2 X12.935 I12.935 J-1.3
G3 X14.379 Y21.638 I2.985 J0.3
G2 X18.406 Y18.713 I-14.379 J-24.026
G3 X21.016 Y18.042 I1.972 J2.261
G2 X29.01 Y-6.562 I2.761 J-12.703
G3 X27.293 Y-8.638 I1.208 J-2.746
G2 X25.755 Y-13.373 I-27.293 J6.251
G3 X25.923 Y-16.061 I2.76 J-1.177
G2 X4.994 Y-31.267 I-11.229 J-6.551
G3 X2.489 Y-30.276 I-2.239 J-1.997
G2 X-2.489 I-2.489 J27.889
G3 X-4.994 Y-31.267 I-0.267 J-2.988
G2 X-25.923 Y-16.061 I-9.7 J8.655
G3 X-25.755 Y-13.373 I-2.591 J1.512
G2 X-27.293 Y-8.638 I25.755 J10.985
G3 X-29.01 Y-6.562 I-2.924 J-0.67
G2 X-36.762 Y4.735 I5.233 J11.9
G3 X-37.39 Y5.307 I-0.599 J-0.028
G1 X-37.989 Y5.279
X-38.083 Y5.275 Z-14.993
X-38.174 Y5.271 Z-14.971
X-38.261 Y5.266 Z-14.935
X-38.341 Y5.263 Z-14.885
X-38.413 Y5.259 Z-14.824
X-38.474 Y5.257 Z-14.753
X-38.523 Y5.254 Z-14.672
X-38.559 Y5.253 Z-14.585
X-38.581 Y5.252 Z-14.494
X-38.588 Y5.251 Z-14.4
G0 Z5
X-38.533 Y4.053
G1 Z-9 F1000
Z-19.4 F333.3
X-38.525 Z-19.494
X-38.503 Y4.054 Z-19.585
X-38.467 Y4.056 Z-19.672
X-38.418 Y4.058 Z-19.753
X-38.357 Y4.061 Z-19.824
X-38.286 Y4.064 Z-19.885
X-38.205 Y4.068 Z-19.935
X-38.118 Y4.072 Z-19.971
X-38.027 Y4.076 Z-19.993
X-37.933 Y4.08 Z-20
X-37.334 Y4.108 F1000
G3 X-36.762 Y4.735 I-0.028 J0.599
G2 X-21.016 Y18.042 I12.986 J0.603
G3 X-18.407 Y18.712 I0.637 J2.932
G2 X-14.379 Y21.638 I18.406 J-21.1
G3 X-12.935 Y23.913 I-1.541 J2.574
G2 X12.935 I12.935 J-1.3
G3 X14.379 Y21.638 I2.985 J0.3
G2 X18.406 Y18.713 I-14.379 J-24.026
G3 X21.016 Y18.042 I1.972 J2.261
G2 X29.01 Y-6.562 I2.761 J-12.703
G3 X27.293 Y-8.638 I1.208 J-2.746
G2 X25.755 Y-13.373 I-27.293 J6.251
G3 X25.923 Y-16.061 I2.76 J-1.177
G2 X4.994 Y-31.267 I-11.229 J-6.551
G3 X2.489 Y-30.276 I-2.239 J-1.997
G2 X-2.489 I-2.489 J27.889
G3 X-4.994 Y-31.267 I-0.267 J-2.988
G2 X-25.923 Y-16.061 I-9.7 J8.655
G3 X-25.755 Y-13.373 I-2.591 J1.512
G2 X-27.293 Y-8.638 I25.755 J10.985
G3 X-29.01 Y-6.562 I-2.924 J-0.67
G2 X-36.762 Y4.735 I5.233 J11.9
G3 X-37.39 Y5.307 I-0.599 J-0.028
G1 X-37.989 Y5.279
X-38.083 Y5.275 Z-19.993
X-38.174 Y5.271 Z-19.971
X-38.261 Y5.266 Z-19.935
X-38.341 Y5.263 Z-19.885
X-38.413 Y5.259 Z-19.824
X-38.474 Y5.257 Z-19.753
X-38.523 Y5.254 Z-19.672
X-38.559 Y5.253 Z-19.585
X-38.581 Y5.252 Z-19.494
X-38.588 Y5.251 Z-19.4
G0 Z5
X-38.533 Y4.053
G1 Z-14 F1000
Z-21.5 F333.3
X-37.933 Y4.08
X-37.334 Y4.108 F1000
G3 X-36.762 Y4.735 I-0.028 J0.599
G2 X-32.89 Y14.608 I12.986 J0.603
G1 Z-23 F333.3
G2 X-21.016 Y18.042 I9.114 J-9.27 F1000
G3 X-18.407 Y18.712 I0.637 J2.932
G2 X-14.379 Y21.638 I18.406 J-21.1
G3 X-12.935 Y23.913 I-1.541 J2.574
G2 X-6 Y34.145 I12.935 J-1.3
G1 Z-21.5
G2 X6 I6 J-11.533
G1 Z-23 F333.3
G2 X12.935 Y23.913 I-6 J-11.533 F1000
G3 X14.379 Y21.638 I2.985 J0.3
G2 X18.406 Y18.713 I-14.379 J-24.026
G3 X21.016 Y18.042 I1.972 J2.261
G2 X32.89 Y14.608 I2.761 J-12.703
G1 Z-21.5
G2 X36.599 Y3.196 I-9.114 J-9.27
G1 Z-23 F333.3
G2 X29.01 Y-6.562 I-12.822 J2.143 F1000
G3 X27.293 Y-8.638 I1.208 J-2.746
G2 X25.755 Y-13.373 I-27.293 J6.251
G3 X25.923 Y-16.061 I2.76 J-1.177
G2 X26.327 Y-28.416 I-11.229 J-6.551
G1 Z-21.5
G2 X16.619 Y-35.469 I-11.633 J5.803
G1 Z-23 F333.3
G2 X4.994 Y-31.267 I-1.925 J12.857 F1000
G3 X2.489 Y-30.276 I-2.239 J-1.997
G2 X-2.489 I-2.489 J27.889
G3 X-4.994 Y-31.267 I-0.267 J-2.988
G2 X-16.619 Y-35.469 I-9.7 J8.655
G1 Z-21.5
G2 X-26.327 Y-28.416 I1.925 J12.857
G1 Z-23 F333.3
G2 X-25.923 Y-16.061 I11.633 J5.803 F1000
G3 X-25.755 Y-13.373 I-2.591 J1.512
G2 X-27.293 Y-8.638 I25.755 J10.985
G3 X-29.01 Y-6.562 I-2.924 J-0.67
G2 X-36.599 Y3.196 I5.233 J11.9
G1 Z-21.5
G2 X-36.762 Y4.735 I12.822 J2.143
G3 X-37.39 Y5.307 I-0.599 J-0.028
G1 X-38.588 Y5.251
G0 Z10
M9
M30
%
