%
(chloe cutout)
(T2  D=3.175 CR=1.587 - ZMIN=-3.225 - ball end mill)
G90 G94
G17
G21

(2D Contour3)
M9
T2 M6
S10000 M3
G54
M8
G0 X25.829 Y-31.841
Z6
Z3
G1 Z-1.683 F762
X25.836 Z-1.753
X25.86 Y-31.838 Z-1.82
X25.898 Y-31.835 Z-1.88
X25.948 Y-31.83 Z-1.931
X26.008 Y-31.825 Z-1.969
X26.074 Y-31.818 Z-1.992
X26.145 Y-31.812 Z-2
X26.461 Y-31.782
G2 X26.806 Y-32.069 I0.03 J-0.316
G1 X26.835 Y-32.372
G3 X26.836 Y-32.385 I1.897 J0.177
G1 X26.868 Y-32.699
G3 X26.869 Y-32.713 I1.895 J0.19
G1 X26.903 Y-33.027
G3 X26.904 Y-33.041 I1.894 J0.204
G1 X26.94 Y-33.353
G3 X26.942 Y-33.367 I1.892 J0.218
G1 X26.98 Y-33.679
G3 X26.982 Y-33.693 I1.891 J0.232
G1 X27.022 Y-34.003
G3 X27.024 Y-34.017 I1.889 J0.246
G1 X27.067 Y-34.326
G3 X27.069 Y-34.341 I1.887 J0.259
G1 X27.114 Y-34.65
G3 X27.116 Y-34.663 I1.885 J0.274
G1 X27.162 Y-34.971
G3 X27.165 Y-34.985 I1.883 J0.287
G1 X27.214 Y-35.292
G3 X27.216 Y-35.305 I1.881 J0.301
G1 X27.221 Y-35.336
X27.156 Y-35.852
X27.049 Y-36.615
X26.933 Y-37.36
X26.809 Y-38.088
X26.676 Y-38.799
X26.534 Y-39.491
X26.384 Y-40.167
X26.226 Y-40.824
X26.059 Y-41.464
X25.885 Y-42.086
X25.702 Y-42.69
X25.511 Y-43.276
X25.312 Y-43.845
X25.106 Y-44.396
X24.892 Y-44.929
X24.67 Y-45.445
X24.44 Y-45.943
X24.204 Y-46.424
X23.96 Y-46.887
X23.709 Y-47.332
X23.451 Y-47.76
X23.187 Y-48.172
X22.915 Y-48.566
X22.635 Y-48.947
X22.261 Y-49.424
X21.884 Y-49.881
X21.506 Y-50.315
X21.126 Y-50.727
X20.745 Y-51.115
X20.364 Y-51.482
X19.982 Y-51.826
X19.6 Y-52.148
X19.217 Y-52.447
X18.833 Y-52.726
X18.45 Y-52.983
X18.066 Y-53.219
X17.682 Y-53.434
X17.298 Y-53.63
X16.913 Y-53.805
X16.527 Y-53.962
X16.14 Y-54.099
X15.751 Y-54.217
X15.36 Y-54.317
X14.966 Y-54.398
X14.57 Y-54.462
X14.17 Y-54.507
X13.766 Y-54.534
X13.426 Y-54.542
X12.807 Y-54.483
X12.114 Y-54.4
X11.435 Y-54.3
X10.77 Y-54.184
X10.12 Y-54.053
X9.483 Y-53.905
X8.861 Y-53.742
X8.252 Y-53.563
X7.658 Y-53.369
X7.077 Y-53.159
X6.509 Y-52.934
X5.955 Y-52.693
X5.414 Y-52.437
X4.886 Y-52.166
X4.371 Y-51.879
X3.869 Y-51.577
X3.379 Y-51.26
X2.901 Y-50.927
X2.436 Y-50.579
X1.983 Y-50.215
X1.542 Y-49.835
X1.112 Y-49.439
X0.694 Y-49.027
X0.285 Y-48.596
X-0.12 Y-48.144
X-0.521 Y-47.672
X-0.916 Y-47.184
X-1.304 Y-46.68
X-1.687 Y-46.16
X-2.063 Y-45.622
X-2.432 Y-45.068
X-2.795 Y-44.497
X-3.152 Y-43.91
X-3.502 Y-43.306
X-3.845 Y-42.684
X-4.182 Y-42.046
X-4.511 Y-41.391
X-4.834 Y-40.719
X-5.15 Y-40.03
X-5.459 Y-39.323
X-5.761 Y-38.6
X-6.056 Y-37.859
X-6.344 Y-37.102
X-6.625 Y-36.327
X-6.898 Y-35.535
X-7.164 Y-34.727
X-7.423 Y-33.901
X-7.496 Y-33.655
X-7.044 Y-32.437
X-7.041 Y-32.427
X-6.382 Y-30.622
G3 X-6.379 Y-30.612 I-1.79 J0.653
G1 X-5.735 Y-28.816
G3 X-5.731 Y-28.807 I-1.793 J0.643
G1 X-5.101 Y-27.02
G3 X-5.097 Y-27.01 I-1.797 J0.634
G1 X-4.481 Y-25.232
G3 X-4.478 Y-25.222 I-1.8 J0.624
G1 X-3.876 Y-23.454
G3 X-3.873 Y-23.443 I-1.803 J0.614
G1 X-3.285 Y-21.684
G3 X-3.281 Y-21.674 I-1.807 J0.604
G1 X-2.708 Y-19.924
G3 X-2.704 Y-19.913 I-1.81 J0.593
G1 X-2.145 Y-18.172
G3 X-2.141 Y-18.161 I-1.814 J0.583
G1 X-1.596 Y-16.429
G3 X-1.592 Y-16.419 I-1.817 J0.572
G1 X-1.061 Y-14.696
G3 X-1.057 Y-14.685 I-1.82 J0.562
G1 X-0.54 Y-12.971
G3 X-0.537 Y-12.96 I-1.824 J0.551
G1 X-0.034 Y-11.255
G3 X-0.03 Y-11.244 I-1.827 J0.539
G1 X0.459 Y-9.549
G3 X0.462 Y-9.537 I-1.83 J0.528
G1 X0.937 Y-7.851
G3 X0.94 Y-7.84 I-1.834 J0.517
G1 X1.401 Y-6.163
G3 X1.404 Y-6.151 I-1.837 J0.505
G1 X1.851 Y-4.483
G3 X1.854 Y-4.471 I-1.84 J0.493
G1 X2.287 Y-2.812
G3 X2.29 Y-2.8 I-1.843 J0.481
G1 X2.709 Y-1.15
G3 X2.712 Y-1.138 I-1.846 J0.469
G1 X3.116 Y0.502
G3 X3.119 Y0.515 I-1.85 J0.456
G1 X3.51 Y2.146
G3 X3.513 Y2.159 I-1.853 J0.443
G1 X3.889 Y3.781
G3 X3.892 Y3.794 I-1.856 J0.431
G1 X4.254 Y5.407
G3 X4.257 Y5.42 I-1.859 J0.417
G1 X4.605 Y7.024
G3 X4.608 Y7.038 I-1.862 J0.404
G1 X4.942 Y8.632
G3 X4.945 Y8.646 I-1.865 J0.391
G1 X5.265 Y10.231
G3 X5.268 Y10.245 I-1.867 J0.377
G1 X5.574 Y11.821
G3 X5.576 Y11.835 I-1.87 J0.363
G1 X5.868 Y13.402
G3 X5.871 Y13.417 I-1.873 J0.349
G1 X6.148 Y14.975
G3 X6.151 Y14.989 I-1.875 J0.334
G1 X6.415 Y16.538
G3 X6.417 Y16.553 I-1.878 J0.32
G1 X6.667 Y18.092
G3 X6.669 Y18.107 I-1.88 J0.305
G1 X6.904 Y19.638
G3 X6.907 Y19.653 I-1.883 J0.29
G1 X7.128 Y21.174
G3 X7.13 Y21.19 I-1.885 J0.274
G1 X7.338 Y22.702
G3 X7.34 Y22.718 I-1.887 J0.259
G1 X7.533 Y24.221
G3 X7.535 Y24.237 I-1.889 J0.243
G1 X7.714 Y25.73
G3 X7.716 Y25.747 I-1.891 J0.227
G1 X7.881 Y27.231
G3 X7.883 Y27.248 I-1.893 J0.21
G1 X8.034 Y28.723
G3 X8.035 Y28.74 I-1.895 J0.194
G1 X8.172 Y30.206
G3 X8.174 Y30.223 I-1.897 J0.177
G1 X8.297 Y31.68
G3 X8.298 Y31.698 I-1.898 J0.16
G1 X8.407 Y33.145
G3 X8.408 Y33.163 I-1.9 J0.143
G1 X8.503 Y34.602
G3 X8.504 Y34.62 I-1.901 J0.125
G1 X8.584 Y36.049
G3 X8.585 Y36.067 I-1.902 J0.107
G1 X8.652 Y37.488
G3 X8.653 Y37.506 I-1.903 J0.089
G1 X8.705 Y38.917
G3 X8.706 Y38.936 I-1.904 J0.071
G1 X8.744 Y40.338
G3 X8.745 Y40.357 I-1.904 J0.052
G1 X8.769 Y41.75
G3 Y41.769 I-1.905 J0.033
G1 X8.78 Y43.152
G3 Y43.177 I-1.905 J0.014
G1 X8.77 Y44.833
G3 Y44.855 I-1.905 J-0.011
G1 X8.742 Y46.475
G3 Y46.497 I-1.905 J-0.033
G1 X8.696 Y48.081
G3 X8.695 Y48.105 I-1.904 J-0.055
G1 X8.63 Y49.653
G3 X8.629 Y49.678 I-1.903 J-0.079
G1 X8.546 Y51.19
G3 X8.545 Y51.217 I-1.902 J-0.104
G1 X8.443 Y52.693
G3 X8.441 Y52.72 I-1.901 J-0.131
G1 X8.321 Y54.161
G3 X8.319 Y54.189 I-1.898 J-0.158
G1 X8.181 Y55.594
G3 X8.177 Y55.624 I-1.896 J-0.187
G1 X8.021 Y56.992
G3 X8.017 Y57.024 I-1.893 J-0.216
G1 X7.842 Y58.356
G3 X7.837 Y58.389 I-1.889 J-0.248
G1 X7.644 Y59.686
G3 X7.639 Y59.72 I-1.884 J-0.281
G1 X7.427 Y60.981
G3 X7.421 Y61.017 I-1.879 J-0.315
G1 X7.191 Y62.242
G3 X7.183 Y62.28 I-1.872 J-0.351
G1 X6.935 Y63.468
G3 X6.926 Y63.508 I-1.865 J-0.389
G1 X6.66 Y64.661
G3 X6.65 Y64.703 I-1.856 J-0.429
G1 X6.365 Y65.819
G3 X6.353 Y65.863 I-1.846 J-0.471
G1 X6.05 Y66.944
G3 X6.037 Y66.99 I-1.834 J-0.514
G1 X5.715 Y68.034
G3 X5.7 Y68.082 I-1.821 J-0.56
G1 X5.36 Y69.091
G3 X5.343 Y69.141 I-1.805 J-0.608
G1 X4.985 Y70.113
G3 X4.965 Y70.165 I-1.788 J-0.658
G1 X4.588 Y71.102
G3 X4.566 Y71.156 I-1.768 J-0.71
G1 X4.171 Y72.057
G3 X4.146 Y72.113 I-1.745 J-0.764
G1 X3.733 Y72.977
G3 X3.704 Y73.036 I-1.719 J-0.821
G1 X3.273 Y73.864
G3 X3.236 Y73.932 I-1.69 J-0.879
G1 X2.758 Y74.767
G3 X2.736 Y74.805 I-1.653 J-0.946
G1 X2.253 Y75.605
G3 X2.229 Y75.644 I-1.631 J-0.984
G1 X1.743 Y76.408
G3 X1.716 Y76.449 I-1.607 J-1.023
G1 X1.225 Y77.178
G3 X1.196 Y77.221 I-1.58 J-1.064
G1 X0.701 Y77.914
G3 X0.668 Y77.958 I-1.551 J-1.107
G1 X0.169 Y78.616
G3 X0.133 Y78.662 I-1.518 J-1.151
G1 X-0.37 Y79.285
G3 X-0.41 Y79.333 I-1.482 J-1.197
G1 X-0.917 Y79.919
G3 X-0.961 Y79.969 I-1.441 J-1.246
G1 X-1.472 Y80.52
G3 X-1.522 Y80.571 I-1.397 J-1.295
G1 X-2.037 Y81.087
G3 X-2.091 Y81.139 I-1.348 J-1.346
G1 X-2.61 Y81.619
G3 X-2.67 Y81.672 I-1.293 J-1.399
G1 X-3.193 Y82.117
G3 X-3.259 Y82.17 I-1.233 J-1.452
G1 X-3.786 Y82.579
G3 X-3.858 Y82.632 I-1.168 J-1.505
G1 X-4.389 Y83.005
G3 X-4.468 Y83.058 I-1.096 J-1.558
G1 X-5.003 Y83.396
G3 X-5.088 Y83.446 I-1.017 J-1.611
G1 X-5.627 Y83.749
G3 X-5.718 Y83.797 I-0.932 J-1.662
G1 X-6.261 Y84.063
G3 X-6.36 Y84.108 I-0.84 J-1.71
G1 X-6.907 Y84.339
G3 X-7.011 Y84.38 I-0.742 J-1.755
G1 X-7.562 Y84.575
G3 X-7.671 Y84.611 I-0.637 J-1.795
G1 X-8.226 Y84.771
G3 X-8.339 Y84.8 I-0.528 J-1.83
G1 X-8.898 Y84.924
G3 X-9.015 Y84.946 I-0.414 J-1.859
G1 X-9.578 Y85.035
G3 X-9.696 Y85.05 I-0.297 J-1.882
G1 X-10.262 Y85.103
G3 X-10.382 Y85.111 I-0.179 J-1.897
G1 X-10.952 Y85.129
G3 X-11.145 Y85.125 I-0.059 J-1.904
G1 X-11.533 Y85.098
G3 X-11.593 Y85.092 I0.134 J-1.9
G1 X-11.977 Y85.053
G3 X-12.037 Y85.046 I0.193 J-1.895
G1 X-12.417 Y84.995
G3 X-12.477 Y84.986 I0.253 J-1.888
G1 X-12.853 Y84.923
G3 X-12.914 Y84.912 I0.313 J-1.879
G1 X-13.286 Y84.838
G3 X-13.347 Y84.825 I0.374 J-1.868
G1 X-13.715 Y84.738
G3 X-13.776 Y84.723 I0.435 J-1.855
G1 X-14.14 Y84.625
G3 X-14.2 Y84.607 I0.496 J-1.839
G1 X-14.56 Y84.498
G3 X-14.62 Y84.478 I0.556 J-1.822
G1 X-14.976 Y84.357
G3 X-15.035 Y84.335 I0.616 J-1.803
G1 X-15.387 Y84.202
G3 X-15.446 Y84.178 I0.675 J-1.781
G1 X-15.794 Y84.033
G3 X-15.85 Y84.008 I0.734 J-1.758
G1 X-16.194 Y83.851
G3 X-16.251 Y83.824 I0.791 J-1.733
G1 X-16.59 Y83.655
G3 X-16.645 Y83.627 I0.848 J-1.706
G1 X-16.981 Y83.447
G3 X-17.034 Y83.417 I0.903 J-1.678
G1 X-17.365 Y83.225
G3 X-17.417 Y83.193 I0.956 J-1.648
G1 X-17.745 Y82.989
G3 X-17.795 Y82.957 I1.008 J-1.617
G1 X-18.118 Y82.741
G3 X-18.167 Y82.708 I1.057 J-1.585
G1 X-18.486 Y82.48
G3 X-18.532 Y82.446 I1.106 J-1.551
G1 X-18.848 Y82.207
G3 X-18.892 Y82.172 I1.152 J-1.517
G1 X-19.203 Y81.92
G3 X-19.245 Y81.886 I1.197 J-1.482
G1 X-19.553 Y81.623
G3 X-19.593 Y81.587 I1.239 J-1.447
G1 X-19.897 Y81.312
G3 X-19.935 Y81.276 I1.279 J-1.412
G1 X-20.234 Y80.989
G3 X-20.271 Y80.953 I1.318 J-1.376
G1 X-20.566 Y80.655
G3 X-20.601 Y80.619 I1.355 J-1.34
G1 X-20.892 Y80.309
G3 X-20.925 Y80.273 I1.389 J-1.304
G1 X-21.212 Y79.951
G3 X-21.243 Y79.915 I1.422 J-1.268
G1 X-21.526 Y79.581
G3 X-21.555 Y79.546 I1.453 J-1.232
G1 X-21.834 Y79.201
G3 X-21.862 Y79.166 I1.482 J-1.197
G1 X-22.136 Y78.808
G3 X-22.163 Y78.774 I1.51 J-1.162
G1 X-22.433 Y78.405
G3 X-22.469 Y78.354 I1.536 J-1.127
G1 X-22.999 Y77.58
G3 X-23.042 Y77.514 I1.572 J-1.076
G1 X-23.555 Y76.694
G3 X-23.593 Y76.631 I1.615 J-1.01
G1 X-24.09 Y75.763
G3 X-24.124 Y75.702 I1.653 J-0.947
G1 X-24.605 Y74.787
G3 X-24.634 Y74.73 I1.686 J-0.886
G1 X-25.099 Y73.768
G3 X-25.124 Y73.713 I1.715 J-0.829
G1 X-25.573 Y72.704
G3 X-25.595 Y72.652 I1.741 J-0.774
G1 X-26.027 Y71.595
G3 X-26.047 Y71.546 I1.763 J-0.722
G1 X-26.463 Y70.443
G3 X-26.48 Y70.396 I1.782 J-0.672
G1 X-26.88 Y69.245
G3 X-26.895 Y69.201 I1.799 J-0.626
G1 X-27.278 Y68.003
G3 X-27.291 Y67.962 I1.814 J-0.581
G1 X-27.659 Y66.717
G3 X-27.67 Y66.677 I1.827 J-0.54
G1 X-28.022 Y65.385
G3 X-28.031 Y65.348 I1.838 J-0.5
G1 X-28.366 Y64.009
G3 X-28.375 Y63.974 I1.848 J-0.463
G1 X-28.694 Y62.587
G3 X-28.701 Y62.554 I1.856 J-0.427
G1 X-29.004 Y61.121
G3 X-29.011 Y61.089 I1.864 J-0.394
G1 X-29.297 Y59.608
G3 X-29.303 Y59.579 I1.87 J-0.362
G1 X-29.573 Y58.051
G3 X-29.578 Y58.023 I1.876 J-0.332
G1 X-29.833 Y56.448
G3 X-29.837 Y56.421 I1.881 J-0.304
G1 X-30.075 Y54.799
G3 X-30.078 Y54.773 I1.885 J-0.277
G1 X-30.3 Y53.104
G3 X-30.303 Y53.08 I1.888 J-0.251
G1 X-30.509 Y51.364
G3 X-30.512 Y51.341 I1.891 J-0.227
G1 X-30.701 Y49.578
G3 X-30.703 Y49.556 I1.894 J-0.204
G1 X-30.877 Y47.745
G3 X-30.879 Y47.724 I1.896 J-0.182
G1 X-31.036 Y45.867
G3 X-31.037 Y45.847 I1.898 J-0.161
G1 X-31.178 Y43.942
G3 X-31.18 Y43.923 I1.9 J-0.141
G1 X-31.304 Y41.971
G3 X-31.305 Y41.953 I1.901 J-0.121
G1 X-31.414 Y39.955
G3 X-31.415 Y39.937 I1.902 J-0.103
G1 X-31.507 Y37.891
G3 X-31.508 Y37.875 I1.903 J-0.086
G1 X-31.584 Y35.781
G3 X-31.585 Y35.765 I1.904 J-0.069
G1 X-31.645 Y33.625
G3 Y33.61 I1.904 J-0.053
G1 X-31.689 Y31.423
G3 Y31.408 I1.905 J-0.038
G1 X-31.717 Y29.174
G3 Y29.16 I1.905 J-0.024
G1 X-31.728 Y26.878
G3 Y26.858 I1.905 J-0.01
G1 X-31.714 Y24.237
G3 Y24.216 I1.905 J0.01
G1 X-31.672 Y21.617
G3 Y21.596 I1.905 J0.031
G1 X-31.602 Y19.02
G3 Y18.998 I1.904 J0.051
G1 X-31.504 Y16.444
G3 X-31.503 Y16.422 I1.904 J0.073
G1 X-31.378 Y13.89
G3 X-31.377 Y13.868 I1.903 J0.094
G1 X-31.224 Y11.358
G3 X-31.222 Y11.336 I1.901 J0.116
G1 X-31.042 Y8.848
G3 X-31.04 Y8.826 I1.9 J0.138
G1 X-30.832 Y6.36
G3 X-30.829 Y6.338 I1.898 J0.16
G1 X-30.593 Y3.894
G3 X-30.591 Y3.871 I1.896 J0.183
G1 X-30.327 Y1.45
G3 X-30.324 Y1.427 I1.894 J0.206
G1 X-30.033 Y-0.972
G3 X-30.03 Y-0.996 I1.891 J0.23
G1 X-29.71 Y-3.372
G3 X-29.707 Y-3.397 I1.888 J0.254
G1 X-29.36 Y-5.751
G3 X-29.356 Y-5.775 I1.885 J0.278
G1 X-28.981 Y-8.108
G3 X-28.977 Y-8.133 I1.881 J0.302
G1 X-28.575 Y-10.443
G3 X-28.57 Y-10.468 I1.877 J0.327
G1 X-28.14 Y-12.755
G3 X-28.135 Y-12.781 I1.872 J0.352
G1 X-27.677 Y-15.047
G3 X-27.672 Y-15.072 I1.867 J0.377
G1 X-27.187 Y-17.316
G3 X-27.181 Y-17.342 I1.862 J0.403
G1 X-26.668 Y-19.563
G3 X-26.662 Y-19.589 I1.856 J0.429
G1 X-26.121 Y-21.789
G3 X-26.114 Y-21.815 I1.85 J0.455
G1 X-25.546 Y-23.993
G3 X-25.539 Y-24.019 I1.843 J0.481
G1 X-24.943 Y-26.174
G3 X-24.936 Y-26.201 I1.836 J0.508
G1 X-24.312 Y-28.334
G3 X-24.304 Y-28.361 I1.828 J0.534
G1 X-23.663 Y-30.441
X-23.587 Y-30.722
X-23.585 Y-30.728
X-23.5 Y-31.039
X-23.499 Y-31.044
X-23.413 Y-31.354
X-23.411 Y-31.36
X-23.325 Y-31.669
X-23.324 Y-31.674
X-23.237 Y-31.981
X-23.235 Y-31.986
X-23.148 Y-32.293
X-23.146 Y-32.298
X-23.058 Y-32.603
X-23.057 Y-32.608
X-22.968 Y-32.912
X-22.967 Y-32.917
X-22.878 Y-33.219
X-22.876 Y-33.224
X-22.787 Y-33.525
X-22.785 Y-33.53
X-22.695 Y-33.83
X-22.694 Y-33.835
X-22.603 Y-34.133
X-22.601 Y-34.138
X-22.51 Y-34.435
X-22.509 Y-34.44
X-22.417 Y-34.736
X-22.415 Y-34.742
X-22.323 Y-35.035
X-22.322 Y-35.041
X-22.229 Y-35.333
X-22.227 Y-35.339
X-22.134 Y-35.63
X-22.132 Y-35.635
X-22.039 Y-35.925
X-22.037 Y-35.93
X-21.943 Y-36.219
X-21.941 Y-36.225
X-21.846 Y-36.512
X-21.844 Y-36.517
X-21.749 Y-36.803
X-21.747 Y-36.808
X-21.651 Y-37.092
X-21.649 Y-37.098
X-21.609 Y-37.216
X-21.655 Y-37.505
X-21.784 Y-38.233
X-21.923 Y-38.943
X-22.071 Y-39.637
X-22.228 Y-40.313
X-22.395 Y-40.972
X-22.571 Y-41.615
X-22.756 Y-42.24
X-22.95 Y-42.848
X-23.154 Y-43.439
X-23.366 Y-44.013
X-23.586 Y-44.57
X-23.816 Y-45.11
X-24.054 Y-45.633
X-24.3 Y-46.138
X-24.555 Y-46.627
X-24.818 Y-47.1
X-25.09 Y-47.555
X-25.369 Y-47.994
X-25.656 Y-48.417
X-25.952 Y-48.823
X-26.255 Y-49.213
X-26.566 Y-49.587
X-26.891 Y-49.952
X-27.085 Y-50.159
X-27.281 Y-50.36
X-27.475 Y-50.55
X-27.665 Y-50.728
X-27.853 Y-50.896
X-28.038 Y-51.053
X-28.22 Y-51.199
X-28.398 Y-51.335
X-28.573 Y-51.46
X-28.744 Y-51.574
X-28.912 Y-51.679
X-29.075 Y-51.774
X-29.236 Y-51.859
X-29.392 Y-51.936
X-29.544 Y-52.003
X-29.692 Y-52.061
X-29.837 Y-52.112
X-29.978 Y-52.155
X-30.116 Y-52.19
X-30.252 Y-52.219
X-30.385 Y-52.241
X-30.516 Y-52.256
X-30.646 Y-52.265
X-30.752 Y-52.267
X-30.959 Y-52.257
X-31.17 Y-52.235
X-31.373 Y-52.201
X-31.568 Y-52.156
X-31.755 Y-52.1
X-31.938 Y-52.032
X-32.117 Y-51.953
X-32.293 Y-51.862
X-32.468 Y-51.757
X-32.642 Y-51.638
X-32.815 Y-51.503
X-32.989 Y-51.352
X-33.163 Y-51.183
X-33.337 Y-50.996
X-33.51 Y-50.789
X-33.683 Y-50.563
X-33.855 Y-50.316
X-34.026 Y-50.049
X-34.194 Y-49.761
X-34.359 Y-49.451
X-34.522 Y-49.12
X-34.681 Y-48.768
X-34.836 Y-48.395
X-34.986 Y-48
X-35.133 Y-47.585
X-35.274 Y-47.148
X-35.41 Y-46.691
X-35.541 Y-46.212
X-35.667 Y-45.713
X-35.787 Y-45.193
X-35.901 Y-44.653
X-36.007 Y-44.1
X-36.206 Y-42.91
X-36.378 Y-41.648
X-36.525 Y-40.306
X-36.645 Y-38.886
X-36.739 Y-37.387
X-36.807 Y-35.81
X-36.847 Y-34.156
X-36.861 Y-32.417
Y-29.36
X-36.855 Y-29.189
Y-29.186
X-36.849 Y-28.984
Y-28.981
X-36.843 Y-28.78
Y-28.778
X-36.837 Y-28.576
Y-28.572
X-36.832 Y-28.371
Y-28.369
X-36.827 Y-28.168
Y-28.166
X-36.822 Y-27.965
Y-27.961
X-36.817 Y-27.76
Y-27.758
X-36.813 Y-27.557
Y-27.554
X-36.809 Y-27.353
Y-27.351
X-36.805 Y-27.15
Y-27.147
X-36.802 Y-26.947
Y-26.945
X-36.799 Y-26.745
Y-26.742
X-36.796 Y-26.543
Y-26.54
X-36.793 Y-26.341
Y-26.339
X-36.791 Y-26.14
X-36.79 Y-26.136
X-36.788 Y-25.937
Y-25.935
X-36.787 Y-25.737
Y-25.734
X-36.785 Y-25.537
Y-25.535
X-36.784 Y-25.337
Y-25.334
X-36.783 Y-25.137
Y-25.135
X-36.782 Y-24.938
Y-24.935
Y-24.739
Y-24.737
Y-24.542
G3 Y-24.531 I-1.905 J0.002
G1 X-36.79 Y-22.833
G3 Y-22.813 I-1.905 J-0.009
G1 X-36.815 Y-21.165
G3 Y-21.144 I-1.905 J-0.029
G1 X-36.857 Y-19.546
G3 Y-19.524 I-1.904 J-0.049
G1 X-36.915 Y-17.975
G3 X-36.916 Y-17.952 I-1.904 J-0.071
G1 X-36.991 Y-16.453
G3 X-36.992 Y-16.428 I-1.903 J-0.095
G1 X-37.083 Y-14.979
G3 X-37.085 Y-14.952 I-1.901 J-0.12
G1 X-37.193 Y-13.553
G3 X-37.195 Y-13.524 I-1.899 J-0.146
G1 X-37.32 Y-12.175
G3 X-37.323 Y-12.144 I-1.897 J-0.175
G1 X-37.464 Y-10.845
G3 X-37.468 Y-10.811 I-1.894 J-0.205
G1 X-37.625 Y-9.561
G3 X-37.63 Y-9.526 I-1.89 J-0.238
G1 X-37.804 Y-8.325
G3 X-37.81 Y-8.287 I-1.885 J-0.274
G1 X-38.001 Y-7.136
G3 X-38.009 Y-7.095 I-1.879 J-0.312
G1 X-38.216 Y-5.994
G3 X-38.225 Y-5.95 I-1.872 J-0.353
G1 X-38.449 Y-4.898
G3 X-38.46 Y-4.85 I-1.863 J-0.397
G1 X-38.701 Y-3.847
G3 X-38.714 Y-3.795 I-1.852 J-0.445
G1 X-38.972 Y-2.843
G3 X-38.988 Y-2.786 I-1.839 J-0.497
G1 X-39.263 Y-1.883
G3 X-39.283 Y-1.822 I-1.823 J-0.554
G1 X-39.574 Y-0.968
G3 X-39.598 Y-0.902 I-1.803 J-0.615
G1 X-39.906 Y-0.098
G3 X-39.935 Y-0.027 I-1.779 J-0.681
G1 X-40.259 Y0.728
G3 X-40.295 Y0.805 I-1.75 J-0.753
G1 X-40.636 Y1.511
G3 X-40.679 Y1.594 I-1.715 J-0.83
G1 X-41.037 Y2.25
G3 X-41.075 Y2.316 I-1.672 J-0.913
G1 X-41.26 Y2.625
G3 X-41.288 Y2.671 I-1.634 J-0.979
G1 X-41.478 Y2.968
G3 X-41.509 Y3.015 I-1.606 J-1.025
G1 X-41.703 Y3.3
G3 X-41.737 Y3.348 I-1.575 J-1.072
G1 X-41.935 Y3.62
G3 X-41.972 Y3.67 I-1.541 J-1.12
G1 X-42.521 Y4.376
G3 X-42.568 Y4.434 I-1.504 J-1.17
G1 X-43.137 Y5.11
G3 X-43.187 Y5.167 I-1.457 J-1.227
G1 X-43.778 Y5.813
G3 X-43.831 Y5.869 I-1.407 J-1.284
G1 X-44.441 Y6.486
G3 X-44.497 Y6.541 I-1.354 J-1.34
G1 X-45.128 Y7.128
G3 X-45.187 Y7.181 I-1.298 J-1.395
G1 X-45.839 Y7.738
G3 X-45.901 Y7.789 I-1.239 J-1.447
G1 X-46.572 Y8.316
G3 X-46.637 Y8.364 I-1.177 J-1.498
G1 X-47.329 Y8.862
G3 X-47.395 Y8.908 I-1.112 J-1.546
G1 X-48.108 Y9.376
G3 X-48.176 Y9.419 I-1.046 J-1.592
G1 X-48.908 Y9.857
G3 X-48.978 Y9.897 I-0.978 J-1.635
G1 X-49.731 Y10.305
G3 X-49.802 Y10.341 I-0.908 J-1.675
G1 X-50.576 Y10.72
G3 X-50.647 Y10.753 I-0.837 J-1.711
G1 X-51.441 Y11.102
G3 X-51.512 Y11.132 I-0.766 J-1.744
G1 X-52.326 Y11.451
G3 X-52.398 Y11.477 I-0.695 J-1.774
G1 X-53.232 Y11.766
G3 X-53.303 Y11.789 I-0.624 J-1.8
G1 X-54.158 Y12.049
G3 X-54.228 Y12.069 I-0.553 J-1.823
G1 X-55.103 Y12.299
G3 X-55.172 Y12.315 I-0.484 J-1.843
G1 X-56.068 Y12.515
G3 X-56.135 Y12.529 I-0.415 J-1.859
G1 X-57.051 Y12.699
G3 X-57.117 Y12.71 I-0.348 J-1.873
G1 X-58.054 Y12.851
G3 X-58.117 Y12.859 I-0.283 J-1.884
G1 X-59.074 Y12.97
G3 X-59.136 Y12.976 I-0.219 J-1.892
G1 X-60.114 Y13.057
G3 X-60.173 Y13.061 I-0.157 J-1.898
G1 X-61.171 Y13.112
G3 X-61.229 Y13.115 I-0.098 J-1.902
G1 X-62.247 Y13.136
G3 X-62.313 I-0.04 J-1.905
G1 X-63.292 Y13.123
G3 X-63.345 Y13.122 I0.026 J-1.905
G1 X-64.305 Y13.082
G3 X-64.36 Y13.079 I0.079 J-1.903
G1 X-65.301 Y13.013
G3 X-65.358 Y13.008 I0.133 J-1.9
G1 X-66.279 Y12.916
G3 X-66.338 Y12.909 I0.19 J-1.895
G1 X-67.24 Y12.79
G3 X-67.3 Y12.781 I0.249 J-1.889
G1 X-68.183 Y12.636
G3 X-68.245 Y12.625 I0.309 J-1.88
G1 X-69.109 Y12.453
G3 X-69.173 Y12.439 I0.371 J-1.869
G1 X-70.017 Y12.242
G3 X-70.082 Y12.225 I0.434 J-1.855
G1 X-70.908 Y12.001
G3 X-70.973 Y11.982 I0.499 J-1.839
G1 X-71.78 Y11.732
G3 X-71.847 Y11.71 I0.565 J-1.819
G1 X-72.634 Y11.433
G3 X-72.701 Y11.408 I0.631 J-1.797
G1 X-73.47 Y11.106
G3 X-73.537 Y11.078 I0.698 J-1.772
G1 X-74.287 Y10.749
G3 X-74.354 Y10.718 I0.766 J-1.744
G1 X-75.084 Y10.362
G3 X-75.151 Y10.328 I0.833 J-1.713
G1 X-75.863 Y9.947
G3 X-75.929 Y9.91 I0.9 J-1.679
G1 X-76.622 Y9.503
G3 X-76.658 Y9.481 I0.966 J-1.642
G1 X-76.631 Y9.572
G3 X-76.626 Y9.59 I-1.828 J0.534
G1 X-76.32 Y10.677
G3 X-76.315 Y10.695 I-1.834 J0.516
G1 X-76.019 Y11.785
G3 X-76.014 Y11.804 I-1.839 J0.498
G1 X-75.729 Y12.898
G3 X-75.725 Y12.916 I-1.844 J0.48
G1 X-75.45 Y14.014
G3 X-75.446 Y14.033 I-1.848 J0.462
G1 X-75.182 Y15.135
G3 X-75.177 Y15.153 I-1.853 J0.444
G1 X-74.924 Y16.259
G3 X-74.92 Y16.277 I-1.857 J0.425
G1 X-74.677 Y17.387
G3 X-74.673 Y17.405 I-1.861 J0.407
G1 X-74.441 Y18.518
G3 X-74.437 Y18.537 I-1.865 J0.389
G1 X-74.216 Y19.654
G3 X-74.212 Y19.672 I-1.869 J0.371
G1 X-74.001 Y20.793
G3 X-73.998 Y20.812 I-1.872 J0.353
G1 X-73.797 Y21.936
G3 X-73.794 Y21.954 I-1.875 J0.334
G1 X-73.604 Y23.083
G3 X-73.601 Y23.102 I-1.879 J0.316
G1 X-73.422 Y24.234
G3 X-73.419 Y24.252 I-1.882 J0.298
G1 X-73.25 Y25.389
G3 X-73.248 Y25.407 I-1.884 J0.28
G1 X-73.09 Y26.547
G3 X-73.087 Y26.565 I-1.887 J0.262
G1 X-72.94 Y27.709
G3 X-72.937 Y27.727 I-1.889 J0.244
G1 X-72.8 Y28.875
G3 X-72.798 Y28.893 I-1.892 J0.226
G1 X-72.783 Y29.031
X-72.545 Y29.157
G3 X-72.529 Y29.166 I-0.896 J1.681
G1 X-72.158 Y29.369
G3 X-72.143 Y29.377 I-0.912 J1.672
G1 X-71.773 Y29.583
G3 X-71.757 Y29.592 I-0.928 J1.664
G1 X-71.39 Y29.801
G3 X-71.374 Y29.81 I-0.943 J1.655
G1 X-71.008 Y30.023
G3 X-70.993 Y30.033 I-0.959 J1.646
G1 X-70.629 Y30.249
G3 X-70.614 Y30.258 I-0.974 J1.637
G1 X-70.251 Y30.478
G3 X-70.236 Y30.488 I-0.989 J1.628
G1 X-69.875 Y30.712
G3 X-69.86 Y30.721 I-1.005 J1.618
G1 X-69.502 Y30.949
G3 X-69.487 Y30.958 I-1.02 J1.609
G1 X-69.13 Y31.189
G3 X-69.115 Y31.199 I-1.034 J1.6
G1 X-68.76 Y31.433
G3 X-68.745 Y31.443 I-1.05 J1.59
G1 X-68.391 Y31.681
G3 X-68.377 Y31.691 I-1.064 J1.58
G1 X-68.025 Y31.933
G3 X-68.011 Y31.943 I-1.079 J1.57
G1 X-67.661 Y32.188
G3 X-67.647 Y32.198 I-1.093 J1.56
G1 X-67.298 Y32.447
G3 X-67.284 Y32.457 I-1.107 J1.55
G1 X-66.938 Y32.709
G3 X-66.924 Y32.72 I-1.122 J1.54
G1 X-66.579 Y32.975
G3 X-66.565 Y32.986 I-1.136 J1.529
G1 X-66.223 Y33.245
G3 X-66.209 Y33.256 I-1.149 J1.519
G1 X-65.867 Y33.519
G3 X-65.854 Y33.529 I-1.163 J1.509
G1 X-65.514 Y33.796
G3 X-65.501 Y33.807 I-1.177 J1.498
G1 X-65.163 Y34.077
G3 X-65.15 Y34.087 I-1.191 J1.487
G1 X-64.815 Y34.361
G3 X-64.796 Y34.376 I-1.204 J1.477
G1 X-64.261 Y34.823
G3 X-64.238 Y34.843 I-1.222 J1.462
G1 X-63.714 Y35.295
G3 X-63.692 Y35.315 I-1.245 J1.442
G1 X-63.179 Y35.772
G3 X-63.156 Y35.793 I-1.268 J1.422
G1 X-62.655 Y36.255
G3 X-62.632 Y36.276 I-1.291 J1.401
G1 X-62.142 Y36.743
G3 X-62.119 Y36.765 I-1.314 J1.379
G1 X-61.64 Y37.236
G3 X-61.617 Y37.259 I-1.337 J1.357
G1 X-61.15 Y37.735
G3 X-61.127 Y37.759 I-1.36 J1.334
G1 X-60.671 Y38.241
G3 X-60.648 Y38.265 I-1.383 J1.31
G1 X-60.204 Y38.751
G3 X-60.181 Y38.776 I-1.405 J1.286
G1 X-59.748 Y39.267
G3 X-59.725 Y39.292 I-1.428 J1.261
G1 X-59.303 Y39.788
G3 X-59.281 Y39.814 I-1.45 J1.235
G1 X-58.87 Y40.315
G3 X-58.848 Y40.342 I-1.472 J1.209
G1 X-58.448 Y40.848
G3 X-58.427 Y40.875 I-1.494 J1.182
G1 X-58.038 Y41.386
G3 X-58.017 Y41.414 I-1.516 J1.154
G1 X-57.64 Y41.929
G3 X-57.619 Y41.958 I-1.537 J1.125
G1 X-57.254 Y42.478
G3 X-57.233 Y42.508 I-1.558 J1.096
G1 X-56.879 Y43.033
G3 X-56.858 Y43.063 I-1.579 J1.066
G1 X-56.515 Y43.593
G3 X-56.496 Y43.624 I-1.599 J1.036
G1 X-56.164 Y44.158
G3 X-56.144 Y44.19 I-1.618 J1.005
G1 X-55.824 Y44.729
G3 X-55.805 Y44.761 I-1.638 J0.973
G1 X-55.496 Y45.306
G3 X-55.478 Y45.338 I-1.656 J0.941
G1 X-55.18 Y45.888
G3 X-55.162 Y45.92 I-1.674 J0.909
G1 X-54.875 Y46.474
G3 X-54.858 Y46.508 I-1.692 J0.876
G1 X-54.583 Y47.067
G3 X-54.566 Y47.101 I-1.709 J0.842
G1 X-54.302 Y47.665
G3 X-54.287 Y47.699 I-1.725 J0.808
G1 X-54.033 Y48.267
G3 X-54.018 Y48.302 I-1.74 J0.775
G1 X-53.777 Y48.876
G3 X-53.762 Y48.911 I-1.755 J0.74
G1 X-53.532 Y49.489
G3 X-53.518 Y49.524 I-1.77 J0.705
G1 X-53.299 Y50.108
G3 X-53.286 Y50.143 I-1.783 J0.67
G1 X-53.078 Y50.731
G3 X-53.066 Y50.766 I-1.796 J0.635
G1 X-52.869 Y51.36
G3 X-52.858 Y51.395 I-1.808 J0.6
G1 X-52.672 Y51.993
G3 X-52.662 Y52.029 I-1.82 J0.564
G1 X-52.488 Y52.632
G3 X-52.478 Y52.667 I-1.83 J0.529
G1 X-52.315 Y53.275
G3 X-52.306 Y53.311 I-1.84 J0.493
G1 X-52.154 Y53.924
G3 X-52.145 Y53.959 I-1.849 J0.458
G1 X-52.005 Y54.577
G3 X-51.997 Y54.612 I-1.858 J0.422
G1 X-51.868 Y55.235
G3 X-51.861 Y55.27 I-1.865 J0.387
G1 X-51.743 Y55.898
G3 X-51.737 Y55.933 I-1.872 J0.352
G1 X-51.63 Y56.566
G3 X-51.625 Y56.6 I-1.878 J0.317
G1 X-51.529 Y57.238
G3 X-51.524 Y57.272 I-1.884 J0.282
G1 X-51.44 Y57.915
G3 X-51.436 Y57.949 I-1.889 J0.248
G1 X-51.363 Y58.597
G3 X-51.359 Y58.63 I-1.893 J0.213
G1 X-51.297 Y59.283
G3 X-51.294 Y59.317 I-1.897 J0.18
G1 X-51.244 Y59.974
G3 X-51.242 Y60.007 I-1.899 J0.146
G1 X-51.202 Y60.669
G3 X-51.201 Y60.702 I-1.902 J0.113
G1 X-51.173 Y61.37
G3 X-51.172 Y61.402 I-1.903 J0.08
G1 X-51.155 Y62.074
G3 X-51.154 Y62.106 I-1.904 J0.048
G1 X-51.149 Y62.783
G3 Y62.82 I-1.905 J0.016
G1 X-51.161 Y63.894
G3 X-51.162 Y63.937 I-1.905 J-0.021
G1 X-51.198 Y65.001
G3 X-51.2 Y65.045 I-1.904 J-0.065
G1 X-51.261 Y66.099
G3 X-51.264 Y66.144 I-1.902 J-0.109
G1 X-51.349 Y67.189
G3 X-51.353 Y67.234 I-1.899 J-0.154
G1 X-51.462 Y68.269
G3 X-51.468 Y68.315 I-1.894 J-0.2
G1 X-51.601 Y69.341
G3 X-51.608 Y69.387 I-1.889 J-0.246
G1 X-51.765 Y70.403
G3 X-51.773 Y70.45 I-1.882 J-0.292
G1 X-51.955 Y71.456
G3 X-51.964 Y71.503 I-1.875 J-0.339
G1 X-52.17 Y72.5
G3 X-52.181 Y72.547 I-1.866 J-0.386
G1 X-52.411 Y73.535
G3 X-52.423 Y73.582 I-1.855 J-0.433
G1 X-52.677 Y74.56
G3 X-52.69 Y74.607 I-1.844 J-0.48
G1 X-52.969 Y75.576
G3 X-52.983 Y75.623 I-1.831 J-0.527
G1 X-53.286 Y76.582
G3 X-53.302 Y76.629 I-1.816 J-0.574
G1 X-53.629 Y77.579
G3 X-53.646 Y77.626 I-1.801 J-0.621
G1 X-53.998 Y78.566
G3 X-54.015 Y78.612 I-1.784 J-0.667
G1 X-54.391 Y79.544
G3 X-54.41 Y79.589 I-1.767 J-0.713
G1 X-54.811 Y80.511
G3 X-54.831 Y80.556 I-1.748 J-0.758
G1 X-55.255 Y81.469
G3 X-55.276 Y81.513 I-1.727 J-0.803
G1 X-55.725 Y82.416
G3 X-55.747 Y82.46 I-1.706 J-0.847
G1 X-56.22 Y83.354
G3 X-56.243 Y83.397 I-1.684 J-0.891
G1 X-56.74 Y84.282
G3 X-56.764 Y84.323 I-1.661 J-0.933
G1 X-57.286 Y85.199
G3 X-57.311 Y85.24 I-1.637 J-0.974
G1 X-57.856 Y86.107
G3 X-57.882 Y86.146 I-1.612 J-1.015
G1 X-58.452 Y87.004
G3 X-58.536 Y87.121 I-1.587 J-1.054
G1 X-59.209 Y87.984
G3 X-59.239 Y88.022 I-1.502 J-1.171
G1 X-59.935 Y88.87
G3 X-59.967 Y88.907 I-1.472 J-1.209
G1 X-60.686 Y89.738
G3 X-60.718 Y89.774 I-1.441 J-1.246
G1 X-61.46 Y90.589
G3 X-61.493 Y90.625 I-1.408 J-1.283
G1 X-62.259 Y91.424
G3 X-62.292 Y91.458 I-1.376 J-1.318
G1 X-63.08 Y92.24
G3 X-63.114 Y92.273 I-1.342 J-1.352
G1 X-63.926 Y93.04
G3 X-63.96 Y93.072 I-1.308 J-1.385
G1 X-64.795 Y93.822
G3 X-64.829 Y93.853 I-1.274 J-1.416
G1 X-65.687 Y94.587
G3 X-65.722 Y94.616 I-1.239 J-1.447
G1 X-66.603 Y95.335
G3 X-66.638 Y95.363 I-1.204 J-1.476
G1 X-67.541 Y96.065
G3 X-67.577 Y96.092 I-1.169 J-1.504
G1 X-68.504 Y96.778
G3 X-68.539 Y96.803 I-1.133 J-1.531
G1 X-69.489 Y97.473
G3 X-69.524 Y97.498 I-1.098 J-1.557
G1 X-70.497 Y98.151
G3 X-70.532 Y98.175 I-1.063 J-1.581
G1 X-71.528 Y98.812
G3 X-71.563 Y98.834 I-1.027 J-1.604
G1 X-72.582 Y99.456
G3 X-72.617 Y99.477 I-0.992 J-1.626
G1 X-73.659 Y100.082
G3 X-73.694 Y100.102 I-0.957 J-1.647
G1 X-74.759 Y100.691
G3 X-74.793 Y100.71 I-0.922 J-1.667
G1 X-75.881 Y101.283
G3 X-75.915 Y101.3 I-0.888 J-1.685
G1 X-77.026 Y101.858
G3 X-77.06 Y101.874 I-0.854 J-1.703
G1 X-78.194 Y102.415
G3 X-78.228 Y102.431 I-0.82 J-1.719
G1 X-79.385 Y102.955
G3 X-79.417 Y102.969 I-0.786 J-1.735
G1 X-80.597 Y103.478
G3 X-80.629 Y103.492 I-0.754 J-1.749
G1 X-81.832 Y103.985
G3 X-81.865 Y103.998 I-0.722 J-1.763
G1 X-83.091 Y104.474
G3 X-83.121 Y104.485 I-0.689 J-1.776
G1 X-84.37 Y104.946
G3 X-84.402 Y104.958 I-0.66 J-1.787
G1 X-85.674 Y105.402
G3 X-85.704 Y105.412 I-0.628 J-1.799
G1 X-86.999 Y105.84
G3 X-87.029 Y105.849 I-0.598 J-1.809
G1 X-88.347 Y106.261
G3 X-88.376 Y106.27 I-0.568 J-1.818
G1 X-89.717 Y106.666
G3 X-89.746 Y106.674 I-0.539 J-1.827
G1 X-91.11 Y107.053
G3 X-91.137 Y107.061 I-0.51 J-1.835
G1 X-92.524 Y107.425
G3 X-92.552 Y107.432 I-0.484 J-1.843
G1 X-93.962 Y107.779
G3 X-93.988 Y107.785 I-0.455 J-1.85
G1 X-95.421 Y108.117
G3 X-95.448 Y108.123 I-0.43 J-1.856
G1 X-96.904 Y108.438
G3 X-96.929 Y108.443 I-0.403 J-1.862
G1 X-98.408 Y108.742
G3 X-98.433 Y108.747 I-0.377 J-1.867
G1 X-99.935 Y109.03
G3 X-99.959 Y109.034 I-0.353 J-1.872
G1 X-101.484 Y109.301
G3 X-101.508 Y109.305 I-0.329 J-1.876
G1 X-103.056 Y109.556
G3 X-103.08 Y109.56 I-0.305 J-1.88
G1 X-104.651 Y109.794
G3 X-104.673 Y109.797 I-0.281 J-1.884
G1 X-106.267 Y110.016
G3 X-106.29 Y110.019 I-0.259 J-1.887
G1 X-107.907 Y110.221
G3 X-107.928 Y110.224 I-0.236 J-1.89
G1 X-109.568 Y110.41
G3 X-109.588 Y110.412 I-0.215 J-1.893
G1 X-111.25 Y110.583
G3 X-111.272 Y110.585 I-0.195 J-1.895
G1 X-112.958 Y110.739
G3 X-112.979 Y110.741 I-0.173 J-1.897
G1 X-114.688 Y110.878
G3 X-114.706 Y110.879 I-0.152 J-1.899
G1 X-116.438 Y111.001
G3 X-116.457 Y111.003 I-0.134 J-1.9
G1 X-118.211 Y111.109
G3 X-118.338 Y111.112 I-0.115 J-1.902
G1 X-120.646 Y111.098
G3 X-120.669 I0.012 J-1.905
G1 X-122.958 Y111.056
G3 X-122.982 Y111.055 I0.035 J-1.905
G1 X-125.253 Y110.985
G3 X-125.277 Y110.984 I0.059 J-1.904
G1 X-127.53 Y110.886
G3 X-127.554 Y110.885 I0.083 J-1.903
G1 X-129.788 Y110.759
G3 X-129.813 Y110.757 I0.107 J-1.902
G1 X-132.029 Y110.603
G3 X-132.054 Y110.602 I0.132 J-1.9
G1 X-134.252 Y110.42
G3 X-134.278 Y110.417 I0.157 J-1.898
G1 X-136.457 Y110.207
G3 X-136.483 Y110.205 I0.183 J-1.896
G1 X-138.644 Y109.967
G3 X-138.669 Y109.964 I0.209 J-1.894
G1 X-140.812 Y109.699
G3 X-140.839 Y109.695 I0.234 J-1.891
G1 X-142.963 Y109.401
G3 X-142.99 Y109.397 I0.261 J-1.887
G1 X-145.096 Y109.075
G3 X-145.123 Y109.071 I0.288 J-1.883
G1 X-147.211 Y108.721
G3 X-147.238 Y108.716 I0.315 J-1.879
G1 X-149.308 Y108.338
G3 X-149.336 Y108.333 I0.342 J-1.874
G1 X-151.387 Y107.927
G3 X-151.415 Y107.921 I0.37 J-1.869
G1 X-153.448 Y107.487
G3 X-153.476 Y107.481 I0.398 J-1.863
G1 X-155.491 Y107.019
G3 X-155.519 Y107.012 I0.426 J-1.857
G1 X-157.515 Y106.522
G3 X-157.543 Y106.515 I0.454 J-1.85
G1 X-159.522 Y105.997
G3 X-159.551 Y105.989 I0.482 J-1.843
G1 X-161.511 Y105.443
G3 X-161.54 Y105.435 I0.511 J-1.835
G1 X-163.481 Y104.861
G3 X-163.51 Y104.852 I0.54 J-1.827
G1 X-165.434 Y104.25
G3 X-165.463 Y104.241 I0.569 J-1.818
G1 X-167.368 Y103.611
G3 X-167.397 Y103.601 I0.598 J-1.809
G1 X-169.284 Y102.943
G3 X-169.315 Y102.932 I0.627 J-1.799
G1 X-171.183 Y102.245
G3 X-171.211 Y102.234 I0.658 J-1.788
G1 X-173.061 Y101.52
G3 X-173.09 Y101.509 I0.686 J-1.777
G1 X-174.923 Y100.767
G3 X-174.953 Y100.754 I0.715 J-1.766
G1 X-176.766 Y99.984
G3 X-176.795 Y99.971 I0.745 J-1.753
G1 X-178.591 Y99.173
G3 X-178.62 Y99.159 I0.774 J-1.741
G1 X-180.397 Y98.333
G3 X-180.426 Y98.319 I0.803 J-1.727
G1 X-182.185 Y97.464
G3 X-182.214 Y97.45 I0.832 J-1.713
G1 X-183.955 Y96.567
G3 X-183.984 Y96.553 I0.861 J-1.699
G1 X-185.707 Y95.642
G3 X-185.736 Y95.626 I0.89 J-1.684
G1 X-187.44 Y94.687
G3 X-187.469 Y94.671 I0.919 J-1.669
G1 X-189.155 Y93.705
G3 X-189.183 Y93.688 I0.948 J-1.653
G1 X-190.851 Y92.693
G3 X-190.879 Y92.676 I0.976 J-1.636
G1 X-192.529 Y91.653
G3 X-192.557 Y91.636 I1.004 J-1.619
G1 X-194.188 Y90.585
G3 X-194.215 Y90.567 I1.032 J-1.601
G1 X-195.829 Y89.488
G3 X-195.856 Y89.469 I1.059 J-1.584
G1 X-197.451 Y88.362
G3 X-197.478 Y88.343 I1.086 J-1.565
G1 X-199.055 Y87.208
G3 X-199.082 Y87.188 I1.113 J-1.546
G1 X-200.64 Y86.024
G3 X-200.665 Y86.005 I1.14 J-1.526
G1 X-202.206 Y84.814
G3 X-202.232 Y84.793 I1.165 J-1.507
G1 X-203.754 Y83.574
G3 X-203.779 Y83.553 I1.191 J-1.487
G1 X-205.283 Y82.305
G3 X-205.308 Y82.285 I1.216 J-1.466
G1 X-206.794 Y81.009
G3 X-206.819 Y80.987 I1.241 J-1.445
G1 X-208.286 Y79.683
G3 X-208.309 Y79.663 I1.266 J-1.424
G1 X-209.759 Y78.331
G3 X-209.781 Y78.31 I1.289 J-1.403
G1 X-211.206 Y76.958
G3 X-211.228 Y76.936 I1.311 J-1.382
G1 X-212.623 Y75.569
G3 X-212.645 Y75.547 I1.333 J-1.361
G1 X-214.011 Y74.165
G3 X-214.033 Y74.142 I1.355 J-1.339
G1 X-215.368 Y72.745
G3 X-215.39 Y72.721 I1.377 J-1.316
G1 X-216.695 Y71.309
G3 X-216.717 Y71.285 I1.399 J-1.293
G1 X-217.992 Y69.857
G3 X-218.013 Y69.833 I1.421 J-1.269
G1 X-219.258 Y68.39
G3 X-219.279 Y68.365 I1.442 J-1.244
G1 X-220.495 Y66.907
G3 X-220.515 Y66.881 I1.464 J-1.219
G1 X-221.7 Y65.408
G3 X-221.721 Y65.382 I1.484 J-1.194
G1 X-222.876 Y63.893
G3 X-222.896 Y63.867 I1.505 J-1.168
G1 X-224.021 Y62.363
G3 X-224.041 Y62.336 I1.525 J-1.141
G1 X-225.136 Y60.817
G3 X-225.156 Y60.79 I1.545 J-1.114
G1 X-226.221 Y59.256
G3 X-226.24 Y59.228 I1.565 J-1.086
G1 X-227.275 Y57.679
G3 X-227.294 Y57.65 I1.584 J-1.058
G1 X-228.299 Y56.086
G3 X-228.317 Y56.057 I1.603 J-1.03
G1 X-229.292 Y54.477
G3 X-229.31 Y54.447 I1.621 J-1.001
G1 X-230.254 Y52.853
G3 X-230.271 Y52.824 I1.639 J-0.97
G1 X-231.186 Y51.214
G3 X-231.203 Y51.184 I1.656 J-0.941
G1 X-232.088 Y49.559
G3 X-232.104 Y49.528 I1.673 J-0.911
G1 X-232.959 Y47.888
G3 X-232.975 Y47.857 I1.689 J-0.881
G1 X-233.8 Y46.202
G3 X-233.816 Y46.17 I1.705 J-0.85
G1 X-234.609 Y44.5
G3 X-234.624 Y44.47 I1.72 J-0.818
G1 X-235.389 Y42.784
G3 X-235.403 Y42.752 I1.735 J-0.787
G1 X-236.138 Y41.052
G3 X-236.151 Y41.02 I1.749 J-0.756
G1 X-236.856 Y39.304
G3 X-236.869 Y39.272 I1.762 J-0.724
G1 X-237.543 Y37.541
G3 X-237.555 Y37.509 I1.775 J-0.691
G1 X-238.2 Y35.763
G3 X-238.212 Y35.731 I1.787 J-0.66
G1 X-238.827 Y33.97
G3 X-238.837 Y33.938 I1.799 J-0.628
G1 X-239.422 Y32.161
G3 X-239.433 Y32.128 I1.809 J-0.596
G1 X-239.987 Y30.337
G3 X-239.996 Y30.305 I1.82 J-0.563
G1 X-240.521 Y28.499
G3 X-240.53 Y28.467 I1.829 J-0.532
G1 X-241.025 Y26.645
G3 X-241.034 Y26.613 I1.838 J-0.499
G1 X-241.499 Y24.776
G3 X-241.507 Y24.743 I1.847 J-0.467
G1 X-241.941 Y22.891
G3 X-241.948 Y22.86 I1.855 J-0.435
G1 X-242.353 Y20.992
G3 X-242.359 Y20.961 I1.862 J-0.404
G1 X-242.734 Y19.078
G3 X-242.74 Y19.047 I1.868 J-0.372
G1 X-243.085 Y17.149
G3 X-243.091 Y17.117 I1.874 J-0.341
G1 X-243.405 Y15.204
G3 X-243.41 Y15.174 I1.88 J-0.309
G1 X-243.695 Y13.246
G3 X-243.699 Y13.215 I1.885 J-0.279
G1 X-243.954 Y11.272
G3 X-243.958 Y11.242 I1.889 J-0.248
G1 X-244.183 Y9.283
G3 X-244.186 Y9.253 I1.893 J-0.217
G1 X-244.381 Y7.28
G3 X-244.383 Y7.25 I1.896 J-0.187
G1 X-244.548 Y5.261
G3 X-244.551 Y5.232 I1.898 J-0.158
G1 X-244.686 Y3.228
G3 X-244.687 Y3.198 I1.901 J-0.128
G1 X-244.791 Y1.179
G3 X-244.793 Y1.151 I1.902 J-0.098
G1 X-244.868 Y-0.883
G3 X-244.869 Y-0.911 I1.904 J-0.07
G1 X-244.914 Y-2.961
G3 Y-2.988 I1.905 J-0.042
G1 X-244.929 Y-5.053
G3 Y-5.076 I1.905 J-0.014
G1 X-244.924 Y-6.145
G3 Y-6.164 I1.905 J0.009
G1 X-244.908 Y-7.232
G3 X-244.907 Y-7.252 I1.905 J0.029
G1 X-244.88 Y-8.317
G3 Y-8.337 I1.904 J0.048
G1 X-244.842 Y-9.401
G3 X-244.841 Y-9.419 I1.904 J0.068
G1 X-244.793 Y-10.482
G3 X-244.792 Y-10.501 I1.903 J0.086
G1 X-244.733 Y-11.562
G3 X-244.732 Y-11.582 I1.902 J0.106
G1 X-244.662 Y-12.641
G3 X-244.66 Y-12.661 I1.901 J0.126
G1 X-244.579 Y-13.719
G3 X-244.578 Y-13.737 I1.899 J0.145
G1 X-244.487 Y-14.793
G3 X-244.485 Y-14.812 I1.898 J0.164
G1 X-244.383 Y-15.867
G3 X-244.381 Y-15.887 I1.896 J0.183
G1 X-244.268 Y-16.939
G3 X-244.266 Y-16.957 I1.894 J0.203
G1 X-244.143 Y-18.008
G3 X-244.141 Y-18.028 I1.892 J0.221
G1 X-244.007 Y-19.077
G3 X-244.004 Y-19.097 I1.89 J0.241
G1 X-243.859 Y-20.145
G3 X-243.856 Y-20.164 I1.887 J0.261
G1 X-243.7 Y-21.21
G3 X-243.697 Y-21.23 I1.884 J0.281
G1 X-243.53 Y-22.274
G3 X-243.527 Y-22.292 I1.881 J0.301
G1 X-243.35 Y-23.335
G3 X-243.347 Y-23.355 I1.878 J0.319
G1 X-243.159 Y-24.396
G3 X-243.155 Y-24.414 I1.875 J0.339
G1 X-242.957 Y-25.453
G3 X-242.953 Y-25.474 I1.871 J0.357
G1 X-242.743 Y-26.512
G3 X-242.739 Y-26.53 I1.867 J0.378
G1 X-242.519 Y-27.566
G3 X-242.516 Y-27.584 I1.863 J0.396
G1 X-242.286 Y-28.618
G3 X-242.281 Y-28.639 I1.86 J0.413
G1 X-242.039 Y-29.672
G3 X-242.035 Y-29.69 I1.855 J0.435
G1 X-241.783 Y-30.721
G3 X-241.778 Y-30.74 I1.851 J0.452
G1 X-241.515 Y-31.769
G3 X-241.51 Y-31.788 I1.846 J0.472
G1 X-241.236 Y-32.816
G3 X-241.231 Y-32.834 I1.841 J0.491
G1 X-240.947 Y-33.86
G3 X-240.942 Y-33.879 I1.836 J0.508
G1 X-240.647 Y-34.903
G3 X-240.641 Y-34.922 I1.831 J0.527
G1 X-240.335 Y-35.945
G3 X-240.33 Y-35.962 I1.825 J0.546
G1 X-240.014 Y-36.983
G3 X-240.008 Y-37.002 I1.82 J0.563
G1 X-239.681 Y-38.021
G3 X-239.675 Y-38.04 I1.814 J0.582
G1 X-239.337 Y-39.058
G3 X-239.331 Y-39.076 I1.808 J0.6
G1 X-238.982 Y-40.092
G3 X-238.976 Y-40.109 I1.802 J0.619
G1 X-238.617 Y-41.123
G3 X-238.61 Y-41.142 I1.796 J0.635
G1 X-238.24 Y-42.154
G3 X-238.234 Y-42.172 I1.789 J0.654
G1 X-237.853 Y-43.184
G3 X-237.846 Y-43.2 I1.783 J0.672
G1 X-237.455 Y-44.209
G3 X-237.448 Y-44.227 I1.776 J0.688
G1 X-237.046 Y-45.235
G3 X-237.039 Y-45.253 I1.769 J0.706
G1 X-236.626 Y-46.259
G3 X-236.62 Y-46.275 I1.762 J0.723
G1 X-236.197 Y-47.279
G3 X-236.189 Y-47.297 I1.756 J0.739
G1 X-235.755 Y-48.3
G3 X-235.748 Y-48.317 I1.748 J0.757
G1 X-235.303 Y-49.318
G3 X-235.295 Y-49.335 I1.741 J0.774
G1 X-234.839 Y-50.335
G3 X-234.832 Y-50.35 I1.733 J0.791
G1 X-234.366 Y-51.348
G3 X-234.358 Y-51.365 I1.726 J0.806
G1 X-233.881 Y-52.361
G3 X-233.873 Y-52.377 I1.718 J0.823
G1 X-233.385 Y-53.372
G3 X-233.378 Y-53.387 I1.71 J0.839
G1 X-232.88 Y-54.38
G3 X-232.872 Y-54.396 I1.703 J0.854
G1 X-232.363 Y-55.387
G3 X-232.353 Y-55.406 I1.695 J0.87
G1 X-231.625 Y-56.786
G3 X-231.612 Y-56.81 I1.685 J0.889
G1 X-230.869 Y-58.172
G3 X-230.856 Y-58.195 I1.672 J0.912
G1 X-230.098 Y-59.539
G3 X-230.085 Y-59.562 I1.659 J0.936
G1 X-229.312 Y-60.888
G3 X-229.298 Y-60.912 I1.646 J0.96
G1 X-228.509 Y-62.219
G3 X-228.495 Y-62.242 I1.631 J0.983
G1 X-227.693 Y-63.531
G3 X-227.678 Y-63.555 I1.617 J1.006
G1 X-226.86 Y-64.826
G3 X-226.845 Y-64.849 I1.602 J1.031
G1 X-226.013 Y-66.102
G3 X-225.997 Y-66.126 I1.587 J1.054
G1 X-225.15 Y-67.36
G3 X-225.133 Y-67.384 I1.571 J1.078
G1 X-224.271 Y-68.6
G3 X-224.254 Y-68.624 I1.554 J1.102
G1 X-223.377 Y-69.822
G3 X-223.36 Y-69.844 I1.537 J1.125
G1 X-222.469 Y-71.024
G3 X-222.451 Y-71.048 I1.52 J1.148
G1 X-221.545 Y-72.209
G3 X-221.526 Y-72.233 I1.502 J1.172
G1 X-220.604 Y-73.377
G3 X-220.585 Y-73.399 I1.483 J1.196
G1 X-219.649 Y-74.524
G3 X-219.63 Y-74.547 I1.464 J1.218
G1 X-218.679 Y-75.654
G3 X-218.659 Y-75.677 I1.445 J1.241
G1 X-217.693 Y-76.766
G3 X-217.673 Y-76.788 I1.425 J1.264
G1 X-216.693 Y-77.859
G3 X-216.672 Y-77.882 I1.405 J1.286
G1 X-215.676 Y-78.934
G3 X-215.655 Y-78.956 I1.384 J1.31
G1 X-214.645 Y-79.99
G3 X-214.623 Y-80.012 I1.363 J1.331
G1 X-213.598 Y-81.028
G3 X-213.575 Y-81.05 I1.341 J1.353
G1 X-212.534 Y-82.048
G3 X-212.512 Y-82.068 I1.318 J1.375
G1 X-211.457 Y-83.048
G3 X-211.434 Y-83.069 I1.296 J1.396
G1 X-210.364 Y-84.03
G3 X-210.341 Y-84.05 I1.273 J1.417
G1 X-209.257 Y-84.993
G3 X-209.233 Y-85.014 I1.25 J1.437
G1 X-208.133 Y-85.939
G3 X-208.109 Y-85.959 I1.226 J1.458
G1 X-206.994 Y-86.865
G3 X-206.97 Y-86.884 I1.202 J1.478
G1 X-205.841 Y-87.773
G3 X-205.816 Y-87.792 I1.178 J1.497
G1 X-204.672 Y-88.662
G3 X-204.647 Y-88.681 I1.153 J1.516
G1 X-203.487 Y-89.533
G3 X-203.462 Y-89.551 I1.128 J1.535
G1 X-202.288 Y-90.384
G3 X-202.262 Y-90.402 I1.103 J1.553
G1 X-201.073 Y-91.217
G3 X-201.048 Y-91.235 I1.077 J1.571
G1 X-199.844 Y-92.032
G3 X-199.818 Y-92.049 I1.052 J1.588
G1 X-198.599 Y-92.828
G3 X-198.573 Y-92.843 I1.026 J1.605
G1 X-197.34 Y-93.604
G3 X-197.313 Y-93.62 I1 J1.621
G1 X-196.064 Y-94.363
G3 X-196.038 Y-94.378 I0.973 J1.638
G1 X-194.774 Y-95.102
G3 X-194.748 Y-95.117 I0.947 J1.653
G1 X-193.47 Y-95.823
G3 X-193.443 Y-95.838 I0.921 J1.668
G1 X-192.149 Y-96.525
G3 X-192.123 Y-96.539 I0.894 J1.682
G1 X-190.815 Y-97.208
G3 X-190.788 Y-97.222 I0.868 J1.696
G1 X-189.465 Y-97.873
G3 X-189.438 Y-97.886 I0.841 J1.709
G1 X-188.099 Y-98.519
G3 X-188.073 Y-98.531 I0.814 J1.722
G1 X-186.72 Y-99.146
G3 X-186.693 Y-99.158 I0.788 J1.734
G1 X-185.325 Y-99.754
G3 X-185.299 Y-99.765 I0.761 J1.746
G1 X-183.916 Y-100.343
G3 X-183.889 Y-100.354 I0.735 J1.758
G1 X-182.491 Y-100.914
G3 X-182.465 Y-100.925 I0.708 J1.768
G1 X-181.052 Y-101.466
G3 X-181.026 Y-101.476 I0.682 J1.779
G1 X-179.598 Y-102
G3 X-179.577 Y-102.007 I0.656 J1.789
G1 X-177.498 Y-102.742
G3 X-177.475 Y-102.75 I0.635 J1.796
G1 X-175.4 Y-103.454
G3 X-175.375 Y-103.462 I0.612 J1.804
G1 X-173.302 Y-104.134
G3 X-173.279 Y-104.142 I0.587 J1.812
G1 X-171.209 Y-104.783
G3 X-171.184 Y-104.79 I0.564 J1.82
G1 X-169.118 Y-105.399
G3 X-169.093 Y-105.406 I0.539 J1.827
G1 X-167.029 Y-105.984
G3 X-167.004 Y-105.991 I0.514 J1.834
G1 X-164.943 Y-106.538
G3 X-164.918 Y-106.545 I0.489 J1.841
G1 X-162.861 Y-107.061
G3 X-162.834 Y-107.067 I0.464 J1.848
G1 X-160.779 Y-107.551
G3 X-160.752 Y-107.557 I0.437 J1.854
G1 X-158.701 Y-108.009
G3 X-158.675 Y-108.015 I0.41 J1.86
G1 X-156.626 Y-108.437
G3 X-156.599 Y-108.442 I0.384 J1.866
G1 X-154.554 Y-108.832
G3 X-154.527 Y-108.837 I0.357 J1.871
G1 X-152.485 Y-109.196
G3 X-152.457 Y-109.201 I0.33 J1.876
G1 X-150.417 Y-109.529
G3 X-150.389 Y-109.533 I0.302 J1.881
G1 X-148.353 Y-109.829
G3 X-148.325 Y-109.833 I0.274 J1.885
G1 X-146.292 Y-110.098
G3 X-146.264 Y-110.101 I0.246 J1.889
G1 X-144.233 Y-110.335
G3 X-144.205 Y-110.339 I0.218 J1.892
G1 X-142.178 Y-110.542
G3 X-142.148 Y-110.544 I0.19 J1.896
G1 X-140.124 Y-110.715
G3 X-140.096 Y-110.717 I0.16 J1.898
G1 X-138.075 Y-110.857
G3 X-138.047 Y-110.859 I0.132 J1.9
G1 X-136.029 Y-110.969
G3 X-135.998 Y-110.971 I0.104 J1.902
G1 X-133.983 Y-111.048
G3 X-133.954 I0.073 J1.904
G1 X-131.942 Y-111.095
G3 X-131.913 Y-111.096 I0.044 J1.904
G1 X-129.903 Y-111.112
G3 X-129.874 I0.015 J1.905
G1 X-127.452 Y-111.094
G3 X-127.422 Y-111.093 I-0.014 J1.905
G1 X-125.022 Y-111.038
G3 X-124.993 I-0.044 J1.904
G1 X-122.617 Y-110.947
G3 X-122.587 Y-110.945 I-0.073 J1.904
G1 X-120.234 Y-110.818
G3 X-120.203 Y-110.816 I-0.103 J1.902
G1 X-117.873 Y-110.652
G3 X-117.842 Y-110.65 I-0.134 J1.9
G1 X-115.536 Y-110.45
G3 X-115.505 Y-110.447 I-0.165 J1.898
G1 X-113.221 Y-110.211
G3 X-113.189 Y-110.207 I-0.196 J1.895
G1 X-110.929 Y-109.935
G3 X-110.896 Y-109.931 I-0.228 J1.891
G1 X-108.659 Y-109.622
G3 X-108.627 Y-109.617 I-0.261 J1.887
G1 X-106.413 Y-109.272
G3 X-106.379 Y-109.267 I-0.293 J1.882
G1 X-104.189 Y-108.885
G3 X-104.156 Y-108.879 I-0.327 J1.877
G1 X-101.989 Y-108.462
G3 X-101.962 Y-108.456 I-0.36 J1.871
G1 X-100.887 Y-108.233
G3 X-100.872 Y-108.23 I-0.387 J1.865
G1 X-99.803 Y-107.999
G3 X-99.784 Y-107.995 I-0.402 J1.862
G1 X-98.721 Y-107.754
G3 X-98.705 Y-107.75 I-0.421 J1.858
G1 X-97.648 Y-107.501
G3 X-97.629 Y-107.497 I-0.437 J1.854
G1 X-96.577 Y-107.238
G3 X-96.56 Y-107.233 I-0.456 J1.85
G1 X-95.514 Y-106.965
G3 X-95.498 Y-106.961 I-0.473 J1.845
G1 X-94.458 Y-106.685
G3 X-94.439 Y-106.68 I-0.489 J1.841
G1 X-93.405 Y-106.394
G3 X-93.388 Y-106.389 I-0.508 J1.836
G1 X-92.359 Y-106.094
G3 X-92.342 Y-106.089 I-0.525 J1.831
G1 X-91.319 Y-105.785
G3 X-91.302 Y-105.78 I-0.543 J1.826
G1 X-90.285 Y-105.467
G3 X-90.268 Y-105.461 I-0.561 J1.821
G1 X-89.257 Y-105.139
G3 X-89.239 Y-105.133 I-0.578 J1.815
G1 X-88.234 Y-104.802
G3 X-88.216 Y-104.796 I-0.596 J1.809
G1 X-87.217 Y-104.456
G3 X-87.2 Y-104.45 I-0.614 J1.803
G1 X-86.206 Y-104.101
G3 X-86.189 Y-104.095 I-0.632 J1.797
G1 X-85.201 Y-103.737
G3 X-85.184 Y-103.73 I-0.649 J1.791
G1 X-84.202 Y-103.363
G3 X-84.184 Y-103.357 I-0.667 J1.784
G1 X-83.208 Y-102.981
G3 X-83.189 Y-102.973 I-0.685 J1.778
G1 X-82.219 Y-102.587
G3 X-82.203 Y-102.58 I-0.704 J1.77
G1 X-81.239 Y-102.186
G3 X-81.221 Y-102.179 I-0.721 J1.763
G1 X-80.263 Y-101.776
G3 X-80.244 Y-101.768 I-0.739 J1.756
G1 X-79.292 Y-101.356
G3 X-79.275 Y-101.348 I-0.757 J1.748
G1 X-78.328 Y-100.926
G3 X-78.31 Y-100.918 I-0.775 J1.74
G1 X-77.37 Y-100.488
G3 X-77.349 Y-100.478 I-0.793 J1.732
G1 X-75.511 Y-99.61
G3 X-75.491 Y-99.601 I-0.814 J1.723
G1 X-73.729 Y-98.743
G3 X-73.707 Y-98.732 I-0.834 J1.713
G1 X-72.02 Y-97.884
G3 X-71.997 Y-97.873 I-0.855 J1.702
G1 X-70.385 Y-97.035
G3 X-70.36 Y-97.022 I-0.878 J1.69
G1 X-68.824 Y-96.195
G3 X-68.797 Y-96.18 I-0.903 J1.677
G1 X-67.336 Y-95.363
G3 X-67.307 Y-95.347 I-0.93 J1.663
G1 X-65.921 Y-94.54
G3 X-65.89 Y-94.522 I-0.958 J1.646
G1 X-64.579 Y-93.725
G3 X-64.545 Y-93.704 I-0.989 J1.628
G1 X-63.31 Y-92.918
G3 X-63.274 Y-92.894 I-1.023 J1.607
G1 X-62.113 Y-92.118
G3 X-62.073 Y-92.091 I-1.059 J1.583
G1 X-60.988 Y-91.325
G3 X-60.945 Y-91.293 I-1.099 J1.556
G1 X-59.936 Y-90.538
G3 X-59.889 Y-90.502 I-1.141 J1.525
G1 X-58.954 Y-89.756
G3 X-58.917 Y-89.725 I-1.188 J1.489
G1 X-58.478 Y-89.356
G3 X-58.451 Y-89.334 I-1.226 J1.458
G1 X-58.031 Y-88.967
G3 X-58.003 Y-88.943 I-1.252 J1.436
G1 X-57.602 Y-88.579
G3 X-57.573 Y-88.553 I-1.279 J1.412
G1 X-57.191 Y-88.191
G3 X-57.161 Y-88.163 I-1.308 J1.385
G1 X-56.797 Y-87.804
G3 X-56.766 Y-87.773 I-1.338 J1.357
G1 X-56.421 Y-87.416
G3 X-56.389 Y-87.383 I-1.368 J1.325
G1 X-56.063 Y-87.029
G3 X-56.03 Y-86.992 I-1.4 J1.292
G1 X-55.722 Y-86.641
G3 X-55.688 Y-86.601 I-1.433 J1.255
G1 X-55.4 Y-86.252
G3 X-55.365 Y-86.209 I-1.467 J1.215
G1 X-55.095 Y-85.863
G3 X-55.059 Y-85.815 I-1.502 J1.172
G1 X-54.808 Y-85.472
G3 X-54.772 Y-85.421 I-1.538 J1.124
G1 X-54.54 Y-85.08
G3 X-54.503 Y-85.023 I-1.574 J1.073
G1 X-54.289 Y-84.685
G3 X-54.252 Y-84.624 I-1.611 J1.016
G1 X-54.058 Y-84.288
G3 X-54.021 Y-84.221 I-1.648 J0.955
G1 X-53.845 Y-83.888
G3 X-53.809 Y-83.816 I-1.685 J0.889
G1 X-53.652 Y-83.486
G3 X-53.617 Y-83.408 I-1.721 J0.817
G1 X-53.479 Y-83.08
G3 X-53.446 Y-82.996 I-1.756 J0.739
G1 X-53.327 Y-82.67
G3 X-53.297 Y-82.581 I-1.789 J0.655
G1 X-53.196 Y-82.258
G3 X-53.169 Y-82.163 I-1.819 J0.566
G1 X-53.087 Y-81.842
G3 X-53.064 Y-81.741 I-1.846 J0.471
G1 X-53.002 Y-81.423
G3 X-52.984 Y-81.317 I-1.869 J0.37
G1 X-52.94 Y-81.001
G3 X-52.922 Y-80.697 I-1.887 J0.264
G1 X-52.933 Y-80.162
G3 X-52.937 Y-80.076 I-1.905 J-0.041
G1 X-52.971 Y-79.564
G3 X-52.98 Y-79.47 I-1.901 J-0.127
G1 X-53.037 Y-78.98
G3 X-53.051 Y-78.88 I-1.892 J-0.221
G1 X-53.131 Y-78.412
G3 X-53.153 Y-78.305 I-1.878 J-0.321
G1 X-53.256 Y-77.86
G3 X-53.286 Y-77.746 I-1.856 J-0.429
G1 X-53.411 Y-77.323
G3 X-53.451 Y-77.203 I-1.826 J-0.542
G1 X-53.6 Y-76.803
G3 X-53.651 Y-76.679 I-1.786 J-0.663
G1 X-53.822 Y-76.301
G3 X-53.885 Y-76.175 I-1.735 J-0.786
G1 X-54.079 Y-75.819
G3 X-54.155 Y-75.693 I-1.672 J-0.913
G1 X-54.371 Y-75.36
G3 X-54.459 Y-75.235 I-1.597 J-1.039
G1 X-54.699 Y-74.925
G3 X-54.799 Y-74.806 I-1.509 J-1.163
G1 X-55.061 Y-74.518
G3 X-55.171 Y-74.406 I-1.409 J-1.282
G1 X-55.456 Y-74.141
G3 X-55.574 Y-74.04 I-1.299 J-1.393
G1 X-55.881 Y-73.796
G3 X-56.004 Y-73.707 I-1.181 J-1.494
G1 X-56.335 Y-73.486
G3 X-56.461 Y-73.409 I-1.058 J-1.584
G1 X-56.814 Y-73.211
G3 X-56.939 Y-73.146 I-0.933 J-1.661
G1 X-57.315 Y-72.97
G3 X-57.438 Y-72.918 I-0.807 J-1.726
G1 X-57.837 Y-72.765
G3 X-57.956 Y-72.723 I-0.684 J-1.778
G1 X-58.378 Y-72.592
G3 X-58.491 Y-72.561 I-0.564 J-1.819
G1 X-58.935 Y-72.453
G3 X-59.042 Y-72.43 I-0.451 J-1.851
G1 X-59.509 Y-72.344
G3 X-59.609 Y-72.329 I-0.344 J-1.874
G1 X-60.098 Y-72.266
G3 X-60.191 Y-72.256 I-0.244 J-1.889
G1 X-60.703 Y-72.215
G3 X-60.79 Y-72.211 I-0.15 J-1.899
G1 X-61.324 Y-72.193
G3 X-61.447 I-0.064 J-1.904
G1 X-62.09 Y-72.213
G3 X-62.203 Y-72.219 I0.06 J-1.904
G1 X-62.869 Y-72.28
G3 X-62.972 Y-72.292 I0.172 J-1.897
G1 X-63.66 Y-72.393
G3 X-63.755 Y-72.409 I0.275 J-1.885
G1 X-64.466 Y-72.55
G3 X-64.552 Y-72.569 I0.37 J-1.869
G1 X-65.285 Y-72.75
G3 X-65.364 Y-72.771 I0.457 J-1.849
G1 X-66.12 Y-72.993
G3 X-66.191 Y-73.015 I0.535 J-1.828
G1 X-66.97 Y-73.277
G3 X-67.035 Y-73.3 I0.607 J-1.806
G1 X-67.836 Y-73.601
G3 X-67.895 Y-73.625 I0.672 J-1.783
G1 X-68.719 Y-73.967
G3 X-68.773 Y-73.99 I0.73 J-1.759
G1 X-69.619 Y-74.372
G3 X-69.668 Y-74.395 I0.784 J-1.736
G1 X-70.537 Y-74.818
G3 X-70.582 Y-74.84 I0.833 J-1.713
G1 X-71.473 Y-75.303
G3 X-71.513 Y-75.325 I0.878 J-1.691
G1 X-72.428 Y-75.828
G3 X-72.465 Y-75.849 I0.918 J-1.669
G1 X-73.402 Y-76.392
G3 X-73.436 Y-76.412 I0.956 J-1.648
G1 X-74.395 Y-76.996
G3 X-74.427 Y-77.015 I0.99 J-1.628
G1 X-75.409 Y-77.639
G3 X-75.438 Y-77.658 I1.021 J-1.608
G1 X-76.443 Y-78.322
G3 X-76.469 Y-78.34 I1.05 J-1.589
G1 X-77.497 Y-79.044
G3 X-77.521 Y-79.061 I1.077 J-1.571
G1 X-78.571 Y-79.806
G3 X-78.594 Y-79.822 I1.102 J-1.554
G1 X-79.667 Y-80.607
G3 X-79.688 Y-80.623 I1.125 J-1.537
G1 X-80.783 Y-81.448
G3 X-80.803 Y-81.463 I1.146 J-1.522
G1 X-81.92 Y-82.328
G3 X-81.939 Y-82.342 I1.166 J-1.506
G1 X-83.079 Y-83.248
G3 X-83.096 Y-83.262 I1.185 J-1.492
G1 X-84.258 Y-84.207
X-84.874 Y-84.706
X-85.488 Y-85.184
X-86.115 Y-85.652
X-86.754 Y-86.111
X-87.406 Y-86.559
X-88.07 Y-86.997
X-88.747 Y-87.426
X-89.436 Y-87.844
X-90.139 Y-88.253
X-90.854 Y-88.651
X-91.582 Y-89.04
X-92.323 Y-89.418
X-93.076 Y-89.787
X-93.843 Y-90.145
X-94.622 Y-90.494
X-95.414 Y-90.832
X-96.219 Y-91.16
X-97.037 Y-91.478
X-97.868 Y-91.786
X-98.713 Y-92.084
X-99.57 Y-92.372
X-100.44 Y-92.649
X-101.323 Y-92.917
X-102.219 Y-93.174
X-103.128 Y-93.42
X-104.05 Y-93.657
X-104.986 Y-93.883
X-105.934 Y-94.099
X-106.896 Y-94.304
X-107.87 Y-94.499
X-108.858 Y-94.684
X-109.858 Y-94.858
X-110.872 Y-95.022
X-111.898 Y-95.176
X-112.939 Y-95.318
X-113.991 Y-95.451
X-115.057 Y-95.573
X-116.136 Y-95.684
X-117.228 Y-95.785
X-118.332 Y-95.875
X-119.451 Y-95.955
X-120.582 Y-96.024
X-121.725 Y-96.083
X-122.883 Y-96.13
X-124.052 Y-96.168
X-125.235 Y-96.194
X-126.431 Y-96.21
X-127.637 Y-96.216
X-129.259 Y-96.203
X-130.891 Y-96.167
X-132.534 Y-96.106
X-134.186 Y-96.021
X-135.85 Y-95.911
X-137.524 Y-95.776
X-139.209 Y-95.618
X-140.905 Y-95.434
X-142.611 Y-95.227
X-144.329 Y-94.994
X-146.057 Y-94.738
X-147.796 Y-94.456
X-149.544 Y-94.15
X-151.305 Y-93.82
X-153.075 Y-93.465
X-154.856 Y-93.085
X-156.647 Y-92.681
X-158.449 Y-92.252
X-160.261 Y-91.798
X-162.084 Y-91.32
X-163.918 Y-90.817
X-165.761 Y-90.289
X-167.615 Y-89.737
X-169.484 Y-89.159
X-170.811 Y-88.741
X-172.114 Y-88.311
X-173.404 Y-87.867
X-174.679 Y-87.408
X-175.94 Y-86.934
X-177.187 Y-86.445
X-178.42 Y-85.942
X-179.639 Y-85.424
X-180.844 Y-84.891
X-182.034 Y-84.344
X-183.21 Y-83.782
X-184.372 Y-83.205
X-185.52 Y-82.614
X-186.654 Y-82.008
X-187.774 Y-81.387
X-188.879 Y-80.752
X-189.971 Y-80.102
X-191.048 Y-79.438
X-192.112 Y-78.759
X-193.162 Y-78.065
X-194.197 Y-77.357
X-195.219 Y-76.634
X-196.226 Y-75.896
X-197.22 Y-75.143
X-198.201 Y-74.376
X-199.167 Y-73.595
X-200.119 Y-72.799
X-201.056 Y-71.987
X-201.981 Y-71.161
X-202.892 Y-70.321
X-203.789 Y-69.465
X-204.672 Y-68.596
X-205.541 Y-67.711
X-206.397 Y-66.811
X-207.239 Y-65.897
X-208.067 Y-64.967
X-208.882 Y-64.023
X-209.682 Y-63.064
X-210.469 Y-62.09
X-211.242 Y-61.101
X-212.002 Y-60.098
X-212.747 Y-59.079
X-213.48 Y-58.045
X-214.198 Y-56.997
X-214.903 Y-55.933
X-215.594 Y-54.855
X-216.271 Y-53.761
X-216.938 Y-52.646
X-217.465 Y-51.748
X-217.98 Y-50.848
X-218.484 Y-49.943
X-218.977 Y-49.035
X-219.458 Y-48.123
X-219.928 Y-47.207
X-220.388 Y-46.288
X-220.835 Y-45.363
X-221.273 Y-44.435
X-221.699 Y-43.504
X-222.114 Y-42.568
X-222.517 Y-41.629
X-222.91 Y-40.685
X-223.292 Y-39.738
X-223.662 Y-38.786
X-224.022 Y-37.83
X-224.37 Y-36.872
X-224.707 Y-35.908
X-225.035 Y-34.94
X-225.349 Y-33.97
X-225.653 Y-32.994
X-225.947 Y-32.014
X-226.229 Y-31.03
X-226.5 Y-30.043
X-226.76 Y-29.051
X-227.009 Y-28.054
X-227.247 Y-27.055
X-227.473 Y-26.051
X-227.69 Y-25.042
X-227.895 Y-24.031
X-228.088 Y-23.014
X-228.271 Y-21.993
X-228.442 Y-20.969
X-228.603 Y-19.94
X-228.752 Y-18.907
X-228.891 Y-17.869
X-229.019 Y-16.829
X-229.135 Y-15.782
X-229.241 Y-14.732
X-229.335 Y-13.679
X-229.417 Y-12.62
X-229.49 Y-11.557
X-229.551 Y-10.491
X-229.601 Y-9.42
X-229.639 Y-8.344
X-229.667 Y-7.264
X-229.684 Y-6.182
X-229.689 Y-5.096
X-229.676 Y-3.279
X-229.639 Y-1.477
X-229.576 Y0.311
X-229.487 Y2.088
X-229.374 Y3.851
X-229.235 Y5.601
X-229.071 Y7.339
X-228.882 Y9.065
X-228.668 Y10.777
X-228.428 Y12.477
X-228.163 Y14.164
X-227.873 Y15.839
X-227.559 Y17.502
X-227.219 Y19.151
X-226.854 Y20.787
X-226.463 Y22.412
X-226.048 Y24.024
X-225.609 Y25.624
X-225.143 Y27.21
X-224.652 Y28.785
X-224.136 Y30.347
X-223.596 Y31.897
X-223.03 Y33.434
X-222.439 Y34.959
X-221.823 Y36.472
X-221.182 Y37.972
X-220.515 Y39.46
X-219.823 Y40.936
X-219.106 Y42.4
X-218.365 Y43.851
X-217.598 Y45.291
X-216.805 Y46.718
X-215.988 Y48.133
X-215.145 Y49.536
X-214.277 Y50.927
X-213.384 Y52.306
X-212.465 Y53.673
X-211.521 Y55.028
X-210.552 Y56.371
X-209.557 Y57.702
X-208.538 Y59.02
X-207.492 Y60.327
X-206.421 Y61.622
X-205.325 Y62.905
X-204.203 Y64.176
X-203.055 Y65.435
X-201.882 Y66.682
X-200.684 Y67.917
X-199.465 Y69.131
X-198.228 Y70.318
X-196.968 Y71.48
X-195.688 Y72.615
X-194.385 Y73.726
X-193.062 Y74.81
X-191.717 Y75.87
X-190.351 Y76.903
X-188.963 Y77.911
X-187.553 Y78.894
X-186.123 Y79.852
X-184.671 Y80.783
X-183.197 Y81.69
X-181.701 Y82.571
X-180.183 Y83.427
X-178.643 Y84.257
X-177.083 Y85.062
X-175.499 Y85.841
X-173.894 Y86.596
X-172.268 Y87.325
X-170.619 Y88.028
X-168.948 Y88.706
X-167.255 Y89.359
X-165.54 Y89.986
X-163.803 Y90.588
X-162.044 Y91.164
X-160.263 Y91.715
X-158.46 Y92.241
X-156.634 Y92.741
X-154.787 Y93.215
X-152.916 Y93.664
X-151.025 Y94.088
X-149.11 Y94.486
X-147.173 Y94.858
X-145.214 Y95.205
X-143.233 Y95.527
X-141.23 Y95.822
X-139.204 Y96.092
X-137.156 Y96.337
X-135.085 Y96.556
X-132.992 Y96.749
X-130.877 Y96.916
X-128.74 Y97.058
X-126.58 Y97.174
X-124.398 Y97.264
X-122.194 Y97.328
X-119.967 Y97.367
X-117.783 Y97.38
X-116.393 Y97.277
X-114.957 Y97.158
X-113.541 Y97.027
X-112.147 Y96.885
X-110.772 Y96.73
X-109.418 Y96.564
X-108.084 Y96.387
X-106.77 Y96.197
X-105.478 Y95.996
X-104.205 Y95.783
X-102.953 Y95.559
X-101.721 Y95.323
X-100.51 Y95.075
X-99.319 Y94.816
X-98.149 Y94.545
X-96.999 Y94.263
X-95.87 Y93.969
X-94.761 Y93.664
X-93.673 Y93.348
X-92.605 Y93.02
X-91.558 Y92.681
X-90.531 Y92.33
X-89.525 Y91.968
X-88.539 Y91.595
X-87.573 Y91.211
X-86.628 Y90.816
X-85.704 Y90.41
X-84.8 Y89.992
X-83.916 Y89.564
X-83.053 Y89.125
X-82.21 Y88.675
X-81.387 Y88.214
X-80.585 Y87.742
X-79.803 Y87.259
X-79.041 Y86.766
X-78.299 Y86.261
X-77.577 Y85.747
X-76.875 Y85.221
X-76.193 Y84.685
X-75.53 Y84.138
X-74.888 Y83.581
X-74.265 Y83.013
X-73.661 Y82.434
X-73.077 Y81.845
X-72.512 Y81.245
X-71.967 Y80.634
X-71.44 Y80.013
X-70.964 Y79.419
X-70.583 Y78.858
X-70.191 Y78.249
X-69.816 Y77.633
X-69.459 Y77.009
X-69.12 Y76.377
X-68.798 Y75.738
X-68.493 Y75.092
X-68.206 Y74.438
X-67.936 Y73.775
X-67.683 Y73.105
X-67.447 Y72.427
X-67.229 Y71.741
X-67.028 Y71.046
X-66.845 Y70.343
X-66.678 Y69.631
X-66.529 Y68.911
X-66.397 Y68.182
X-66.283 Y67.444
X-66.186 Y66.697
X-66.107 Y65.941
X-66.045 Y65.176
X-66.001 Y64.402
X-65.974 Y63.618
X-65.965 Y62.83
X-65.98 Y61.872
X-66.025 Y60.935
X-66.1 Y60.015
X-66.204 Y59.113
X-66.338 Y58.227
X-66.502 Y57.357
X-66.694 Y56.503
X-66.916 Y55.665
X-67.166 Y54.843
X-67.447 Y54.036
X-67.756 Y53.244
X-68.094 Y52.467
X-68.462 Y51.704
X-68.859 Y50.956
X-69.286 Y50.221
X-69.743 Y49.499
X-70.229 Y48.791
X-70.747 Y48.096
X-71.294 Y47.414
X-71.873 Y46.745
X-72.013 Y46.595
X-72.055 Y48.055
G3 X-72.056 Y48.079 I-1.904 J-0.055
G1 X-72.12 Y49.627
G3 X-72.122 Y49.652 I-1.903 J-0.079
G1 X-72.205 Y51.164
G3 X-72.206 Y51.19 I-1.902 J-0.104
G1 X-72.308 Y52.666
G3 X-72.31 Y52.694 I-1.901 J-0.131
G1 X-72.43 Y54.134
G3 X-72.432 Y54.163 I-1.898 J-0.158
G1 X-72.57 Y55.567
G3 X-72.573 Y55.597 I-1.896 J-0.186
G1 X-72.73 Y56.966
G3 X-72.734 Y56.997 I-1.893 J-0.217
G1 X-72.909 Y58.33
G3 X-72.913 Y58.363 I-1.889 J-0.248
G1 X-73.107 Y59.659
G3 X-73.112 Y59.694 I-1.884 J-0.281
G1 X-73.324 Y60.955
G3 X-73.33 Y60.991 I-1.879 J-0.315
G1 X-73.56 Y62.216
G3 X-73.568 Y62.253 I-1.872 J-0.352
G1 X-73.816 Y63.442
G3 X-73.825 Y63.482 I-1.865 J-0.389
G1 X-74.091 Y64.634
G3 X-74.101 Y64.676 I-1.856 J-0.429
G1 X-74.386 Y65.793
G3 X-74.398 Y65.837 I-1.846 J-0.471
G1 X-74.701 Y66.917
G3 X-74.714 Y66.963 I-1.834 J-0.514
G1 X-75.036 Y68.008
G3 X-75.051 Y68.055 I-1.821 J-0.56
G1 X-75.391 Y69.064
G3 X-75.408 Y69.114 I-1.805 J-0.608
G1 X-75.766 Y70.087
G3 X-75.786 Y70.139 I-1.788 J-0.658
G1 X-76.162 Y71.076
G3 X-76.185 Y71.13 I-1.768 J-0.71
G1 X-76.579 Y72.03
G3 X-76.605 Y72.087 I-1.745 J-0.764
G1 X-77.018 Y72.951
G3 X-77.047 Y73.01 I-1.719 J-0.821
G1 X-77.478 Y73.838
G3 X-77.515 Y73.905 I-1.69 J-0.879
G1 X-77.993 Y74.741
G3 X-78.015 Y74.778 I-1.653 J-0.946
G1 X-78.497 Y75.578
G3 X-78.522 Y75.617 I-1.631 J-0.984
G1 X-79.008 Y76.382
G3 X-79.035 Y76.423 I-1.607 J-1.023
G1 X-79.525 Y77.151
G3 X-79.555 Y77.194 I-1.58 J-1.064
G1 X-80.05 Y77.887
G3 X-80.083 Y77.932 I-1.551 J-1.107
G1 X-80.582 Y78.59
G3 X-80.618 Y78.636 I-1.518 J-1.151
G1 X-81.121 Y79.258
G3 X-81.161 Y79.306 I-1.482 J-1.197
G1 X-81.668 Y79.893
G3 X-81.712 Y79.943 I-1.441 J-1.246
G1 X-82.223 Y80.494
G3 X-82.272 Y80.545 I-1.397 J-1.295
G1 X-82.787 Y81.06
G3 X-82.842 Y81.113 I-1.348 J-1.346
G1 X-83.361 Y81.593
G3 X-83.421 Y81.645 I-1.293 J-1.399
G1 X-83.944 Y82.09
G3 X-84.01 Y82.144 I-1.234 J-1.452
G1 X-84.537 Y82.552
G3 X-84.609 Y82.606 I-1.168 J-1.505
G1 X-85.14 Y82.979
G3 X-85.218 Y83.031 I-1.095 J-1.559
G1 X-85.753 Y83.369
G3 X-85.839 Y83.42 I-1.017 J-1.611
G1 X-86.378 Y83.722
G3 X-86.469 Y83.77 I-0.932 J-1.662
G1 X-87.012 Y84.037
G3 X-87.11 Y84.082 I-0.84 J-1.71
G1 X-87.657 Y84.313
G3 X-87.761 Y84.353 I-0.742 J-1.755
G1 X-88.312 Y84.549
G3 X-88.422 Y84.584 I-0.637 J-1.795
G1 X-88.976 Y84.744
G3 X-89.09 Y84.773 I-0.528 J-1.83
G1 X-89.649 Y84.898
G3 X-89.766 Y84.92 I-0.414 J-1.859
G1 X-90.328 Y85.009
G3 X-90.447 Y85.024 I-0.297 J-1.882
G1 X-91.013 Y85.077
G3 X-91.132 Y85.084 I-0.178 J-1.897
G1 X-91.703 Y85.102
G3 X-91.987 Y85.09 I-0.059 J-1.904
G1 X-92.414 Y85.039
G3 X-92.5 Y85.027 I0.225 J-1.892
G1 X-92.923 Y84.957
G3 X-93.008 Y84.941 I0.31 J-1.88
G1 X-93.427 Y84.853
G3 X-93.511 Y84.833 I0.395 J-1.864
G1 X-93.925 Y84.725
G3 X-94.008 Y84.701 I0.479 J-1.844
G1 X-94.418 Y84.575
G3 X-94.499 Y84.548 I0.562 J-1.82
G1 X-94.905 Y84.402
G3 X-94.984 Y84.372 I0.644 J-1.793
G1 X-95.385 Y84.207
G3 X-95.462 Y84.174 I0.723 J-1.762
G1 X-95.858 Y83.99
G3 X-95.932 Y83.954 I0.8 J-1.729
G1 X-96.324 Y83.752
G3 X-96.395 Y83.713 I0.874 J-1.693
G1 X-96.782 Y83.492
G3 X-96.85 Y83.452 I0.945 J-1.654
G1 X-97.233 Y83.211
G3 X-97.296 Y83.17 I1.012 J-1.614
G1 X-97.675 Y82.911
G3 X-97.735 Y82.867 I1.076 J-1.572
G1 X-98.109 Y82.589
G3 X-98.166 Y82.545 I1.137 J-1.529
G1 X-98.535 Y82.248
G3 X-98.588 Y82.204 I1.194 J-1.485
G1 X-98.953 Y81.888
G3 X-99.003 Y81.844 I1.247 J-1.44
G1 X-99.363 Y81.509
G3 X-99.41 Y81.465 I1.296 J-1.396
G1 X-99.766 Y81.111
G3 X-99.809 Y81.067 I1.343 J-1.351
G1 X-100.16 Y80.695
G3 X-100.2 Y80.651 I1.386 J-1.307
G1 X-100.547 Y80.259
G3 X-100.584 Y80.216 I1.426 J-1.263
G1 X-100.926 Y79.806
G3 X-100.96 Y79.764 I1.463 J-1.221
G1 X-101.298 Y79.335
G3 X-101.329 Y79.295 I1.497 J-1.178
G1 X-101.663 Y78.847
G3 X-101.694 Y78.803 I1.528 J-1.138
G1 X-102.022 Y78.336
G3 X-102.046 Y78.301 I1.559 J-1.095
G1 X-102.371 Y77.815
G3 X-102.398 Y77.773 I1.583 J-1.059
G1 X-102.717 Y77.269
G3 X-102.738 Y77.235 I1.61 J-1.018
G1 X-103.054 Y76.712
G3 X-103.077 Y76.672 I1.631 J-0.984
G1 X-103.387 Y76.13
G3 X-103.404 Y76.099 I1.654 J-0.945
G1 X-103.711 Y75.538
G3 X-103.731 Y75.501 I1.671 J-0.914
G1 X-104.032 Y74.921
G3 X-104.047 Y74.892 I1.691 J-0.877
G1 X-104.345 Y74.293
G3 X-104.361 Y74.258 I1.706 J-0.849
G1 X-104.653 Y73.64
G3 X-104.667 Y73.611 I1.722 J-0.814
G1 X-104.955 Y72.975
G3 X-104.967 Y72.947 I1.736 J-0.785
G1 X-105.251 Y72.291
G3 X-105.263 Y72.262 I1.748 J-0.757
G1 X-105.542 Y71.588
G3 X-105.553 Y71.562 I1.76 J-0.728
G1 X-105.828 Y70.868
G3 X-105.838 Y70.841 I1.771 J-0.702
G1 X-106.108 Y70.129
G3 X-106.118 Y70.103 I1.781 J-0.675
G1 X-106.383 Y69.372
G3 X-106.391 Y69.349 I1.791 J-0.649
G1 X-106.652 Y68.599
G3 X-106.66 Y68.577 I1.799 J-0.626
G1 X-106.917 Y67.808
G3 X-106.924 Y67.785 I1.807 J-0.604
G1 X-107.176 Y66.997
G3 X-107.187 Y66.965 I1.814 J-0.581
G1 X-107.676 Y65.333
G3 X-107.688 Y65.293 I1.825 J-0.548
G1 X-108.16 Y63.586
G3 X-108.17 Y63.549 I1.836 J-0.508
G1 X-108.624 Y61.766
G3 X-108.633 Y61.731 I1.846 J-0.47
G1 X-109.069 Y59.874
G3 X-109.083 Y59.808 I1.855 J-0.435
G1 X-109.246 Y58.984
G3 X-109.249 Y58.967 I1.869 J-0.37
G1 X-109.406 Y58.133
G3 X-109.409 Y58.118 I1.872 J-0.352
G1 X-109.561 Y57.273
G3 X-109.563 Y57.259 I1.875 J-0.337
G1 X-109.71 Y56.404
G3 X-109.714 Y56.385 I1.877 J-0.323
G1 X-109.854 Y55.52
G3 X-109.855 Y55.508 I1.881 J-0.304
G1 X-109.991 Y54.633
G3 X-109.994 Y54.615 I1.882 J-0.292
G1 X-110.123 Y53.729
G3 X-110.125 Y53.715 I1.885 J-0.275
G1 X-110.249 Y52.819
G3 X-110.251 Y52.804 I1.887 J-0.261
G1 X-110.369 Y51.898
G3 X-110.371 Y51.883 I1.889 J-0.246
G1 X-110.483 Y50.966
G3 X-110.484 Y50.953 I1.891 J-0.231
G1 X-110.591 Y50.026
G3 X-110.593 Y50.013 I1.892 J-0.218
G1 X-110.695 Y49.076
G3 X-110.697 Y49.06 I1.894 J-0.206
G1 X-110.792 Y48.111
G3 X-110.793 Y48.1 I1.896 J-0.19
G1 X-110.883 Y47.141
G3 X-110.884 Y47.128 I1.897 J-0.178
G1 X-110.968 Y46.159
G3 X-110.969 Y46.145 I1.898 J-0.165
G1 X-111.047 Y45.166
G3 X-111.048 Y45.155 I1.899 J-0.151
G1 X-111.121 Y44.165
G3 X-111.122 Y44.152 I1.9 J-0.14
G1 X-111.189 Y43.152
G3 Y43.141 I1.901 J-0.127
G1 X-111.251 Y42.13
G3 X-111.252 Y42.116 I1.901 J-0.117
G1 X-111.307 Y41.095
G3 X-111.308 Y41.084 I1.902 J-0.102
G1 X-111.358 Y40.052
G3 Y40.041 I1.903 J-0.092
G1 X-111.377 Y39.594
X-111.809 Y39.808
X-112.436 Y40.152
X-113.03 Y40.514
X-113.591 Y40.891
X-114.119 Y41.285
X-114.616 Y41.696
X-115.082 Y42.123
X-115.517 Y42.566
X-115.925 Y43.027
X-116.303 Y43.506
X-116.654 Y44.002
X-116.976 Y44.517
X-117.272 Y45.052
X-117.542 Y45.608
X-117.785 Y46.184
X-118.001 Y46.784
X-118.191 Y47.406
X-118.354 Y48.051
X-118.489 Y48.722
X-118.597 Y49.417
X-118.668 Y50.056
X-118.665 Y50.263
X-118.65 Y50.553
X-118.627 Y50.832
X-118.593 Y51.103
X-118.552 Y51.365
X-118.501 Y51.619
X-118.441 Y51.868
X-118.373 Y52.107
X-118.297 Y52.338
X-118.212 Y52.563
X-118.119 Y52.782
X-118.018 Y52.995
X-117.909 Y53.2
X-117.789 Y53.402
X-117.659 Y53.602
X-117.522 Y53.795
X-117.374 Y53.984
X-117.217 Y54.169
X-117.049 Y54.351
X-116.872 Y54.528
X-116.682 Y54.703
X-116.48 Y54.874
X-116.267 Y55.042
X-116.017 Y55.224
X-115.601 Y55.525
G3 X-115.565 Y55.551 I-1.114 J1.545
G1 X-115.157 Y55.86
G3 X-115.123 Y55.886 I-1.15 J1.519
G1 X-114.727 Y56.2
G3 X-114.691 Y56.23 I-1.184 J1.493
G1 X-114.308 Y56.549
G3 X-114.272 Y56.58 I-1.22 J1.463
G1 X-113.902 Y56.904
G3 X-113.869 Y56.934 I-1.256 J1.432
G1 X-113.51 Y57.264
G3 X-113.472 Y57.3 I-1.289 J1.403
G1 X-113.127 Y57.635
G3 X-113.095 Y57.667 I-1.327 J1.367
G1 X-112.761 Y58.007
G3 X-112.724 Y58.045 I-1.359 J1.335
G1 X-112.403 Y58.39
G3 X-112.368 Y58.43 I-1.396 J1.297
G1 X-112.06 Y58.781
G3 X-112.026 Y58.82 I-1.431 J1.257
G1 X-111.73 Y59.176
G3 X-111.695 Y59.219 I-1.465 J1.218
G1 X-111.412 Y59.58
G3 X-111.38 Y59.622 I-1.5 J1.175
G1 X-111.109 Y59.988
G3 X-111.076 Y60.035 I-1.532 J1.133
G1 X-110.818 Y60.407
G3 X-110.786 Y60.455 I-1.565 J1.086
G1 X-110.541 Y60.832
G3 X-110.512 Y60.878 I-1.597 J1.038
G1 X-110.279 Y61.26
G3 X-110.25 Y61.308 I-1.626 J0.992
G1 X-110.029 Y61.695
G3 X-110.001 Y61.748 I-1.655 J0.944
G1 X-109.793 Y62.14
G3 X-109.765 Y62.194 I-1.683 J0.892
G1 X-109.57 Y62.591
G3 X-109.545 Y62.646 I-1.711 J0.838
G1 X-109.363 Y63.049
G3 X-109.34 Y63.101 I-1.736 J0.784
G1 X-109.17 Y63.509
G3 X-109.149 Y63.561 I-1.759 J0.732
G1 X-108.991 Y63.975
G3 X-108.97 Y64.035 I-1.78 J0.68
G1 X-108.826 Y64.454
G3 X-108.808 Y64.507 I-1.801 J0.619
G1 X-108.676 Y64.931
G3 X-108.658 Y64.993 I-1.819 J0.566
G1 X-108.628 Y65.102
G3 X-108.616 Y65.149 I-1.837 J0.505
G1 X-108.589 Y65.258
X-108.562 Y65.368
G3 X-108.554 Y65.399 I-1.849 J0.457
G1 X-108.529 Y65.508
G3 X-108.522 Y65.541 I-1.857 J0.426
G1 X-108.476 Y65.759
G3 X-108.469 Y65.791 I-1.864 J0.393
G1 X-108.448 Y65.9
G3 X-108.442 Y65.933 I-1.871 J0.361
G1 X-108.404 Y66.151
G3 X-108.399 Y66.184 I-1.877 J0.328
G1 X-108.382 Y66.292
G3 X-108.379 Y66.309 I-1.882 J0.295
G1 X-108.363 Y66.418
G3 X-108.361 Y66.434 I-1.885 J0.278
G1 X-108.346 Y66.543
G3 X-108.342 Y66.577 I-1.887 J0.261
G1 X-108.329 Y66.685
G3 X-108.327 Y66.702 I-1.891 J0.227
G1 X-108.315 Y66.81
G3 X-108.313 Y66.827 I-1.893 J0.21
G1 X-108.302 Y66.935
G3 X-108.3 Y66.952 I-1.895 J0.193
G1 X-108.29 Y67.06
G3 X-108.289 Y67.077 I-1.897 J0.176
G1 X-108.28 Y67.185
G3 X-108.277 Y67.22 I-1.898 J0.159
G1 X-108.27 Y67.327
G3 X-108.269 Y67.344 I-1.901 J0.124
G1 X-108.263 Y67.451
X-108.257 Y67.558
G3 X-108.255 Y67.612 I-1.902 J0.107
G1 X-108.252 Y67.718
X-108.249 Y67.825
G3 X-108.248 Y67.842 I-1.904 J0.054
G1 X-108.246 Y67.949
G3 Y67.984 I-1.905 J0.036
G1 Y68.09
G3 Y68.121 I-1.905
G1 X-108.251 Y68.435
G3 X-108.253 Y68.502 I-1.905 J-0.03
G1 X-108.269 Y68.815
G3 X-108.274 Y68.882 I-1.903 J-0.097
G1 X-108.301 Y69.194
G3 X-108.308 Y69.261 I-1.898 J-0.164
G1 X-108.346 Y69.573
G3 X-108.354 Y69.633 I-1.891 J-0.23
G1 X-108.402 Y69.945
G3 X-108.413 Y70.01 I-1.883 J-0.29
G1 X-108.472 Y70.321
G3 X-108.486 Y70.385 I-1.872 J-0.355
G1 X-108.556 Y70.695
G3 X-108.571 Y70.758 I-1.858 J-0.419
G1 X-108.652 Y71.068
G3 X-108.667 Y71.124 I-1.843 J-0.481
G1 X-108.758 Y71.433
G3 X-108.777 Y71.493 I-1.828 J-0.537
G1 X-108.879 Y71.802
G3 X-108.899 Y71.86 I-1.809 J-0.597
G1 X-109.012 Y72.169
G3 X-109.032 Y72.22 I-1.789 J-0.655
G1 X-109.155 Y72.528
G3 X-109.18 Y72.587 I-1.769 J-0.707
G1 X-109.315 Y72.895
G3 X-109.337 Y72.942 I-1.744 J-0.766
G1 X-109.482 Y73.249
G3 X-109.507 Y73.3 I-1.722 J-0.814
G1 X-109.663 Y73.606
G3 X-109.686 Y73.651 I-1.697 J-0.865
G1 X-109.852 Y73.956
G3 X-109.881 Y74.007 I-1.674 J-0.909
G1 X-110.059 Y74.312
G3 X-110.083 Y74.353 I-1.645 J-0.96
G1 X-110.271 Y74.657
G3 X-110.298 Y74.7 I-1.621 J-1.001
G1 X-110.497 Y75.004
G3 X-110.522 Y75.041 I-1.594 J-1.043
G1 X-110.731 Y75.345
G3 X-110.761 Y75.387 I-1.569 J-1.081
G1 X-110.982 Y75.69
G3 X-111.007 Y75.724 I-1.539 J-1.123
G1 X-111.238 Y76.026
G3 X-111.266 Y76.061 I-1.514 J-1.157
G1 X-111.508 Y76.363
G3 X-111.533 Y76.393 I-1.486 J-1.192
G1 X-111.785 Y76.695
G3 X-111.862 Y76.781 I-1.461 J-1.222
G1 X-112.153 Y77.089
G3 X-112.197 Y77.135 I-1.384 J-1.309
G1 X-112.495 Y77.429
G3 X-112.54 Y77.472 I-1.34 J-1.355
G1 X-112.844 Y77.754
G3 X-112.893 Y77.798 I-1.295 J-1.397
G1 X-113.204 Y78.067
G3 X-113.256 Y78.11 I-1.246 J-1.441
G1 X-113.574 Y78.366
G3 X-113.626 Y78.406 I-1.194 J-1.484
G1 X-113.95 Y78.648
G3 X-114.004 Y78.688 I-1.142 J-1.524
G1 X-114.334 Y78.917
G3 X-114.394 Y78.957 I-1.088 J-1.564
G1 X-114.732 Y79.174
G3 X-114.789 Y79.21 I-1.028 J-1.604
G1 X-115.133 Y79.413
G3 X-115.193 Y79.447 I-0.971 J-1.639
G1 X-115.543 Y79.638
G3 X-115.605 Y79.67 I-0.911 J-1.673
G1 X-115.963 Y79.848
G3 X-116.027 Y79.878 I-0.848 J-1.706
G1 X-116.391 Y80.043
G3 X-116.455 Y80.07 I-0.784 J-1.736
G1 X-116.826 Y80.222
G3 X-116.89 Y80.247 I-0.72 J-1.764
G1 X-117.267 Y80.385
G3 X-117.332 Y80.407 I-0.656 J-1.788
G1 X-117.715 Y80.532
G3 X-117.781 Y80.553 I-0.591 J-1.811
G1 X-118.172 Y80.665
G3 X-118.235 Y80.682 I-0.525 J-1.831
G1 X-118.631 Y80.781
G3 X-118.698 Y80.796 I-0.462 J-1.848
G1 X-119.102 Y80.882
G3 X-119.165 Y80.894 I-0.395 J-1.864
G1 X-119.575 Y80.967
G3 X-119.638 Y80.977 I-0.332 J-1.876
G1 X-120.055 Y81.036
G3 X-120.117 Y81.044 I-0.269 J-1.886
G1 X-120.54 Y81.09
G3 X-120.601 Y81.096 I-0.207 J-1.894
G1 X-121.031 Y81.129
G3 X-121.091 Y81.133 I-0.146 J-1.899
G1 X-121.528 Y81.152
G3 X-121.586 Y81.154 I-0.086 J-1.903
G1 X-122.029 Y81.161
G3 X-122.206 Y81.155 I-0.028 J-1.905
G1 X-123.056 Y81.089
G3 X-123.136 Y81.081 I0.149 J-1.899
G1 X-123.966 Y80.98
G3 X-124.049 Y80.968 I0.229 J-1.891
G1 X-124.859 Y80.834
G3 X-124.944 Y80.818 I0.312 J-1.879
G1 X-125.734 Y80.65
G3 X-125.82 Y80.629 I0.397 J-1.863
G1 X-126.591 Y80.427
G3 X-126.68 Y80.402 I0.483 J-1.843
G1 X-127.43 Y80.166
G3 X-127.517 Y80.136 I0.572 J-1.817
G1 X-128.248 Y79.866
G3 X-128.338 Y79.83 I0.659 J-1.787
G1 X-129.048 Y79.527
G3 X-129.136 Y79.487 I0.749 J-1.752
G1 X-129.826 Y79.149
G3 X-129.911 Y79.105 I0.837 J-1.711
G1 X-130.582 Y78.734
G3 X-130.667 Y78.684 I0.922 J-1.667
G1 X-131.317 Y78.279
G3 X-131.399 Y78.225 I1.007 J-1.617
G1 X-132.029 Y77.786
G3 X-132.106 Y77.729 I1.089 J-1.563
G1 X-132.716 Y77.257
G3 X-132.79 Y77.196 I1.166 J-1.506
G1 X-133.38 Y76.69
G3 X-133.45 Y76.627 I1.24 J-1.446
G1 X-134.02 Y76.087
G3 X-134.086 Y76.022 I1.31 J-1.383
G1 X-134.635 Y75.448
G3 X-134.694 Y75.383 I1.376 J-1.317
G1 X-135.224 Y74.776
G3 X-135.281 Y74.708 I1.435 J-1.252
G1 X-135.79 Y74.067
G3 X-135.84 Y74 I1.492 J-1.185
G1 X-136.329 Y73.326
G3 X-136.377 Y73.258 I1.542 J-1.118
G1 X-136.845 Y72.549
G3 X-136.885 Y72.485 I1.59 J-1.05
G1 X-137.334 Y71.743
G3 X-137.372 Y71.677 I1.63 J-0.986
G1 X-137.8 Y70.901
G3 X-137.834 Y70.837 I1.668 J-0.92
G1 X-138.241 Y70.028
G3 X-138.27 Y69.966 I1.702 J-0.856
G1 X-138.654 Y69.132
X-138.842 Y68.732
G3 X-138.858 Y68.696 I1.724 J-0.811
G1 X-139.041 Y68.286
G3 X-139.055 Y68.253 I1.74 J-0.776
G1 X-139.23 Y67.84
G3 X-139.244 Y67.807 I1.754 J-0.743
G1 X-139.411 Y67.392
G3 X-139.424 Y67.359 I1.768 J-0.71
G1 X-139.583 Y66.941
G3 X-139.595 Y66.907 I1.781 J-0.677
G1 X-139.746 Y66.486
G3 X-139.758 Y66.453 I1.793 J-0.644
G1 X-139.901 Y66.029
G3 X-139.912 Y65.995 I1.805 J-0.61
G1 X-140.047 Y65.57
G3 X-140.059 Y65.532 I1.816 J-0.576
G1 X-140.185 Y65.103
G3 X-140.193 Y65.073 I1.828 J-0.538
G1 X-140.312 Y64.642
G3 X-140.321 Y64.607 I1.836 J-0.507
G1 X-140.432 Y64.174
G3 X-140.442 Y64.135 I1.845 J-0.473
G1 X-140.544 Y63.699
G3 X-140.551 Y63.668 I1.855 J-0.434
G1 X-140.646 Y63.23
G3 X-140.654 Y63.191 I1.862 J-0.403
G1 X-140.74 Y62.749
G3 X-140.746 Y62.715 I1.87 J-0.364
G1 X-140.824 Y62.271
G3 X-140.83 Y62.236 I1.876 J-0.33
G1 X-140.9 Y61.789
G3 X-140.906 Y61.751 I1.882 J-0.295
G1 X-140.967 Y61.301
G3 X-140.971 Y61.271 I1.888 J-0.256
G1 X-141.025 Y60.819
G3 X-141.029 Y60.781 I1.892 J-0.226
G1 X-141.074 Y60.326
G3 X-141.077 Y60.292 I1.896 J-0.188
G1 X-141.114 Y59.835
G3 X-141.116 Y59.801 I1.899 J-0.154
G1 X-141.145 Y59.341
G3 X-141.147 Y59.308 I1.901 J-0.12
G1 X-141.168 Y58.845
G3 X-141.169 Y58.807 I1.903 J-0.086
G1 X-141.181 Y58.342
G3 X-141.182 Y58.309 I1.904 J-0.049
G1 X-141.186 Y57.841
G3 Y57.791 I1.905 J-0.016
G1 X-141.168 Y56.787
G3 X-141.165 Y56.715 I1.905 J0.034
G1 X-141.109 Y55.716
G3 X-141.104 Y55.645 I1.902 J0.107
G1 X-141.011 Y54.651
G3 X-141.003 Y54.578 I1.897 J0.177
G1 X-140.872 Y53.588
G3 X-140.861 Y53.52 I1.889 J0.25
G1 X-140.694 Y52.535
G3 X-140.681 Y52.463 I1.878 J0.318
G1 X-140.476 Y51.482
G3 X-140.46 Y51.414 I1.865 J0.39
G1 X-140.218 Y50.437
G3 X-140.2 Y50.37 I1.849 J0.458
G1 X-139.921 Y49.398
G3 X-139.9 Y49.33 I1.831 J0.526
G1 X-139.583 Y48.363
G3 X-139.561 Y48.299 I1.81 J0.593
G1 X-139.207 Y47.336
G3 X-139.183 Y47.273 I1.788 J0.657
G1 X-138.792 Y46.315
G3 X-138.765 Y46.253 I1.764 J0.72
G1 X-138.336 Y45.299
G3 X-138.309 Y45.241 I1.737 J0.781
G1 X-137.843 Y44.292
G3 X-137.815 Y44.236 I1.71 J0.839
G1 X-137.312 Y43.291
G3 X-137.281 Y43.236 I1.682 J0.895
G1 X-136.74 Y42.296
G3 X-136.71 Y42.245 I1.651 J0.95
G1 X-136.132 Y41.309
G3 X-136.1 Y41.259 I1.621 J1.001
G1 X-135.484 Y40.328
G3 X-135.452 Y40.282 I1.589 J1.051
G1 X-134.799 Y39.355
G3 X-134.767 Y39.311 I1.557 J1.097
G1 X-134.077 Y38.389
G3 X-134.044 Y38.346 I1.525 J1.141
G1 X-133.316 Y37.429
G3 X-133.284 Y37.39 I1.492 J1.184
G1 X-132.519 Y36.477
G3 X-132.487 Y36.44 I1.46 J1.224
G1 X-131.685 Y35.532
G3 X-131.652 Y35.496 I1.428 J1.261
G1 X-130.812 Y34.592
G3 X-130.78 Y34.558 I1.395 J1.297
G1 X-129.902 Y33.66
G3 X-129.675 Y33.462 I1.363 J1.331
G1 X-128.976 Y32.943
G3 X-128.948 Y32.922 I1.136 J1.529
G1 X-128.241 Y32.416
G3 X-128.213 Y32.397 I1.108 J1.55
G1 X-127.499 Y31.905
G3 X-127.469 Y31.885 I1.08 J1.569
G1 X-126.746 Y31.407
G3 X-126.717 Y31.388 I1.05 J1.59
G1 X-125.987 Y30.925
G3 X-125.956 Y30.907 I1.021 J1.609
G1 X-125.218 Y30.457
G3 X-125.188 Y30.439 I0.99 J1.627
G1 X-124.442 Y30.004
G3 X-124.412 Y29.987 I0.96 J1.646
G1 X-123.659 Y29.566
G3 X-123.626 Y29.548 I0.93 J1.663
G1 X-122.864 Y29.141
G3 X-122.833 Y29.125 I0.897 J1.681
G1 X-122.064 Y28.733
G3 X-122.032 Y28.716 I0.866 J1.697
G1 X-121.255 Y28.338
G3 X-121.224 Y28.323 I0.834 J1.713
G1 X-120.44 Y27.959
G3 X-120.408 Y27.944 I0.803 J1.727
G1 X-119.616 Y27.594
G3 X-119.582 Y27.579 I0.771 J1.742
G1 X-118.781 Y27.243
G3 X-118.75 Y27.23 I0.737 J1.757
G1 X-117.943 Y26.908
G3 X-117.91 Y26.895 I0.706 J1.769
G1 X-117.094 Y26.587
G3 X-117.061 Y26.576 I0.673 J1.782
G1 X-116.238 Y26.282
G3 X-116.205 Y26.27 I0.64 J1.794
G1 X-115.374 Y25.991
G3 X-115.342 Y25.98 I0.607 J1.806
G1 X-114.503 Y25.715
G3 X-114.47 Y25.705 I0.575 J1.816
G1 X-113.623 Y25.453
G3 X-113.591 Y25.444 I0.542 J1.826
G1 X-112.737 Y25.207
G3 X-112.704 Y25.198 I0.51 J1.836
G1 X-111.842 Y24.975
G3 X-111.81 Y24.967 I0.477 J1.844
G1 X-111.499 Y24.892
X-111.484 Y23.955
G3 X-111.483 Y23.941 I1.905 J0.031
G1 X-111.427 Y21.531
G3 Y21.518 I1.904 J0.044
G1 X-111.355 Y19.129
G3 Y19.115 I1.904 J0.057
G1 X-111.267 Y16.747
G3 X-111.266 Y16.733 I1.904 J0.071
G1 X-111.162 Y14.386
G3 X-111.161 Y14.372 I1.903 J0.084
G1 X-111.041 Y12.045
G3 Y12.031 I1.902 J0.098
G1 X-110.904 Y9.725
G3 X-110.903 Y9.71 I1.902 J0.113
G1 X-110.75 Y7.425
G3 X-110.749 Y7.411 I1.901 J0.127
G1 X-110.58 Y5.146
G3 X-110.579 Y5.132 I1.9 J0.142
G1 X-110.394 Y2.888
G3 X-110.392 Y2.873 I1.899 J0.157
G1 X-110.191 Y0.65
G3 X-110.19 Y0.635 I1.897 J0.172
G1 X-109.973 Y-1.567
G3 X-109.971 Y-1.582 I1.896 J0.187
G1 X-109.738 Y-3.764
G3 X-109.736 Y-3.779 I1.894 J0.202
G1 X-109.487 Y-5.94
G3 X-109.485 Y-5.957 I1.892 J0.218
G1 X-109.219 Y-8.096
G3 X-109.217 Y-8.111 I1.89 J0.235
G1 X-108.936 Y-10.23
G3 X-108.934 Y-10.247 I1.888 J0.25
G1 X-108.637 Y-12.345
G3 X-108.635 Y-12.361 I1.886 J0.267
G1 X-108.322 Y-14.439
G3 X-108.319 Y-14.457 I1.884 J0.284
G1 X-107.989 Y-16.513
G3 X-107.986 Y-16.529 I1.881 J0.302
G1 X-107.641 Y-18.565
G3 X-107.638 Y-18.583 I1.878 J0.318
G1 X-107.277 Y-20.597
G3 X-107.274 Y-20.615 I1.875 J0.336
G1 X-106.897 Y-22.609
G3 X-106.893 Y-22.626 I1.872 J0.354
G1 X-106.501 Y-24.6
G3 X-106.498 Y-24.619 I1.868 J0.371
G1 X-106.089 Y-26.571
G3 X-106.084 Y-26.59 I1.865 J0.391
G1 X-105.628 Y-28.66
G3 X-105.626 Y-28.673 I1.86 J0.41
G1 X-105.166 Y-30.696
G3 X-105.162 Y-30.71 I1.858 J0.422
G1 X-104.697 Y-32.685
G3 X-104.694 Y-32.699 I1.854 J0.436
G1 X-104.225 Y-34.628
G3 X-104.221 Y-34.644 I1.851 J0.45
G1 X-103.746 Y-36.525
G3 X-103.742 Y-36.54 I1.847 J0.466
G1 X-103.263 Y-38.374
G3 X-103.258 Y-38.392 I1.843 J0.481
G1 X-102.773 Y-40.179
G3 X-102.769 Y-40.195 I1.838 J0.499
G1 X-102.28 Y-41.935
G3 X-102.275 Y-41.953 I1.834 J0.515
G1 X-101.781 Y-43.646
G3 X-101.775 Y-43.665 I1.829 J0.534
G1 X-101.276 Y-45.31
G3 X-101.27 Y-45.331 I1.823 J0.553
G1 X-100.765 Y-46.929
G3 X-100.759 Y-46.95 I1.817 J0.573
G1 X-100.249 Y-48.5
G3 X-100.242 Y-48.523 I1.81 J0.594
G1 X-99.728 Y-50.026
G3 X-99.719 Y-50.05 I1.802 J0.617
G1 X-99.2 Y-51.506
G3 X-99.191 Y-51.531 I1.794 J0.64
G1 X-98.666 Y-52.94
G3 X-98.656 Y-52.966 I1.785 J0.665
G1 X-98.126 Y-54.327
G3 X-98.115 Y-54.355 I1.775 J0.691
G1 X-97.58 Y-55.669
G3 X-97.568 Y-55.698 I1.764 J0.718
G1 X-97.028 Y-56.965
G3 X-97.015 Y-56.996 I1.752 J0.747
G1 X-96.469 Y-58.215
G3 X-96.454 Y-58.248 I1.739 J0.778
G1 X-95.903 Y-59.42
G3 X-95.886 Y-59.454 I1.724 J0.81
G1 X-95.33 Y-60.579
G3 X-95.312 Y-60.615 I1.708 J0.845
G1 X-94.75 Y-61.693
G3 X-94.73 Y-61.731 I1.689 J0.881
G1 X-94.162 Y-62.761
G3 X-94.139 Y-62.802 I1.669 J0.919
G1 X-93.567 Y-63.784
G3 X-93.425 Y-63.994 I1.646 J0.959
G1 X-93.186 Y-64.302
G3 X-93.155 Y-64.341 I1.504 J1.169
G1 X-92.914 Y-64.635
G3 X-92.881 Y-64.674 I1.473 J1.207
G1 X-92.637 Y-64.956
G3 X-92.602 Y-64.995 I1.441 J1.246
G1 X-92.356 Y-65.264
G3 X-92.318 Y-65.305 I1.406 J1.286
G1 X-92.07 Y-65.561
G3 X-92.028 Y-65.602 I1.367 J1.326
G1 X-91.777 Y-65.845
G3 X-91.734 Y-65.886 I1.326 J1.368
G1 X-91.481 Y-66.116
G3 X-91.433 Y-66.158 I1.282 J1.409
G1 X-91.178 Y-66.375
G3 X-91.127 Y-66.417 I1.234 J1.451
G1 X-90.869 Y-66.621
G3 X-90.814 Y-66.663 I1.182 J1.494
G1 X-90.555 Y-66.853
G3 X-90.496 Y-66.895 I1.127 J1.536
G1 X-90.234 Y-67.072
G3 X-90.172 Y-67.113 I1.069 J1.577
G1 X-89.908 Y-67.277
G3 X-89.842 Y-67.316 I1.007 J1.617
G1 X-89.576 Y-67.467
G3 X-89.505 Y-67.506 I0.941 J1.656
G1 X-89.236 Y-67.644
G3 X-89.164 Y-67.679 I0.871 J1.694
G1 X-88.893 Y-67.804
G3 X-88.816 Y-67.838 I0.798 J1.73
G1 X-88.542 Y-67.95
G3 X-88.463 Y-67.98 I0.721 J1.763
G1 X-88.187 Y-68.079
G3 X-88.106 Y-68.106 I0.643 J1.793
G1 X-87.827 Y-68.192
G3 X-87.743 Y-68.216 I0.561 J1.821
G1 X-87.462 Y-68.288
G3 X-87.376 Y-68.308 I0.477 J1.844
G1 X-87.093 Y-68.368
G3 X-87.006 Y-68.384 I0.391 J1.864
G1 X-86.72 Y-68.43
G3 X-86.633 Y-68.442 I0.304 J1.881
G1 X-86.345 Y-68.475
G3 X-86.258 Y-68.483 I0.217 J1.893
G1 X-85.968 Y-68.503
G3 X-85.88 Y-68.507 I0.13 J1.901
G1 X-85.587 Y-68.513
G3 X-85.503 I0.043 J1.905
G1 X-85.003 Y-68.503
G3 X-84.915 Y-68.499 I-0.042 J1.905
G1 X-84.433 Y-68.466
G3 X-84.34 Y-68.457 I-0.129 J1.901
G1 X-83.876 Y-68.403
G3 X-83.777 Y-68.389 I-0.222 J1.892
G1 X-83.331 Y-68.312
G3 X-83.227 Y-68.291 I-0.322 J1.878
G1 X-82.799 Y-68.193
G3 X-82.69 Y-68.165 I-0.426 J1.857
G1 X-82.28 Y-68.045
G3 X-82.166 Y-68.007 I-0.536 J1.828
G1 X-81.776 Y-67.866
G3 X-81.66 Y-67.819 I-0.65 J1.791
G1 X-81.287 Y-67.655
G3 X-81.169 Y-67.599 I-0.766 J1.744
G1 X-80.815 Y-67.413
G3 X-80.698 Y-67.347 I-0.884 J1.688
G1 X-80.362 Y-67.139
G3 X-80.248 Y-67.063 I-1.001 J1.621
G1 X-79.93 Y-66.834
G3 X-79.82 Y-66.748 I-1.115 J1.545
G1 X-79.521 Y-66.497
G3 X-79.418 Y-66.404 I-1.225 J1.459
G1 X-79.137 Y-66.131
G3 X-79.042 Y-66.032 I-1.327 J1.367
G1 X-78.779 Y-65.737
G3 X-78.693 Y-65.633 I-1.423 J1.267
G1 X-78.449 Y-65.316
G3 X-78.372 Y-65.21 I-1.508 J1.163
G1 X-78.146 Y-64.871
G3 X-78.08 Y-64.764 I-1.585 J1.057
G1 X-77.873 Y-64.403
G3 X-77.816 Y-64.297 I-1.651 J0.95
G1 X-77.627 Y-63.915
G3 X-77.579 Y-63.811 I-1.708 J0.844
G1 X-77.409 Y-63.407
G3 X-77.37 Y-63.306 I-1.755 J0.741
G1 X-77.217 Y-62.88
G3 X-77.186 Y-62.784 I-1.794 J0.641
G1 X-77.052 Y-62.335
G3 X-77.027 Y-62.244 I-1.825 J0.545
G1 X-76.912 Y-61.774
G3 X-76.893 Y-61.688 I-1.85 J0.454
G1 X-76.795 Y-61.195
G3 X-76.781 Y-61.114 I-1.869 J0.368
G1 X-76.703 Y-60.6
G3 X-76.681 Y-60.279 I-1.883 J0.288
G1 X-76.687 Y-59.944
G3 X-76.689 Y-59.88 I-1.905 J-0.033
G1 X-76.706 Y-59.536
G3 X-76.71 Y-59.477 I-1.903 J-0.096
G1 X-76.739 Y-59.124
G3 X-76.745 Y-59.067 I-1.899 J-0.156
G1 X-76.785 Y-58.706
G3 X-76.792 Y-58.652 I-1.893 J-0.212
G1 X-76.844 Y-58.282
G3 X-76.852 Y-58.231 I-1.886 J-0.266
G1 X-76.916 Y-57.852
G3 X-76.925 Y-57.805 I-1.879 J-0.316
G1 X-77 Y-57.416
G3 X-77.009 Y-57.372 I-1.87 J-0.364
G1 X-77.096 Y-56.975
G3 X-77.106 Y-56.932 I-1.861 J-0.408
G1 X-77.205 Y-56.526
G3 X-77.215 Y-56.487 I-1.851 J-0.45
G1 X-77.326 Y-56.072
G3 X-77.336 Y-56.034 I-1.841 J-0.49
G1 X-77.458 Y-55.61
G3 X-77.469 Y-55.575 I-1.83 J-0.528
G1 X-77.602 Y-55.142
G3 X-77.613 Y-55.108 I-1.82 J-0.562
G1 X-77.759 Y-54.667
G3 X-77.77 Y-54.635 I-1.809 J-0.596
G1 X-77.927 Y-54.184
G3 X-77.937 Y-54.155 I-1.799 J-0.628
G1 X-78.106 Y-53.695
G3 X-78.117 Y-53.667 I-1.788 J-0.657
G1 X-78.298 Y-53.198
G3 X-78.308 Y-53.171 I-1.777 J-0.685
G1 X-78.501 Y-52.693
G3 X-78.511 Y-52.668 I-1.767 J-0.712
G1 X-78.716 Y-52.182
G3 X-78.726 Y-52.158 I-1.757 J-0.737
G1 X-78.942 Y-51.662
G3 X-78.952 Y-51.639 I-1.746 J-0.761
G1 X-79.18 Y-51.134
G3 X-79.19 Y-51.113 I-1.736 J-0.784
G1 X-79.429 Y-50.599
G3 X-79.439 Y-50.578 I-1.726 J-0.805
G1 X-79.691 Y-50.055
G3 X-79.7 Y-50.036 I-1.717 J-0.826
G1 X-79.963 Y-49.504
G3 X-79.973 Y-49.486 I-1.707 J-0.845
G1 X-80.248 Y-48.944
G3 X-80.257 Y-48.927 I-1.698 J-0.863
G1 X-80.477 Y-48.505
X-80.691 Y-48.086
X-80.904 Y-47.661
X-81.114 Y-47.232
X-81.323 Y-46.798
X-81.529 Y-46.359
X-81.734 Y-45.915
X-81.937 Y-45.467
X-82.137 Y-45.013
X-82.336 Y-44.555
X-82.533 Y-44.092
X-82.728 Y-43.624
X-82.921 Y-43.151
X-83.113 Y-42.673
X-83.302 Y-42.191
X-83.49 Y-41.704
X-83.675 Y-41.211
X-83.859 Y-40.714
X-84.041 Y-40.212
X-84.221 Y-39.706
X-84.4 Y-39.194
X-84.576 Y-38.678
X-84.751 Y-38.156
X-84.803 Y-37.996
X-84.697 Y-36.779
X-84.543 Y-35.217
X-84.375 Y-33.691
X-84.193 Y-32.199
X-83.996 Y-30.743
X-83.786 Y-29.321
X-83.561 Y-27.935
X-83.322 Y-26.583
X-83.07 Y-25.267
X-82.803 Y-23.986
X-82.523 Y-22.741
X-82.228 Y-21.531
X-81.921 Y-20.356
X-81.599 Y-19.217
X-81.264 Y-18.113
X-80.916 Y-17.045
X-80.555 Y-16.012
X-80.181 Y-15.015
X-79.794 Y-14.054
X-79.394 Y-13.129
X-78.981 Y-12.239
X-78.557 Y-11.385
X-78.12 Y-10.566
X-77.672 Y-9.784
X-77.212 Y-9.036
X-76.74 Y-8.324
X-76.258 Y-7.647
X-75.764 Y-7.004
X-75.26 Y-6.397
X-74.745 Y-5.823
X-74.22 Y-5.284
X-73.684 Y-4.778
X-73.138 Y-4.305
X-72.581 Y-3.865
X-72.013 Y-3.456
X-71.434 Y-3.079
X-70.844 Y-2.734
X-70.243 Y-2.419
X-69.628 Y-2.134
X-69.001 Y-1.879
X-68.361 Y-1.654
X-67.706 Y-1.459
X-67.037 Y-1.293
X-66.353 Y-1.157
X-65.652 Y-1.051
X-64.935 Y-0.975
X-64.202 Y-0.929
X-63.486 Y-0.914
X-62.993 Y-0.942
X-62.47 Y-0.988
X-61.961 Y-1.049
X-61.467 Y-1.125
X-60.988 Y-1.216
X-60.522 Y-1.322
X-60.071 Y-1.442
X-59.633 Y-1.577
X-59.208 Y-1.725
X-58.797 Y-1.888
X-58.398 Y-2.065
X-58.011 Y-2.256
X-57.637 Y-2.462
X-57.273 Y-2.681
X-56.921 Y-2.915
X-56.579 Y-3.163
X-56.248 Y-3.427
X-55.927 Y-3.705
X-55.615 Y-4
X-55.313 Y-4.31
X-55.02 Y-4.636
X-54.736 Y-4.979
X-54.461 Y-5.339
X-54.196 Y-5.717
X-53.94 Y-6.112
X-53.693 Y-6.525
X-53.455 Y-6.957
X-53.227 Y-7.406
X-53.008 Y-7.875
X-52.8 Y-8.363
X-52.601 Y-8.869
X-52.413 Y-9.395
X-52.235 Y-9.94
X-52.068 Y-10.504
X-51.911 Y-11.087
X-51.765 Y-11.69
X-51.63 Y-12.311
X-51.507 Y-12.952
X-51.395 Y-13.613
X-51.294 Y-14.292
X-51.205 Y-14.991
X-51.127 Y-15.708
X-51.061 Y-16.445
X-51.007 Y-17.201
X-50.965 Y-17.976
X-50.935 Y-18.769
X-50.916 Y-19.581
X-50.91 Y-20.419
Y-20.565
X-50.911 Y-20.717
X-50.912 Y-20.869
X-50.913 Y-21.021
X-50.914 Y-21.174
X-50.915 Y-21.326
X-50.917 Y-21.478
X-50.919 Y-21.631
X-50.921 Y-21.785
X-50.924 Y-21.937
X-50.927 Y-22.091
X-50.93 Y-22.245
X-50.933 Y-22.398
X-50.937 Y-22.552
X-50.941 Y-22.708
X-50.945 Y-22.863
X-50.949 Y-23.018
X-50.954 Y-23.174
X-50.959 Y-23.33
X-50.964 Y-23.487
X-50.97 Y-23.644
X-50.976 Y-23.801
X-50.982 Y-23.96
X-50.987 Y-24.101
X-51.009 Y-24.458
Y-24.463
X-51.031 Y-24.836
Y-24.841
X-51.051 Y-25.212
X-51.052 Y-25.218
X-51.071 Y-25.587
Y-25.592
X-51.09 Y-25.959
Y-25.963
X-51.107 Y-26.328
Y-26.333
X-51.124 Y-26.696
Y-26.7
X-51.139 Y-27.061
Y-27.065
X-51.153 Y-27.423
Y-27.428
X-51.167 Y-27.784
Y-27.789
X-51.179 Y-28.142
Y-28.146
X-51.191 Y-28.497
Y-28.503
X-51.201 Y-28.851
Y-28.855
X-51.21 Y-29.202
X-51.211 Y-29.207
X-51.219 Y-29.551
Y-29.555
X-51.226 Y-29.897
X-51.227 Y-29.902
X-51.233 Y-30.241
Y-30.246
X-51.239 Y-30.583
Y-30.588
X-51.244 Y-30.922
Y-30.926
X-51.247 Y-31.258
X-51.248 Y-31.264
X-51.25 Y-31.593
Y-31.598
X-51.253 Y-31.925
Y-31.929
X-51.254 Y-32.254
Y-32.259
Y-32.581
G3 Y-32.594 I1.905 J-0.002
G1 X-51.246 Y-34.053
G3 Y-34.074 I1.905 J0.01
G1 X-51.223 Y-35.495
G3 X-51.222 Y-35.518 I1.905 J0.032
G1 X-51.183 Y-36.9
G3 X-51.182 Y-36.924 I1.904 J0.054
G1 X-51.127 Y-38.268
G3 X-51.126 Y-38.293 I1.903 J0.078
G1 X-51.055 Y-39.599
G3 X-51.053 Y-39.626 I1.902 J0.103
G1 X-50.967 Y-40.894
G3 X-50.965 Y-40.922 I1.901 J0.13
G1 X-50.863 Y-42.151
G3 X-50.86 Y-42.181 I1.898 J0.158
G1 X-50.742 Y-43.372
G3 X-50.739 Y-43.404 I1.896 J0.188
G1 X-50.605 Y-44.556
G3 X-50.601 Y-44.59 I1.892 J0.219
G1 X-50.452 Y-45.705
G3 X-50.447 Y-45.74 I1.888 J0.253
G1 X-50.282 Y-46.816
G3 X-50.276 Y-46.854 I1.883 J0.289
G1 X-50.095 Y-47.892
G3 X-50.087 Y-47.933 I1.877 J0.327
G1 X-49.891 Y-48.932
G3 X-49.882 Y-48.975 I1.869 J0.367
G1 X-49.67 Y-49.937
G3 X-49.659 Y-49.983 I1.86 J0.41
G1 X-49.431 Y-50.906
G3 X-49.419 Y-50.955 I1.849 J0.457
G1 X-49.175 Y-51.839
G3 X-49.16 Y-51.891 I1.837 J0.506
G1 X-48.901 Y-52.738
G3 X-48.883 Y-52.794 I1.821 J0.558
G1 X-48.608 Y-53.601
G3 X-48.587 Y-53.661 I1.803 J0.614
G1 X-48.296 Y-54.431
G3 X-48.271 Y-54.493 I1.782 J0.673
G1 X-47.965 Y-55.225
G3 X-47.935 Y-55.292 I1.757 J0.736
G1 X-47.613 Y-55.985
G3 X-47.578 Y-56.055 I1.728 J0.803
G1 X-47.241 Y-56.71
G3 X-47.2 Y-56.784 I1.693 J0.873
G1 X-46.847 Y-57.401
G3 X-46.8 Y-57.478 I1.653 J0.948
G1 X-46.43 Y-58.056
G3 X-46.4 Y-58.102 I1.606 J1.025
G1 X-45.942 Y-58.776
G3 X-45.917 Y-58.812 I1.576 J1.071
G1 X-45.455 Y-59.459
G3 X-45.428 Y-59.497 I1.55 J1.107
G1 X-44.962 Y-60.116
G3 X-44.932 Y-60.154 I1.523 J1.145
G1 X-44.463 Y-60.746
G3 X-44.43 Y-60.786 I1.493 J1.184
G1 X-43.958 Y-61.35
G3 X-43.922 Y-61.391 I1.46 J1.224
G1 X-43.446 Y-61.927
G3 X-43.407 Y-61.97 I1.424 J1.265
G1 X-42.928 Y-62.478
G3 X-42.885 Y-62.522 I1.386 J1.307
G1 X-42.402 Y-63.003
G3 X-42.356 Y-63.047 I1.344 J1.35
G1 X-41.869 Y-63.5
G3 X-41.819 Y-63.545 I1.298 J1.394
G1 X-41.328 Y-63.971
G3 X-41.275 Y-64.016 I1.249 J1.439
G1 X-40.78 Y-64.414
G3 X-40.723 Y-64.459 I1.195 J1.483
G1 X-40.224 Y-64.83
G3 X-40.162 Y-64.874 I1.137 J1.528
G1 X-39.66 Y-65.217
G3 X-39.594 Y-65.261 I1.075 J1.572
G1 X-39.088 Y-65.577
G3 X-39.017 Y-65.619 I1.009 J1.616
G1 X-38.507 Y-65.907
G3 X-38.432 Y-65.947 I0.938 J1.658
G1 X-37.919 Y-66.208
G3 X-37.839 Y-66.247 I0.863 J1.698
G1 X-37.322 Y-66.48
G3 X-37.238 Y-66.515 I0.783 J1.737
G1 X-36.717 Y-66.721
G3 X-36.63 Y-66.752 I0.699 J1.772
G1 X-36.106 Y-66.931
G3 X-36.015 Y-66.959 I0.612 J1.804
G1 X-35.487 Y-67.109
G3 X-35.393 Y-67.133 I0.522 J1.832
G1 X-34.861 Y-67.256
G3 X-34.766 Y-67.276 I0.429 J1.856
G1 X-34.23 Y-67.371
G3 X-34.134 Y-67.386 I0.333 J1.876
G1 X-33.594 Y-67.453
G3 X-33.497 Y-67.463 I0.237 J1.89
G1 X-32.954 Y-67.503
G3 X-32.777 Y-67.508 I0.141 J1.9
G1 X-32.281 Y-67.499
G3 X-32.209 Y-67.496 I-0.036 J1.905
G1 X-31.715 Y-67.468
G3 X-31.642 Y-67.462 I-0.108 J1.902
G1 X-31.149 Y-67.415
G3 X-31.077 Y-67.407 I-0.181 J1.896
G1 X-30.585 Y-67.342
G3 X-30.514 Y-67.331 I-0.252 J1.888
G1 X-30.023 Y-67.246
G3 X-29.953 Y-67.233 I-0.323 J1.877
G1 X-29.463 Y-67.129
G3 X-29.394 Y-67.113 I-0.393 J1.864
G1 X-28.905 Y-66.991
G3 X-28.838 Y-66.973 I-0.462 J1.848
G1 X-28.35 Y-66.832
G3 X-28.284 Y-66.811 I-0.53 J1.83
G1 X-27.797 Y-66.651
G3 X-27.734 Y-66.629 I-0.595 J1.81
G1 X-27.248 Y-66.45
G3 X-27.186 Y-66.426 I-0.659 J1.787
G1 X-26.702 Y-66.228
G3 X-26.642 Y-66.202 I-0.721 J1.763
G1 X-26.159 Y-65.985
G3 X-26.102 Y-65.958 I-0.78 J1.738
G1 X-25.619 Y-65.722
G3 X-25.565 Y-65.695 I-0.838 J1.711
G1 X-25.083 Y-65.439
G3 X-25.031 Y-65.411 I-0.892 J1.683
G1 X-24.551 Y-65.137
G3 X-24.501 Y-65.107 I-0.945 J1.654
G1 X-24.022 Y-64.814
G3 X-23.974 Y-64.783 I-0.995 J1.625
G1 X-23.496 Y-64.471
G3 X-23.451 Y-64.441 I-1.042 J1.595
G1 X-22.975 Y-64.109
G3 X-22.931 Y-64.078 I-1.087 J1.564
G1 X-22.456 Y-63.728
G3 X-22.415 Y-63.697 I-1.13 J1.533
G1 X-21.941 Y-63.327
G3 X-21.902 Y-63.297 I-1.171 J1.503
G1 X-21.429 Y-62.908
G3 X-21.392 Y-62.877 I-1.209 J1.472
G1 X-20.92 Y-62.469
G3 X-20.886 Y-62.438 I-1.246 J1.441
G1 X-20.414 Y-62.011
G3 X-20.382 Y-61.981 I-1.28 J1.411
G1 X-19.912 Y-61.534
G3 X-19.737 Y-61.344 I-1.312 J1.381
G1 X-19.388 Y-60.907
G3 X-19.372 Y-60.888 I-1.487 J1.191
G1 X-19.029 Y-60.447
G3 X-19.014 Y-60.428 I-1.502 J1.171
G1 X-18.676 Y-59.984
G3 X-18.661 Y-59.964 I-1.517 J1.152
G1 X-18.331 Y-59.516
G3 X-18.316 Y-59.496 I-1.532 J1.132
G1 X-17.991 Y-59.044
G3 X-17.977 Y-59.023 I-1.547 J1.112
G1 X-17.658 Y-58.568
G3 X-17.644 Y-58.547 I-1.561 J1.091
G1 X-17.332 Y-58.088
G3 X-17.318 Y-58.067 I-1.575 J1.071
G1 X-17.012 Y-57.604
G3 X-16.999 Y-57.583 I-1.59 J1.05
G1 X-16.699 Y-57.116
G3 X-16.685 Y-57.095 I-1.603 J1.029
G1 X-16.392 Y-56.624
G3 X-16.379 Y-56.603 I-1.617 J1.008
G1 X-16.092 Y-56.128
G3 X-16.079 Y-56.107 I-1.63 J0.986
G1 X-15.798 Y-55.628
G3 X-15.785 Y-55.607 I-1.643 J0.965
G1 X-15.511 Y-55.125
G3 X-15.498 Y-55.103 I-1.655 J0.943
G1 X-15.23 Y-54.617
G3 X-15.218 Y-54.595 I-1.668 J0.921
G1 X-14.956 Y-54.105
G3 X-14.944 Y-54.083 I-1.679 J0.899
G1 X-14.688 Y-53.589
G3 X-14.677 Y-53.567 I-1.691 J0.877
G1 X-14.427 Y-53.07
G3 X-14.416 Y-53.048 I-1.703 J0.855
G1 X-14.273 Y-52.752
X-14.108 Y-53.003
G3 X-14.09 Y-53.029 I1.591 J1.048
G1 X-13.666 Y-53.651
G3 X-13.647 Y-53.678 I1.573 J1.075
G1 X-13.216 Y-54.285
G3 X-13.197 Y-54.312 I1.554 J1.102
G1 X-12.761 Y-54.904
G3 X-12.741 Y-54.932 I1.535 J1.129
G1 X-12.299 Y-55.509
G3 X-12.278 Y-55.537 I1.514 J1.156
G1 X-11.831 Y-56.1
G3 X-11.809 Y-56.128 I1.493 J1.184
G1 X-11.356 Y-56.677
G3 X-11.333 Y-56.705 I1.47 J1.212
G1 X-10.875 Y-57.239
G3 X-10.85 Y-57.267 I1.446 J1.24
G1 X-10.387 Y-57.786
G3 X-10.361 Y-57.815 I1.422 J1.268
G1 X-9.892 Y-58.32
G3 X-9.866 Y-58.348 I1.396 J1.296
G1 X-9.391 Y-58.838
G3 X-9.363 Y-58.867 I1.369 J1.325
G1 X-8.883 Y-59.342
G3 X-8.854 Y-59.371 I1.341 J1.353
G1 X-8.369 Y-59.832
G3 X-8.339 Y-59.86 I1.312 J1.381
G1 X-7.848 Y-60.307
G3 X-7.816 Y-60.334 I1.282 J1.409
G1 X-7.32 Y-60.767
G3 X-7.287 Y-60.795 I1.251 J1.437
G1 X-6.785 Y-61.212
G3 X-6.752 Y-61.239 I1.218 J1.465
G1 X-6.244 Y-61.642
G3 X-6.209 Y-61.669 I1.185 J1.492
G1 X-5.696 Y-62.058
G3 X-5.66 Y-62.084 I1.15 J1.519
G1 X-5.142 Y-62.458
G3 X-5.105 Y-62.484 I1.114 J1.545
G1 X-4.581 Y-62.843
G3 X-4.543 Y-62.869 I1.077 J1.571
G1 X-4.013 Y-63.213
G3 X-3.974 Y-63.238 I1.039 J1.597
G1 X-3.439 Y-63.568
G3 X-3.399 Y-63.592 I1 J1.621
G1 X-2.858 Y-63.908
G3 X-2.817 Y-63.931 I0.96 J1.645
G1 X-2.271 Y-64.232
G3 X-2.229 Y-64.254 I0.919 J1.669
G1 X-1.678 Y-64.541
G3 X-1.635 Y-64.562 I0.878 J1.691
G1 X-1.078 Y-64.834
G3 X-1.034 Y-64.854 I0.835 J1.712
G1 X-0.471 Y-65.112
G3 X-0.428 Y-65.131 I0.792 J1.733
G1 X0.141 Y-65.374
G3 X0.185 Y-65.392 I0.748 J1.752
G1 X0.759 Y-65.62
G3 X0.804 Y-65.638 I0.704 J1.77
G1 X1.384 Y-65.851
G3 X1.429 Y-65.867 I0.659 J1.787
G1 X2.014 Y-66.066
G3 X2.06 Y-66.081 I0.613 J1.804
G1 X2.65 Y-66.266
G3 X2.696 Y-66.279 I0.568 J1.818
G1 X3.292 Y-66.449
G3 X3.338 Y-66.462 I0.522 J1.832
G1 X3.94 Y-66.617
G3 X3.986 Y-66.628 I0.476 J1.845
G1 X4.593 Y-66.769
G3 X4.639 Y-66.779 I0.43 J1.856
G1 X5.252 Y-66.905
G3 X5.298 Y-66.914 I0.384 J1.866
G1 X5.916 Y-67.026
G3 X5.961 Y-67.033 I0.338 J1.875
G1 X6.585 Y-67.13
G3 X6.631 Y-67.137 I0.293 J1.882
G1 X7.26 Y-67.219
G3 X7.305 Y-67.225 I0.247 J1.889
G1 X7.94 Y-67.293
G3 X7.984 Y-67.297 I0.203 J1.894
G1 X8.625 Y-67.35
G3 X8.669 Y-67.353 I0.158 J1.898
G1 X9.315 Y-67.392
G3 X9.358 Y-67.394 I0.114 J1.902
G1 X10.01 Y-67.418
G3 X10.053 Y-67.419 I0.07 J1.904
G1 X10.71 Y-67.429
G3 X10.77 I0.028 J1.905
G1 X11.831 Y-67.411
G3 X11.899 Y-67.408 I-0.033 J1.905
G1 X12.937 Y-67.353
G3 X13.008 Y-67.348 I-0.101 J1.902
G1 X14.024 Y-67.256
G3 X14.097 Y-67.248 I-0.171 J1.897
G1 X15.091 Y-67.12
G3 X15.166 Y-67.109 I-0.244 J1.889
G1 X16.138 Y-66.944
G3 X16.196 Y-66.933 I-0.319 J1.878
G1 X16.674 Y-66.837
G3 X16.713 Y-66.829 I-0.376 J1.867
G1 X17.185 Y-66.723
G3 X17.224 Y-66.714 I-0.415 J1.859
G1 X17.691 Y-66.599
G3 X17.731 Y-66.589 I-0.454 J1.85
G1 X18.192 Y-66.465
G3 X18.232 Y-66.454 I-0.494 J1.84
G1 X18.688 Y-66.321
G3 X18.728 Y-66.309 I-0.534 J1.829
G1 X19.178 Y-66.167
G3 X19.218 Y-66.153 I-0.574 J1.817
G1 X19.663 Y-66.002
G3 X19.703 Y-65.988 I-0.614 J1.803
G1 X20.143 Y-65.827
G3 X20.183 Y-65.812 I-0.654 J1.789
G1 X20.616 Y-65.642
G3 X20.657 Y-65.626 I-0.694 J1.774
G1 X21.085 Y-65.447
G3 X21.125 Y-65.43 I-0.735 J1.758
G1 X21.548 Y-65.242
G3 X21.588 Y-65.223 I-0.775 J1.74
G1 X22.005 Y-65.026
G3 X22.045 Y-65.007 I-0.814 J1.722
G1 X22.457 Y-64.8
G3 X22.496 Y-64.78 I-0.854 J1.703
G1 X22.902 Y-64.564
G3 X22.942 Y-64.543 I-0.893 J1.683
G1 X23.342 Y-64.318
G3 X23.38 Y-64.296 I-0.933 J1.661
G1 X23.776 Y-64.062
G3 X23.814 Y-64.038 I-0.971 J1.639
G1 X24.204 Y-63.795
G3 X24.241 Y-63.771 I-1.009 J1.616
G1 X24.625 Y-63.519
G3 X24.662 Y-63.494 I-1.046 J1.592
G1 X25.041 Y-63.232
G3 X25.076 Y-63.206 I-1.083 J1.567
G1 X25.45 Y-62.936
G3 X25.485 Y-62.909 I-1.119 J1.542
G1 X25.853 Y-62.629
G3 X25.888 Y-62.602 I-1.155 J1.515
G1 X26.25 Y-62.312
G3 X26.283 Y-62.285 I-1.189 J1.488
G1 X26.64 Y-61.986
G3 X26.673 Y-61.958 I-1.223 J1.461
G1 X27.024 Y-61.651
G3 X27.056 Y-61.622 I-1.256 J1.433
G1 X27.401 Y-61.305
G3 X27.432 Y-61.276 I-1.288 J1.404
G1 X27.772 Y-60.95
G3 X27.802 Y-60.92 I-1.319 J1.375
G1 X28.137 Y-60.585
G3 X28.166 Y-60.555 I-1.349 J1.345
G1 X28.495 Y-60.21
G3 X28.523 Y-60.18 I-1.378 J1.315
G1 X28.847 Y-59.826
G3 X28.874 Y-59.796 I-1.406 J1.286
G1 X29.192 Y-59.433
G3 X29.218 Y-59.402 I-1.433 J1.255
G1 X29.531 Y-59.03
G3 X29.556 Y-59 I-1.459 J1.225
G1 X29.863 Y-58.618
G3 X29.899 Y-58.572 I-1.484 J1.194
G1 X30.496 Y-57.781
G3 X30.54 Y-57.721 I-1.52 J1.148
G1 X31.116 Y-56.893
G3 X31.156 Y-56.832 I-1.564 J1.088
G1 X31.709 Y-55.968
G3 X31.732 Y-55.931 I-1.604 J1.027
G1 X31.903 Y-55.65
G3 X31.911 Y-55.637 I-1.627 J0.991
G1 X32.08 Y-55.355
G3 X32.087 Y-55.342 I-1.635 J0.977
G1 X32.254 Y-55.059
G3 X32.261 Y-55.046 I-1.643 J0.965
G1 X32.426 Y-54.761
G3 X32.433 Y-54.748 I-1.65 J0.951
G1 X32.595 Y-54.462
G3 X32.603 Y-54.448 I-1.658 J0.938
G1 X32.762 Y-54.161
G3 X32.77 Y-54.147 I-1.665 J0.925
G1 X32.927 Y-53.859
G3 X32.934 Y-53.845 I-1.673 J0.911
G1 X33.089 Y-53.555
G3 X33.096 Y-53.542 I-1.68 J0.898
G1 X33.249 Y-53.251
G3 X33.256 Y-53.237 I-1.687 J0.885
G1 X33.406 Y-52.945
G3 X33.413 Y-52.931 I-1.694 J0.871
G1 X33.562 Y-52.637
G3 X33.568 Y-52.624 I-1.701 J0.858
G1 X33.714 Y-52.328
G3 X33.721 Y-52.315 I-1.708 J0.844
G1 X33.865 Y-52.018
G3 X33.871 Y-52.005 I-1.715 J0.83
G1 X33.904 Y-51.936
X33.997 Y-52.071
G3 X34.007 Y-52.086 I1.567 J1.083
G1 X34.223 Y-52.393
G3 X34.234 Y-52.407 I1.557 J1.097
G1 X34.453 Y-52.713
G3 X34.463 Y-52.727 I1.547 J1.112
G1 X34.686 Y-53.031
G3 X34.697 Y-53.045 I1.537 J1.126
G1 X34.923 Y-53.347
G3 X34.933 Y-53.361 I1.526 J1.14
G1 X35.163 Y-53.663
G3 X35.173 Y-53.676 I1.515 J1.154
G1 X35.406 Y-53.976
G3 X35.417 Y-53.99 I1.505 J1.168
G1 X35.653 Y-54.288
G3 X35.663 Y-54.301 I1.494 J1.182
G1 X35.902 Y-54.598
G3 X35.913 Y-54.611 I1.483 J1.195
G1 X36.156 Y-54.907
G3 X36.167 Y-54.92 I1.472 J1.209
G1 X36.413 Y-55.214
G3 X36.423 Y-55.227 I1.461 J1.222
G1 X36.672 Y-55.519
G3 X36.683 Y-55.532 I1.451 J1.235
G1 X36.936 Y-55.823
G3 X36.947 Y-55.836 I1.439 J1.248
G1 X37.202 Y-56.125
G3 X37.213 Y-56.137 I1.428 J1.261
G1 X37.472 Y-56.425
G3 X37.497 Y-56.452 I1.417 J1.273
G1 X38.368 Y-57.385
G3 X38.408 Y-57.427 I1.392 J1.3
G1 X39.293 Y-58.32
G3 X39.336 Y-58.361 I1.352 J1.342
G1 X40.237 Y-59.215
G3 X40.282 Y-59.256 I1.31 J1.383
G1 X41.198 Y-60.069
G3 X41.234 Y-60.1 I1.265 J1.424
G1 X41.697 Y-60.492
G3 X41.722 Y-60.512 I1.23 J1.455
G1 X42.189 Y-60.894
G3 X42.214 Y-60.914 I1.205 J1.475
G1 X42.685 Y-61.286
G3 X42.711 Y-61.306 I1.18 J1.495
G1 X43.186 Y-61.668
G3 X43.212 Y-61.688 I1.155 J1.515
G1 X43.691 Y-62.04
G3 X43.718 Y-62.059 I1.129 J1.535
G1 X44.2 Y-62.401
G3 X44.227 Y-62.42 I1.102 J1.554
G1 X44.714 Y-62.753
G3 X44.742 Y-62.772 I1.075 J1.573
G1 X45.232 Y-63.094
G3 X45.26 Y-63.112 I1.047 J1.592
G1 X45.754 Y-63.425
G3 X45.783 Y-63.443 I1.019 J1.61
G1 X46.281 Y-63.745
G3 X46.31 Y-63.763 I0.99 J1.628
G1 X46.812 Y-64.056
G3 X46.841 Y-64.073 I0.96 J1.645
G1 X47.347 Y-64.355
G3 X47.377 Y-64.372 I0.931 J1.662
G1 X47.886 Y-64.645
G3 X47.917 Y-64.661 I0.9 J1.679
G1 X48.43 Y-64.924
G3 X48.461 Y-64.94 I0.869 J1.695
G1 X48.977 Y-65.193
G3 X49.009 Y-65.208 I0.838 J1.711
G1 X49.529 Y-65.451
G3 X49.561 Y-65.465 I0.806 J1.726
G1 X50.085 Y-65.699
G3 X50.118 Y-65.713 I0.775 J1.74
G1 X50.646 Y-65.936
G3 X50.678 Y-65.949 I0.742 J1.755
G1 X51.209 Y-66.163
G3 X51.242 Y-66.175 I0.71 J1.768
G1 X51.778 Y-66.379
G3 X51.811 Y-66.391 I0.677 J1.781
G1 X52.35 Y-66.585
G3 X52.383 Y-66.596 I0.643 J1.793
G1 X52.926 Y-66.78
G3 X52.959 Y-66.791 I0.61 J1.805
G1 X53.506 Y-66.964
G3 X53.539 Y-66.975 I0.577 J1.816
G1 X54.09 Y-67.138
G3 X54.123 Y-67.148 I0.543 J1.826
G1 X54.677 Y-67.302
G3 X54.711 Y-67.311 I0.51 J1.836
G1 X55.269 Y-67.455
G3 X55.303 Y-67.463 I0.476 J1.845
G1 X55.864 Y-67.597
G3 X55.898 Y-67.605 I0.442 J1.853
G1 X56.463 Y-67.729
G3 X56.497 Y-67.736 I0.409 J1.861
G1 X57.066 Y-67.85
G3 X57.1 Y-67.856 I0.375 J1.868
G1 X57.672 Y-67.961
G3 X57.705 Y-67.966 I0.341 J1.874
G1 X58.282 Y-68.061
G3 X58.315 Y-68.066 I0.308 J1.88
G1 X58.896 Y-68.15
G3 X58.929 Y-68.155 I0.274 J1.885
G1 X59.513 Y-68.229
G3 X59.546 Y-68.233 I0.241 J1.89
G1 X60.133 Y-68.297
G3 X60.166 Y-68.301 I0.208 J1.894
G1 X60.757 Y-68.355
G3 X60.79 Y-68.358 I0.175 J1.897
G1 X61.385 Y-68.403
G3 X61.417 Y-68.405 I0.143 J1.9
G1 X62.016 Y-68.44
G3 X62.048 Y-68.441 I0.11 J1.902
G1 X62.651 Y-68.466
G3 X62.698 Y-68.467 I0.078 J1.903
G1 X63.914 Y-68.487
G3 X63.967 I0.031 J1.905
G1 X64.924 Y-68.476
G3 X64.968 Y-68.475 I-0.021 J1.905
G1 X65.913 Y-68.443
G3 X65.958 Y-68.441 I-0.066 J1.904
G1 X66.892 Y-68.387
G3 X66.938 Y-68.383 I-0.11 J1.902
G1 X67.861 Y-68.307
G3 X67.908 Y-68.303 I-0.156 J1.899
G1 X68.82 Y-68.205
G3 X68.867 Y-68.2 I-0.203 J1.894
G1 X69.768 Y-68.08
G3 X69.816 Y-68.073 I-0.25 J1.889
G1 X70.705 Y-67.932
G3 X70.754 Y-67.924 I-0.298 J1.881
G1 X71.632 Y-67.761
G3 X71.681 Y-67.751 I-0.347 J1.873
G1 X72.548 Y-67.567
G3 X72.598 Y-67.556 I-0.396 J1.863
G1 X73.454 Y-67.35
G3 X73.504 Y-67.337 I-0.446 J1.852
G1 X74.348 Y-67.109
G3 X74.399 Y-67.095 I-0.496 J1.839
G1 X75.232 Y-66.846
G3 X75.282 Y-66.83 I-0.546 J1.825
G1 X76.104 Y-66.559
G3 X76.155 Y-66.541 I-0.597 J1.809
G1 X76.966 Y-66.248
G3 X77.016 Y-66.23 I-0.647 J1.792
G1 X77.815 Y-65.915
G3 X77.865 Y-65.895 I-0.697 J1.773
G1 X78.653 Y-65.559
G3 X78.703 Y-65.537 I-0.747 J1.752
G1 X79.48 Y-65.179
G3 X79.529 Y-65.156 I-0.797 J1.73
G1 X80.295 Y-64.776
G3 X80.344 Y-64.751 I-0.845 J1.707
G1 X81.098 Y-64.35
G3 X81.146 Y-64.324 I-0.894 J1.682
G1 X81.889 Y-63.901
G3 X81.936 Y-63.874 I-0.942 J1.656
G1 X82.668 Y-63.43
G3 X82.714 Y-63.401 I-0.988 J1.629
G1 X83.435 Y-62.935
G3 X83.479 Y-62.905 I-1.034 J1.6
G1 X84.189 Y-62.418
G3 X84.232 Y-62.387 I-1.079 J1.57
G1 X84.931 Y-61.878
G3 X84.973 Y-61.846 I-1.122 J1.539
G1 X85.661 Y-61.315
G3 X85.702 Y-61.282 I-1.165 J1.508
G1 X86.378 Y-60.73
G3 X86.417 Y-60.697 I-1.206 J1.475
G1 X87.082 Y-60.122
G3 X87.12 Y-60.089 I-1.245 J1.442
G1 X87.774 Y-59.493
G3 X87.811 Y-59.458 I-1.283 J1.408
G1 X88.453 Y-58.841
G3 X88.488 Y-58.806 I-1.32 J1.373
G1 X89.119 Y-58.167
G3 X89.153 Y-58.132 I-1.355 J1.339
G1 X89.773 Y-57.471
G3 X89.805 Y-57.436 I-1.389 J1.304
G1 X90.414 Y-56.754
G3 X90.445 Y-56.718 I-1.422 J1.268
G1 X91.042 Y-56.014
G3 X91.071 Y-55.979 I-1.452 J1.233
G1 X91.658 Y-55.254
G3 X91.686 Y-55.218 I-1.482 J1.197
G1 X92.261 Y-54.471
G3 X92.287 Y-54.436 I-1.51 J1.162
G1 X92.851 Y-53.667
G3 X92.876 Y-53.632 I-1.536 J1.127
G1 X93.428 Y-52.842
G3 X93.452 Y-52.807 I-1.561 J1.092
G1 X93.994 Y-51.995
G3 X94.016 Y-51.961 I-1.585 J1.057
G1 X94.546 Y-51.127
G3 X94.567 Y-51.093 I-1.607 J1.022
G1 X95.086 Y-50.238
G3 X95.106 Y-50.204 I-1.629 J0.988
G1 X95.613 Y-49.327
G3 X95.632 Y-49.295 I-1.649 J0.954
G1 X96.129 Y-48.396
G3 X96.146 Y-48.363 I-1.667 J0.921
G1 X96.631 Y-47.444
G3 X96.648 Y-47.411 I-1.685 J0.889
G1 X97.122 Y-46.47
G3 X97.137 Y-46.439 I-1.702 J0.856
G1 X97.6 Y-45.476
G3 X97.614 Y-45.445 I-1.717 J0.825
G1 X98.066 Y-44.46
G3 X98.079 Y-44.43 I-1.732 J0.794
G1 X98.504 Y-43.458
X99.378 Y-43.387
G3 X99.417 Y-43.384 I-0.154 J1.899
G1 X100.401 Y-43.283
G3 X100.441 Y-43.279 I-0.194 J1.895
G1 X101.407 Y-43.159
G3 X101.449 Y-43.154 I-0.234 J1.891
G1 X102.396 Y-43.015
G3 X102.439 Y-43.008 I-0.276 J1.885
G1 X103.369 Y-42.85
G3 X103.413 Y-42.842 I-0.319 J1.878
G1 X104.325 Y-42.665
G3 X104.371 Y-42.656 I-0.363 J1.87
G1 X105.265 Y-42.459
G3 X105.311 Y-42.448 I-0.409 J1.861
G1 X106.187 Y-42.233
G3 X106.235 Y-42.221 I-0.455 J1.85
G1 X107.093 Y-41.986
G3 X107.141 Y-41.972 I-0.503 J1.837
G1 X107.982 Y-41.718
G3 X108.032 Y-41.702 I-0.551 J1.824
G1 X108.854 Y-41.428
G3 X108.904 Y-41.411 I-0.601 J1.808
G1 X109.709 Y-41.118
G3 X109.761 Y-41.099 I-0.651 J1.79
G1 X110.547 Y-40.787
G3 X110.598 Y-40.765 I-0.703 J1.771
G1 X111.367 Y-40.434
G3 X111.419 Y-40.411 I-0.754 J1.749
G1 X112.17 Y-40.06
G3 X112.223 Y-40.034 I-0.806 J1.726
G1 X112.956 Y-39.664
G3 X113.008 Y-39.636 I-0.859 J1.7
G1 X113.723 Y-39.247
G3 X113.775 Y-39.218 I-0.911 J1.673
G1 X114.473 Y-38.809
G3 X114.527 Y-38.776 I-0.963 J1.644
G1 X115.206 Y-38.348
G3 X115.257 Y-38.314 I-1.017 J1.611
G1 X115.355 Y-38.248
X115.402 Y-38.496
G3 X115.411 Y-38.538 I1.872 J0.353
G1 X115.638 Y-39.607
G3 X115.648 Y-39.653 I1.863 J0.396
G1 X115.898 Y-40.704
G3 X115.909 Y-40.75 I1.853 J0.441
G1 X116.182 Y-41.783
G3 X116.195 Y-41.828 I1.842 J0.487
G1 X116.49 Y-42.844
G3 X116.503 Y-42.889 I1.829 J0.531
G1 X116.82 Y-43.887
G3 X116.837 Y-43.936 I1.816 J0.577
G1 X117.178 Y-44.916
G3 X117.194 Y-44.961 I1.799 J0.626
G1 X117.556 Y-45.924
G3 X117.576 Y-45.974 I1.783 J0.671
G1 X117.962 Y-46.918
G3 X117.981 Y-46.963 I1.763 J0.721
G1 X118.388 Y-47.89
G3 X118.411 Y-47.94 I1.744 J0.766
G1 X118.842 Y-48.849
G3 X118.865 Y-48.896 I1.721 J0.816
G1 X119.318 Y-49.786
G3 X119.343 Y-49.834 I1.698 J0.864
G1 X119.818 Y-50.706
G3 X119.845 Y-50.754 I1.673 J0.911
G1 X120.343 Y-51.609
G3 X120.372 Y-51.657 I1.646 J0.959
G1 X120.893 Y-52.494
G3 X120.922 Y-52.54 I1.617 J1.007
G1 X121.465 Y-53.359
G3 X121.497 Y-53.406 I1.588 J1.053
G1 X122.063 Y-54.207
G3 X122.095 Y-54.252 I1.556 J1.099
G1 X122.683 Y-55.035
G3 X122.717 Y-55.079 I1.524 J1.144
G1 X123.327 Y-55.844
G3 X123.363 Y-55.888 I1.49 J1.187
G1 X123.996 Y-56.636
G3 X124.033 Y-56.678 I1.454 J1.231
G1 X124.689 Y-57.408
G3 X124.727 Y-57.448 I1.417 J1.274
G1 X125.405 Y-58.16
G3 X125.444 Y-58.199 I1.379 J1.314
G1 X126.304 Y-59.051
G3 X126.337 Y-59.083 I1.34 J1.354
G1 X126.774 Y-59.495
G3 X126.799 Y-59.518 I1.307 J1.386
G1 X127.242 Y-59.922
G3 X127.266 Y-59.943 I1.282 J1.409
G1 X127.714 Y-60.337
G3 X127.737 Y-60.357 I1.258 J1.43
G1 X128.189 Y-60.742
G3 X128.216 Y-60.764 I1.235 J1.45
G1 X128.674 Y-61.14
G3 X128.699 Y-61.161 I1.208 J1.473
G1 X129.162 Y-61.527
G3 X129.187 Y-61.547 I1.183 J1.493
G1 X129.654 Y-61.904
G3 X129.682 Y-61.925 I1.158 J1.512
G1 X130.155 Y-62.274
G3 X130.182 Y-62.293 I1.13 J1.534
G1 X130.66 Y-62.633
G3 X130.686 Y-62.651 I1.103 J1.553
G1 X131.168 Y-62.981
G3 X131.197 Y-63.001 I1.077 J1.571
G1 X131.685 Y-63.323
G3 X131.714 Y-63.341 I1.048 J1.591
G1 X132.207 Y-63.653
G3 X132.235 Y-63.671 I1.019 J1.609
G1 X132.733 Y-63.974
G3 X132.761 Y-63.991 I0.991 J1.627
G1 X133.263 Y-64.285
G3 X133.294 Y-64.302 I0.963 J1.644
G1 X133.802 Y-64.588
G3 X133.831 Y-64.604 I0.932 J1.661
G1 X134.344 Y-64.88
G3 X134.374 Y-64.896 I0.903 J1.678
G1 X134.892 Y-65.162
G3 X134.923 Y-65.178 I0.873 J1.693
G1 X135.446 Y-65.435
G3 X135.475 Y-65.449 I0.842 J1.709
G1 X136.002 Y-65.698
G3 X136.034 Y-65.713 I0.813 J1.723
G1 X136.567 Y-65.953
G3 X136.598 Y-65.966 I0.781 J1.737
G1 X137.135 Y-66.197
G3 X137.166 Y-66.21 I0.751 J1.751
G1 X137.709 Y-66.431
G3 X137.74 Y-66.444 I0.72 J1.764
G1 X138.288 Y-66.656
G3 X138.318 Y-66.668 I0.689 J1.776
G1 X138.87 Y-66.871
G3 X138.902 Y-66.882 I0.659 J1.788
G1 X139.46 Y-67.077
G3 X139.491 Y-67.087 I0.627 J1.799
G1 X140.054 Y-67.273
G3 X140.085 Y-67.283 I0.596 J1.809
G1 X140.653 Y-67.459
G3 X140.684 Y-67.468 I0.565 J1.819
