%
(cnc cam hold downs)
(T1  D=6.35 CR=0 - ZMIN=-18.6 - flat end mill)
G90 G94
G17
G21
G28 G91 Z0
G90

(2D Adaptive1)
M9
T1 M6
S8000 M3
G54
M8
G0 X56.163 Y301.011
Z15
Z5
Z3.135
G1 Z2.5 F1219.2
G2 X55.873 Y294.986 Z0.836 I-0.163 J-3.012
X52.986 Y298.108 Z0.003 I0.127 J3.014
X56.091 Y301.014 Z-0.829 I3.014 J-0.109
X59.015 Y297.927 Z-1.661 I-0.091 J-3.015
X55.945 Y294.984 Z-2.493 I-3.015 J0.073
X52.984 Y298.036 Z-3.326 I0.054 J3.016
X56.018 Y301.016 Z-4.158 I3.016 J-0.036
X59.016 Y298 Z-4.99 I-0.018 J-3.016
X56 Y294.983 I-3.016
Y301.016 J3.016
X58.909 Y298.797 J-3.016
X59.016 Y298 I-2.909 J-0.797
G1 X59.02 Y297.772
X59.175 Y296.873
X59.229 Y296.733
X59.266 Y296.588
X59.289 Y296.44
X59.298 Y296.29
X59.295 Y296.132
X59.278 Y295.962
X59.245 Y295.784
X59.195 Y295.597
X59.127 Y295.404
X59.038 Y295.206
X58.928 Y295.006
X58.797 Y294.807
X58.643 Y294.61
X58.467 Y294.418
X58.268 Y294.235
X58.048 Y294.061
X57.807 Y293.901
X57.546 Y293.756
X57.266 Y293.63
X56.97 Y293.523
X56.66 Y293.439
X56.337 Y293.379
X56.004 Y293.344
X55.664 Y293.336
X55.319 Y293.355
X54.972 Y293.403
X54.625 Y293.48
X54.283 Y293.585
X53.947 Y293.718
X53.619 Y293.879
X53.304 Y294.068
X53.003 Y294.283
X52.718 Y294.522
X52.452 Y294.785
X52.206 Y295.07
X51.984 Y295.375
X51.786 Y295.697
X51.614 Y296.036
X51.469 Y296.388
X51.353 Y296.752
X51.267 Y297.124
X51.21 Y297.503
X51.184 Y297.886
X51.188 Y298.27
X51.224 Y298.653
X51.29 Y299.033
X51.387 Y299.406
X51.513 Y299.771
X51.668 Y300.124
X51.852 Y300.464
X52.062 Y300.789
X52.297 Y301.095
X52.557 Y301.382
X52.839 Y301.648
X53.141 Y301.889
X53.462 Y302.106
X53.799 Y302.297
X54.151 Y302.46
X54.514 Y302.594
X54.887 Y302.698
X55.268 Y302.773
X55.653 Y302.816
X56.04 Y302.828
X56.428 Y302.81
X56.812 Y302.76
X57.191 Y302.68
X57.563 Y302.569
X57.925 Y302.429
X58.274 Y302.26
X58.609 Y302.064
X58.926 Y301.842
X59.225 Y301.594
X59.503 Y301.324
X59.759 Y301.032
X59.99 Y300.721
X60.23 Y300.336
X60.635 Y299.555
X60.898 Y298.931
X61.074 Y298.393
X61.192 Y297.906
X61.265 Y297.442
X61.299 Y296.992
X61.298 Y296.556
X61.262 Y296.132
X61.193 Y295.717
X61.122 Y295.435
X61.06 Y295.243
X60.972 Y295.061
X60.861 Y294.892
X60.206 Y294.04
X60.123 Y293.935
X60.011 Y293.833
X59.087 Y293.123
X58.927 Y293.004
X58.879 Y292.975
X58.672 Y292.886
X57.636 Y292.456
X57.533 Y292.416
X57.429 Y292.391
X56.186 Y292.227
X55.979 Y292.209
X55.771 Y292.233
X54.637 Y292.382
X54.528 Y292.399
X54.321 Y292.474
X53.285 Y292.903
X53.078 Y293
X52.87 Y293.156
X51.989 Y293.833
X51.912 Y293.898
X51.834 Y293.987
X51.158 Y294.868
X51.006 Y295.07
X51.002 Y295.076
X50.904 Y295.283
X50.475 Y296.319
X50.399 Y296.526
X50.384 Y296.621
X50.233 Y297.769
X50.209 Y297.976
X50.227 Y298.184
X50.39 Y299.427
X50.415 Y299.53
X50.455 Y299.634
X50.884 Y300.67
X50.974 Y300.877
X51.006 Y300.93
X51.121 Y301.084
X51.834 Y302.013
X51.878 Y302.067
X51.931 Y302.12
X52.042 Y302.208
X53.008 Y302.949
X53.078 Y302.999
X53.181 Y303.054
X54.429 Y303.571
X54.528 Y303.601
X54.735 Y303.631
X55.85 Y303.778
X55.979 Y303.791
X56.15 Y303.778
X57.429 Y303.609
X57.5 Y303.594
X57.57 Y303.571
X58.672 Y303.114
X58.879 Y303.024
X58.992 Y302.949
X59.915 Y302.241
X60.069 Y302.12
X60.123 Y302.066
X60.243 Y301.913
X60.951 Y300.989
X61.026 Y300.877
X61.116 Y300.67
X61.573 Y299.565
X61.596 Y299.496
X61.61 Y299.427
X61.78 Y298.132
X61.791 Y297.976
X61.78 Y297.868
X61.631 Y296.733
X61.601 Y296.526
X61.573 Y296.436
X61.053 Y295.179
X60.999 Y295.076
X60.951 Y295.011
X60.861 Y294.892
X60.818 Y294.856 Z-4.984
X60.779 Y294.823 Z-4.965
X60.743 Y294.792 Z-4.935
X60.713 Y294.767 Z-4.896
X60.69 Y294.748 Z-4.849
X60.674 Y294.739 Z-4.796
X60.669 Y294.735 Z-4.741
G0 Z5
X56.163 Y301.011
Z-1.855
G1 Z-2.49 F1219.2
G2 X55.873 Y294.986 Z-4.154 I-0.163 J-3.012
X52.986 Y298.108 Z-4.987 I0.127 J3.014
X56.091 Y301.014 Z-5.819 I3.014 J-0.109
X59.015 Y297.927 Z-6.651 I-0.091 J-3.015
X55.945 Y294.984 Z-7.483 I-3.015 J0.073
X52.984 Y298.036 Z-8.316 I0.054 J3.016
X56.018 Y301.016 Z-9.148 I3.016 J-0.036
X59.016 Y298 Z-9.98 I-0.018 J-3.016
X56 Y294.983 I-3.016
Y301.016 J3.016
X58.909 Y298.797 J-3.016
X59.016 Y298 I-2.909 J-0.797
G1 X59.02 Y297.772
X59.175 Y296.873
X59.229 Y296.733
X59.266 Y296.588
X59.289 Y296.44
X59.298 Y296.29
X59.295 Y296.132
X59.278 Y295.962
X59.245 Y295.784
X59.195 Y295.597
X59.127 Y295.404
X59.038 Y295.206
X58.928 Y295.006
X58.797 Y294.807
X58.643 Y294.61
X58.467 Y294.418
X58.268 Y294.235
X58.048 Y294.061
X57.807 Y293.901
X57.546 Y293.756
X57.266 Y293.63
X56.97 Y293.523
X56.66 Y293.439
X56.337 Y293.379
X56.004 Y293.344
X55.664 Y293.336
X55.319 Y293.355
X54.972 Y293.403
X54.625 Y293.48
X54.283 Y293.585
X53.947 Y293.718
X53.619 Y293.879
X53.304 Y294.068
X53.003 Y294.283
X52.718 Y294.522
X52.452 Y294.785
X52.206 Y295.07
X51.984 Y295.375
X51.786 Y295.697
X51.614 Y296.036
X51.469 Y296.388
X51.353 Y296.752
X51.267 Y297.124
X51.21 Y297.503
X51.184 Y297.886
X51.188 Y298.27
X51.224 Y298.653
X51.29 Y299.033
X51.387 Y299.406
X51.513 Y299.771
X51.668 Y300.124
X51.852 Y300.464
X52.062 Y300.789
X52.297 Y301.095
X52.557 Y301.382
X52.839 Y301.648
X53.141 Y301.889
X53.462 Y302.106
X53.799 Y302.297
X54.151 Y302.46
X54.514 Y302.594
X54.887 Y302.698
X55.268 Y302.773
X55.653 Y302.816
X56.04 Y302.828
X56.428 Y302.81
X56.812 Y302.76
X57.191 Y302.68
X57.563 Y302.569
X57.925 Y302.429
X58.274 Y302.26
X58.609 Y302.064
X58.926 Y301.842
X59.225 Y301.594
X59.503 Y301.324
X59.759 Y301.032
X59.99 Y300.721
X60.23 Y300.336
X60.635 Y299.555
X60.898 Y298.931
X61.074 Y298.393
X61.192 Y297.906
X61.265 Y297.442
X61.299 Y296.992
X61.298 Y296.556
X61.262 Y296.132
X61.193 Y295.717
X61.122 Y295.435
X61.06 Y295.243
X60.972 Y295.061
X60.861 Y294.892
X60.206 Y294.04
X60.123 Y293.935
X60.011 Y293.833
X59.087 Y293.123
X58.927 Y293.004
X58.879 Y292.975
X58.672 Y292.886
X57.636 Y292.456
X57.533 Y292.416
X57.429 Y292.391
X56.186 Y292.227
X55.979 Y292.209
X55.771 Y292.233
X54.637 Y292.382
X54.528 Y292.399
X54.321 Y292.474
X53.285 Y292.903
X53.078 Y293
X52.87 Y293.156
X51.989 Y293.833
X51.912 Y293.898
X51.834 Y293.987
X51.158 Y294.868
X51.006 Y295.07
X51.002 Y295.076
X50.904 Y295.283
X50.475 Y296.319
X50.399 Y296.526
X50.384 Y296.621
X50.233 Y297.769
X50.209 Y297.976
X50.227 Y298.184
X50.39 Y299.427
X50.415 Y299.53
X50.455 Y299.634
X50.884 Y300.67
X50.974 Y300.877
X51.006 Y300.93
X51.121 Y301.084
X51.834 Y302.013
X51.878 Y302.067
X51.931 Y302.12
X52.042 Y302.208
X53.008 Y302.949
X53.078 Y302.999
X53.181 Y303.054
X54.429 Y303.571
X54.528 Y303.601
X54.735 Y303.631
X55.85 Y303.778
X55.979 Y303.791
X56.15 Y303.778
X57.429 Y303.609
X57.5 Y303.594
X57.57 Y303.571
X58.672 Y303.114
X58.879 Y303.024
X58.992 Y302.949
X59.915 Y302.241
X60.069 Y302.12
X60.123 Y302.066
X60.243 Y301.913
X60.951 Y300.989
X61.026 Y300.877
X61.116 Y300.67
X61.573 Y299.565
X61.596 Y299.496
X61.61 Y299.427
X61.78 Y298.132
X61.791 Y297.976
X61.78 Y297.868
X61.631 Y296.733
X61.601 Y296.526
X61.573 Y296.436
X61.053 Y295.179
X60.999 Y295.076
X60.951 Y295.011
X60.861 Y294.892
X60.818 Y294.856 Z-9.974
X60.779 Y294.823 Z-9.955
X60.743 Y294.792 Z-9.925
X60.713 Y294.767 Z-9.886
X60.69 Y294.748 Z-9.839
X60.674 Y294.739 Z-9.786
X60.669 Y294.735 Z-9.731
G0 Z5
X56.163 Y301.011
Z-6.845
G1 Z-7.48 F1219.2
G2 X55.873 Y294.986 Z-9.144 I-0.163 J-3.012
X52.986 Y298.108 Z-9.977 I0.127 J3.014
X56.091 Y301.014 Z-10.809 I3.014 J-0.109
X59.015 Y297.927 Z-11.641 I-0.091 J-3.015
X55.945 Y294.984 Z-12.473 I-3.015 J0.073
X52.984 Y298.036 Z-13.306 I0.054 J3.016
X56.018 Y301.016 Z-14.138 I3.016 J-0.036
X59.016 Y298 Z-14.97 I-0.018 J-3.016
X56 Y294.983 I-3.016
Y301.016 J3.016
X58.909 Y298.797 J-3.016
X59.016 Y298 I-2.909 J-0.797
G1 X59.02 Y297.772
X59.175 Y296.873
X59.229 Y296.733
X59.266 Y296.588
X59.289 Y296.44
X59.298 Y296.29
X59.295 Y296.132
X59.278 Y295.962
X59.245 Y295.784
X59.195 Y295.597
X59.127 Y295.404
X59.038 Y295.206
X58.928 Y295.006
X58.797 Y294.807
X58.643 Y294.61
X58.467 Y294.418
X58.268 Y294.235
X58.048 Y294.061
X57.807 Y293.901
X57.546 Y293.756
X57.266 Y293.63
X56.97 Y293.523
X56.66 Y293.439
X56.337 Y293.379
X56.004 Y293.344
X55.664 Y293.336
X55.319 Y293.355
X54.972 Y293.403
X54.625 Y293.48
X54.283 Y293.585
X53.947 Y293.718
X53.619 Y293.879
X53.304 Y294.068
X53.003 Y294.283
X52.718 Y294.522
X52.452 Y294.785
X52.206 Y295.07
X51.984 Y295.375
X51.786 Y295.697
X51.614 Y296.036
X51.469 Y296.388
X51.353 Y296.752
X51.267 Y297.124
X51.21 Y297.503
X51.184 Y297.886
X51.188 Y298.27
X51.224 Y298.653
X51.29 Y299.033
X51.387 Y299.406
X51.513 Y299.771
X51.668 Y300.124
X51.852 Y300.464
X52.062 Y300.789
X52.297 Y301.095
X52.557 Y301.382
X52.839 Y301.648
X53.141 Y301.889
X53.462 Y302.106
X53.799 Y302.297
X54.151 Y302.46
X54.514 Y302.594
X54.887 Y302.698
X55.268 Y302.773
X55.653 Y302.816
X56.04 Y302.828
X56.428 Y302.81
X56.812 Y302.76
X57.191 Y302.68
X57.563 Y302.569
X57.925 Y302.429
X58.274 Y302.26
X58.609 Y302.064
X58.926 Y301.842
X59.225 Y301.594
X59.503 Y301.324
X59.759 Y301.032
X59.99 Y300.721
X60.23 Y300.336
X60.635 Y299.555
X60.898 Y298.931
X61.074 Y298.393
X61.192 Y297.906
X61.265 Y297.442
X61.299 Y296.992
X61.298 Y296.556
X61.262 Y296.132
X61.193 Y295.717
X61.122 Y295.435
X61.06 Y295.243
X60.972 Y295.061
X60.861 Y294.892
X60.206 Y294.04
X60.123 Y293.935
X60.011 Y293.833
X59.087 Y293.123
X58.927 Y293.004
X58.879 Y292.975
X58.672 Y292.886
X57.636 Y292.456
X57.533 Y292.416
X57.429 Y292.391
X56.186 Y292.227
X55.979 Y292.209
X55.771 Y292.233
X54.637 Y292.382
X54.528 Y292.399
X54.321 Y292.474
X53.285 Y292.903
X53.078 Y293
X52.87 Y293.156
X51.989 Y293.833
X51.912 Y293.898
X51.834 Y293.987
X51.158 Y294.868
X51.006 Y295.07
X51.002 Y295.076
X50.904 Y295.283
X50.475 Y296.319
X50.399 Y296.526
X50.384 Y296.621
X50.233 Y297.769
X50.209 Y297.976
X50.227 Y298.184
X50.39 Y299.427
X50.415 Y299.53
X50.455 Y299.634
X50.884 Y300.67
X50.974 Y300.877
X51.006 Y300.93
X51.121 Y301.084
X51.834 Y302.013
X51.878 Y302.067
X51.931 Y302.12
X52.042 Y302.208
X53.008 Y302.949
X53.078 Y302.999
X53.181 Y303.054
X54.429 Y303.571
X54.528 Y303.601
X54.735 Y303.631
X55.85 Y303.778
X55.979 Y303.791
X56.15 Y303.778
X57.429 Y303.609
X57.5 Y303.594
X57.57 Y303.571
X58.672 Y303.114
X58.879 Y303.024
X58.992 Y302.949
X59.915 Y302.241
X60.069 Y302.12
X60.123 Y302.066
X60.243 Y301.913
X60.951 Y300.989
X61.026 Y300.877
X61.116 Y300.67
X61.573 Y299.565
X61.596 Y299.496
X61.61 Y299.427
X61.78 Y298.132
X61.791 Y297.976
X61.78 Y297.868
X61.631 Y296.733
X61.601 Y296.526
X61.573 Y296.436
X61.053 Y295.179
X60.999 Y295.076
X60.951 Y295.011
X60.861 Y294.892
X60.818 Y294.856 Z-14.964
X60.779 Y294.823 Z-14.945
X60.743 Y294.792 Z-14.915
X60.713 Y294.767 Z-14.876
X60.69 Y294.748 Z-14.829
X60.674 Y294.739 Z-14.776
X60.669 Y294.735 Z-14.721
G0 Z5
X57.526 Y295.398
Z-11.835
G1 Z-12.47 F1219.2
G2 X53.618 Y296.149 Z-13.236 I-1.526 J2.602
X58.382 Y299.85 Z-14.907 I2.382 J1.85
X53.618 Y296.149 Z-16.578 I-2.382 J-1.85
X53.085 Y298.775 Z-17.067 I2.382 J1.85
X56.391 Y300.99 Z-17.834 I2.915 J-0.776
X59.016 Y298 Z-18.6 I-0.391 J-2.991
X56 Y294.983 I-3.016
Y301.016 J3.016
X58.909 Y298.797 J-3.016
X59.016 Y298 I-2.909 J-0.797
G1 X59.02 Y297.772
X59.175 Y296.873
X59.229 Y296.733
X59.266 Y296.588
X59.289 Y296.44
X59.298 Y296.29
X59.295 Y296.132
X59.278 Y295.962
X59.245 Y295.784
X59.195 Y295.597
X59.127 Y295.404
X59.038 Y295.206
X58.928 Y295.006
X58.797 Y294.807
X58.643 Y294.61
X58.467 Y294.418
X58.268 Y294.235
X58.048 Y294.061
X57.807 Y293.901
X57.546 Y293.756
X57.266 Y293.63
X56.97 Y293.523
X56.66 Y293.439
X56.337 Y293.379
X56.004 Y293.344
X55.664 Y293.336
X55.319 Y293.355
X54.972 Y293.403
X54.625 Y293.48
X54.283 Y293.585
X53.947 Y293.718
X53.619 Y293.879
X53.304 Y294.068
X53.003 Y294.283
X52.718 Y294.522
X52.452 Y294.785
X52.206 Y295.07
X51.984 Y295.375
X51.786 Y295.697
X51.614 Y296.036
X51.469 Y296.388
X51.353 Y296.752
X51.267 Y297.124
X51.21 Y297.503
X51.184 Y297.886
X51.188 Y298.27
X51.224 Y298.653
X51.29 Y299.033
X51.387 Y299.406
X51.513 Y299.771
X51.668 Y300.124
X51.852 Y300.464
X52.062 Y300.789
X52.297 Y301.095
X52.557 Y301.382
X52.839 Y301.648
X53.141 Y301.889
X53.462 Y302.106
X53.799 Y302.297
X54.151 Y302.46
X54.514 Y302.594
X54.887 Y302.698
X55.268 Y302.773
X55.653 Y302.816
X56.04 Y302.828
X56.428 Y302.81
X56.812 Y302.76
X57.191 Y302.68
X57.563 Y302.569
X57.925 Y302.429
X58.274 Y302.26
X58.609 Y302.064
X58.926 Y301.842
X59.225 Y301.594
X59.503 Y301.324
X59.759 Y301.032
X59.99 Y300.721
X60.23 Y300.336
X60.635 Y299.555
X60.898 Y298.931
X61.074 Y298.393
X61.192 Y297.906
X61.265 Y297.442
X61.299 Y296.992
X61.298 Y296.556
X61.262 Y296.132
X61.193 Y295.717
X61.122 Y295.435
X61.06 Y295.243
X60.972 Y295.061
X60.861 Y294.892
X60.206 Y294.04
X60.123 Y293.935
X60.011 Y293.833
X59.087 Y293.123
X58.927 Y293.004
X58.879 Y292.975
X58.672 Y292.886
X57.636 Y292.456
X57.533 Y292.416
X57.429 Y292.391
X56.186 Y292.227
X55.979 Y292.209
X55.771 Y292.233
X54.637 Y292.382
X54.528 Y292.399
X54.321 Y292.474
X53.285 Y292.903
X53.078 Y293
X52.87 Y293.156
X51.989 Y293.833
X51.912 Y293.898
X51.834 Y293.987
X51.158 Y294.868
X51.006 Y295.07
X51.002 Y295.076
X50.904 Y295.283
X50.475 Y296.319
X50.399 Y296.526
X50.384 Y296.621
X50.233 Y297.769
X50.209 Y297.976
X50.227 Y298.184
X50.39 Y299.427
X50.415 Y299.53
X50.455 Y299.634
X50.884 Y300.67
X50.974 Y300.877
X51.006 Y300.93
X51.121 Y301.084
X51.834 Y302.013
X51.878 Y302.067
X51.931 Y302.12
X52.042 Y302.208
X53.008 Y302.949
X53.078 Y302.999
X53.181 Y303.054
X54.429 Y303.571
X54.528 Y303.601
X54.735 Y303.631
X55.85 Y303.778
X55.979 Y303.791
X56.15 Y303.778
X57.429 Y303.609
X57.5 Y303.594
X57.57 Y303.571
X58.672 Y303.114
X58.879 Y303.024
X58.992 Y302.949
X59.915 Y302.241
X60.069 Y302.12
X60.123 Y302.066
X60.243 Y301.913
X60.951 Y300.989
X61.026 Y300.877
X61.116 Y300.67
X61.573 Y299.565
X61.596 Y299.496
X61.61 Y299.427
X61.78 Y298.132
X61.791 Y297.976
X61.78 Y297.868
X61.631 Y296.733
X61.601 Y296.526
X61.573 Y296.436
X61.053 Y295.179
X60.999 Y295.076
X60.951 Y295.011
X60.861 Y294.892
X60.818 Y294.856 Z-18.594
X60.779 Y294.823 Z-18.575
X60.743 Y294.792 Z-18.545
X60.713 Y294.767 Z-18.506
X60.69 Y294.748 Z-18.459
X60.674 Y294.739 Z-18.406
X60.669 Y294.735 Z-18.351
G0 Z5
X56.163 Y231.012
Z3.135
G1 Z2.5 F1219.2
G2 X55.836 Y224.988 Z0.829 I-0.163 J-3.012
X56.163 Y231.012 Z-0.842 I0.163 J3.012
X55.836 Y224.988 Z-2.513 I-0.163 J-3.012
X56.163 Y231.012 Z-4.183 I0.163 J3.012
X59.016 Y228 Z-4.99 I-0.163 J-3.012
X52.983 I-3.016
X58.909 Y228.797 I3.016
X59.016 Y228 I-2.909 J-0.797
G1 X59.02 Y227.772
X59.175 Y226.873
X59.216 Y226.767
X59.257 Y226.623
X59.283 Y226.475
X59.296 Y226.326
Y226.17
X59.282 Y226.004
X59.253 Y225.827
X59.208 Y225.642
X59.144 Y225.451
X59.06 Y225.254
X58.955 Y225.055
X58.829 Y224.855
X58.681 Y224.657
X58.51 Y224.464
X58.317 Y224.278
X58.102 Y224.102
X57.866 Y223.939
X57.61 Y223.79
X57.335 Y223.659
X57.043 Y223.548
X56.735 Y223.458
X56.415 Y223.392
X56.085 Y223.35
X55.746 Y223.336
X55.402 Y223.349
X55.055 Y223.389
X54.709 Y223.459
X54.365 Y223.557
X54.027 Y223.684
X53.697 Y223.838
X53.379 Y224.02
X53.074 Y224.229
X52.785 Y224.462
X52.514 Y224.72
X52.264 Y224.999
X52.035 Y225.299
X51.831 Y225.618
X51.653 Y225.953
X51.502 Y226.302
X51.379 Y226.663
X51.285 Y227.034
X51.221 Y227.411
X51.187 Y227.794
X51.184 Y228.178
X51.212 Y228.561
X51.271 Y228.942
X51.361 Y229.317
X51.48 Y229.684
X51.628 Y230.04
X51.805 Y230.384
X52.008 Y230.712
X52.238 Y231.023
X52.492 Y231.315
X52.768 Y231.586
X53.066 Y231.833
X53.382 Y232.056
X53.716 Y232.253
X54.064 Y232.423
X54.425 Y232.564
X54.796 Y232.676
X55.175 Y232.758
X55.559 Y232.809
X55.946 Y232.829
X56.334 Y232.817
X56.719 Y232.775
X57.1 Y232.702
X57.474 Y232.599
X57.838 Y232.466
X58.191 Y232.304
X58.529 Y232.114
X58.851 Y231.898
X59.155 Y231.657
X59.438 Y231.392
X59.699 Y231.105
X59.936 Y230.798
X60.154 Y230.465
X60.546 Y229.742
X60.843 Y229.072
X61.036 Y228.52
X61.167 Y228.023
X61.25 Y227.555
X61.294 Y227.101
X61.301 Y226.661
X61.273 Y226.234
X61.212 Y225.817
X61.118 Y225.409
X61.1 Y225.35
X61.038 Y225.19
X60.959 Y225.037
X60.862 Y224.895
X60.182 Y224.008
X60.123 Y223.934
X60.046 Y223.861
X59.915 Y223.759
X59.087 Y223.123
X58.879 Y222.975
X58.874 Y222.972
X58.672 Y222.886
X57.636 Y222.456
X57.533 Y222.416
X57.429 Y222.391
X56.186 Y222.227
X55.979 Y222.209
X55.771 Y222.233
X54.735 Y222.369
X54.528 Y222.399
X54.321 Y222.474
X53.285 Y222.903
X53.126 Y222.972
X53.078 Y223.001
X52.84 Y223.18
X52.03 Y223.801
X51.932 Y223.879
X51.879 Y223.933
X51.834 Y223.987
X51.023 Y225.044
X51.006 Y225.069
X50.956 Y225.16
X50.917 Y225.252
X50.488 Y226.287
X50.407 Y226.495
X50.384 Y226.621
X50.237 Y227.738
X50.211 Y227.945
X50.21 Y228.049
X50.222 Y228.152
X50.386 Y229.395
X50.406 Y229.499
X50.442 Y229.603
X50.871 Y230.639
X50.959 Y230.846
X51.006 Y230.93
X51.097 Y231.053
X51.834 Y232.013
X51.9 Y232.089
X52.042 Y232.208
X52.967 Y232.918
X53.078 Y232.999
X53.285 Y233.097
X54.353 Y233.539
X54.528 Y233.601
X54.735 Y233.631
X55.771 Y233.767
X55.979 Y233.791
X56.186 Y233.773
X57.429 Y233.609
X57.533 Y233.584
X57.647 Y233.539
X58.672 Y233.114
X58.879 Y233.024
X59.033 Y232.918
X59.915 Y232.241
X60.101 Y232.089
X60.123 Y232.066
X60.267 Y231.882
X60.951 Y230.989
X61.002 Y230.918
X61.042 Y230.846
X61.159 Y230.566
X61.573 Y229.564
X61.599 Y229.48
X61.614 Y229.395
X61.78 Y228.132
X61.791 Y228.038
X61.789 Y227.945
X61.78 Y227.868
X61.627 Y226.702
X61.593 Y226.495
X61.573 Y226.435
X61.083 Y225.252
X61.038 Y225.148
X60.977 Y225.044
X60.862 Y224.895
X60.82 Y224.859 Z-4.984
X60.78 Y224.825 Z-4.965
X60.745 Y224.795 Z-4.935
X60.715 Y224.769 Z-4.896
X60.692 Y224.75 Z-4.849
X60.676 Y224.741 Z-4.796
X60.67 Y224.738 Z-4.741
G0 Z5
X56.163 Y231.012
Z-1.855
G1 Z-2.49 F1219.2
G2 X55.836 Y224.988 Z-4.161 I-0.163 J-3.012
X56.163 Y231.012 Z-5.832 I0.163 J3.012
X55.836 Y224.988 Z-7.503 I-0.163 J-3.012
X56.163 Y231.012 Z-9.173 I0.163 J3.012
X59.016 Y228 Z-9.98 I-0.163 J-3.012
X52.983 I-3.016
X58.909 Y228.797 I3.016
X59.016 Y228 I-2.909 J-0.797
G1 X59.02 Y227.772
X59.175 Y226.873
X59.216 Y226.767
X59.257 Y226.623
X59.283 Y226.475
X59.296 Y226.326
Y226.17
X59.282 Y226.004
X59.253 Y225.827
X59.208 Y225.642
X59.144 Y225.451
X59.06 Y225.254
X58.955 Y225.055
X58.829 Y224.855
X58.681 Y224.657
X58.51 Y224.464
X58.317 Y224.278
X58.102 Y224.102
X57.866 Y223.939
X57.61 Y223.79
X57.335 Y223.659
X57.043 Y223.548
X56.735 Y223.458
X56.415 Y223.392
X56.085 Y223.35
X55.746 Y223.336
X55.402 Y223.349
X55.055 Y223.389
X54.709 Y223.459
X54.365 Y223.557
X54.027 Y223.684
X53.697 Y223.838
X53.379 Y224.02
X53.074 Y224.229
X52.785 Y224.462
X52.514 Y224.72
X52.264 Y224.999
X52.035 Y225.299
X51.831 Y225.618
X51.653 Y225.953
X51.502 Y226.302
X51.379 Y226.663
X51.285 Y227.034
X51.221 Y227.411
X51.187 Y227.794
X51.184 Y228.178
X51.212 Y228.561
X51.271 Y228.942
X51.361 Y229.317
X51.48 Y229.684
X51.628 Y230.04
X51.805 Y230.384
X52.008 Y230.712
X52.238 Y231.023
X52.492 Y231.315
X52.768 Y231.586
X53.066 Y231.833
X53.382 Y232.056
X53.716 Y232.253
X54.064 Y232.423
X54.425 Y232.564
X54.796 Y232.676
X55.175 Y232.758
X55.559 Y232.809
X55.946 Y232.829
X56.334 Y232.817
X56.719 Y232.775
X57.1 Y232.702
X57.474 Y232.599
X57.838 Y232.466
X58.191 Y232.304
X58.529 Y232.114
X58.851 Y231.898
X59.155 Y231.657
X59.438 Y231.392
X59.699 Y231.105
X59.936 Y230.798
X60.154 Y230.465
X60.546 Y229.742
X60.843 Y229.072
X61.036 Y228.52
X61.167 Y228.023
X61.25 Y227.555
X61.294 Y227.101
X61.301 Y226.661
X61.273 Y226.234
X61.212 Y225.817
X61.118 Y225.409
X61.1 Y225.35
X61.038 Y225.19
X60.959 Y225.037
X60.862 Y224.895
X60.182 Y224.008
X60.123 Y223.934
X60.046 Y223.861
X59.915 Y223.759
X59.087 Y223.123
X58.879 Y222.975
X58.874 Y222.972
X58.672 Y222.886
X57.636 Y222.456
X57.533 Y222.416
X57.429 Y222.391
X56.186 Y222.227
X55.979 Y222.209
X55.771 Y222.233
X54.735 Y222.369
X54.528 Y222.399
X54.321 Y222.474
X53.285 Y222.903
X53.126 Y222.972
X53.078 Y223.001
X52.84 Y223.18
X52.03 Y223.801
X51.932 Y223.879
X51.879 Y223.933
X51.834 Y223.987
X51.023 Y225.044
X51.006 Y225.069
X50.956 Y225.16
X50.917 Y225.252
X50.488 Y226.287
X50.407 Y226.495
X50.384 Y226.621
X50.237 Y227.738
X50.211 Y227.945
X50.21 Y228.049
X50.222 Y228.152
X50.386 Y229.395
X50.406 Y229.499
X50.442 Y229.603
X50.871 Y230.639
X50.959 Y230.846
X51.006 Y230.93
X51.097 Y231.053
X51.834 Y232.013
X51.9 Y232.089
X52.042 Y232.208
X52.967 Y232.918
X53.078 Y232.999
X53.285 Y233.097
X54.353 Y233.539
X54.528 Y233.601
X54.735 Y233.631
X55.771 Y233.767
X55.979 Y233.791
X56.186 Y233.773
X57.429 Y233.609
X57.533 Y233.584
X57.647 Y233.539
X58.672 Y233.114
X58.879 Y233.024
X59.033 Y232.918
X59.915 Y232.241
X60.101 Y232.089
X60.123 Y232.066
X60.267 Y231.882
X60.951 Y230.989
X61.002 Y230.918
X61.042 Y230.846
X61.159 Y230.566
X61.573 Y229.564
X61.599 Y229.48
X61.614 Y229.395
X61.78 Y228.132
X61.791 Y228.038
X61.789 Y227.945
X61.78 Y227.868
X61.627 Y226.702
X61.593 Y226.495
X61.573 Y226.435
X61.083 Y225.252
X61.038 Y225.148
X60.977 Y225.044
X60.862 Y224.895
X60.82 Y224.859 Z-9.974
X60.78 Y224.825 Z-9.955
X60.745 Y224.795 Z-9.925
X60.715 Y224.769 Z-9.886
X60.692 Y224.75 Z-9.839
X60.676 Y224.741 Z-9.786
X60.67 Y224.738 Z-9.731
G0 Z5
X56.163 Y231.012
Z-6.845
G1 Z-7.48 F1219.2
G2 X55.836 Y224.988 Z-9.151 I-0.163 J-3.012
X56.163 Y231.012 Z-10.822 I0.163 J3.012
X55.836 Y224.988 Z-12.493 I-0.163 J-3.012
X56.163 Y231.012 Z-14.163 I0.163 J3.012
X59.016 Y228 Z-14.97 I-0.163 J-3.012
X52.983 I-3.016
X58.909 Y228.797 I3.016
X59.016 Y228 I-2.909 J-0.797
G1 X59.02 Y227.772
X59.175 Y226.873
X59.216 Y226.767
X59.257 Y226.623
X59.283 Y226.475
X59.296 Y226.326
Y226.17
X59.282 Y226.004
X59.253 Y225.827
X59.208 Y225.642
X59.144 Y225.451
X59.06 Y225.254
X58.955 Y225.055
X58.829 Y224.855
X58.681 Y224.657
X58.51 Y224.464
X58.317 Y224.278
X58.102 Y224.102
X57.866 Y223.939
X57.61 Y223.79
X57.335 Y223.659
X57.043 Y223.548
X56.735 Y223.458
X56.415 Y223.392
X56.085 Y223.35
X55.746 Y223.336
X55.402 Y223.349
X55.055 Y223.389
X54.709 Y223.459
X54.365 Y223.557
X54.027 Y223.684
X53.697 Y223.838
X53.379 Y224.02
X53.074 Y224.229
X52.785 Y224.462
X52.514 Y224.72
X52.264 Y224.999
X52.035 Y225.299
X51.831 Y225.618
X51.653 Y225.953
X51.502 Y226.302
X51.379 Y226.663
X51.285 Y227.034
X51.221 Y227.411
X51.187 Y227.794
X51.184 Y228.178
X51.212 Y228.561
X51.271 Y228.942
X51.361 Y229.317
X51.48 Y229.684
X51.628 Y230.04
X51.805 Y230.384
X52.008 Y230.712
X52.238 Y231.023
X52.492 Y231.315
X52.768 Y231.586
X53.066 Y231.833
X53.382 Y232.056
X53.716 Y232.253
X54.064 Y232.423
X54.425 Y232.564
X54.796 Y232.676
X55.175 Y232.758
X55.559 Y232.809
X55.946 Y232.829
X56.334 Y232.817
X56.719 Y232.775
X57.1 Y232.702
X57.474 Y232.599
X57.838 Y232.466
X58.191 Y232.304
X58.529 Y232.114
X58.851 Y231.898
X59.155 Y231.657
X59.438 Y231.392
X59.699 Y231.105
X59.936 Y230.798
X60.154 Y230.465
X60.546 Y229.742
X60.843 Y229.072
X61.036 Y228.52
X61.167 Y228.023
X61.25 Y227.555
X61.294 Y227.101
X61.301 Y226.661
X61.273 Y226.234
X61.212 Y225.817
X61.118 Y225.409
X61.1 Y225.35
X61.038 Y225.19
X60.959 Y225.037
X60.862 Y224.895
X60.182 Y224.008
X60.123 Y223.934
X60.046 Y223.861
X59.915 Y223.759
X59.087 Y223.123
X58.879 Y222.975
X58.874 Y222.972
X58.672 Y222.886
X57.636 Y222.456
X57.533 Y222.416
X57.429 Y222.391
X56.186 Y222.227
X55.979 Y222.209
X55.771 Y222.233
X54.735 Y222.369
X54.528 Y222.399
X54.321 Y222.474
X53.285 Y222.903
X53.126 Y222.972
X53.078 Y223.001
X52.84 Y223.18
X52.03 Y223.801
X51.932 Y223.879
X51.879 Y223.933
X51.834 Y223.987
X51.023 Y225.044
X51.006 Y225.069
X50.956 Y225.16
X50.917 Y225.252
X50.488 Y226.287
X50.407 Y226.495
X50.384 Y226.621
X50.237 Y227.738
X50.211 Y227.945
X50.21 Y228.049
X50.222 Y228.152
X50.386 Y229.395
X50.406 Y229.499
X50.442 Y229.603
X50.871 Y230.639
X50.959 Y230.846
X51.006 Y230.93
X51.097 Y231.053
X51.834 Y232.013
X51.9 Y232.089
X52.042 Y232.208
X52.967 Y232.918
X53.078 Y232.999
X53.285 Y233.097
X54.353 Y233.539
X54.528 Y233.601
X54.735 Y233.631
X55.771 Y233.767
X55.979 Y233.791
X56.186 Y233.773
X57.429 Y233.609
X57.533 Y233.584
X57.647 Y233.539
X58.672 Y233.114
X58.879 Y233.024
X59.033 Y232.918
X59.915 Y232.241
X60.101 Y232.089
X60.123 Y232.066
X60.267 Y231.882
X60.951 Y230.989
X61.002 Y230.918
X61.042 Y230.846
X61.159 Y230.566
X61.573 Y229.564
X61.599 Y229.48
X61.614 Y229.395
X61.78 Y228.132
X61.791 Y228.038
X61.789 Y227.945
X61.78 Y227.868
X61.627 Y226.702
X61.593 Y226.495
X61.573 Y226.435
X61.083 Y225.252
X61.038 Y225.148
X60.977 Y225.044
X60.862 Y224.895
X60.82 Y224.859 Z-14.964
X60.78 Y224.825 Z-14.945
X60.745 Y224.795 Z-14.915
X60.715 Y224.769 Z-14.876
X60.692 Y224.75 Z-14.829
X60.676 Y224.741 Z-14.776
X60.67 Y224.738 Z-14.721
G0 Z5
X57.525 Y225.398
Z-11.835
G1 Z-12.47 F1219.2
G2 X54.474 Y230.602 Z-14.141 I-1.526 J2.602
X57.525 Y225.398 Z-15.812 I1.526 J-2.602
X54.474 Y230.602 Z-17.483 I-1.526 J2.602
X59.016 Y228 Z-18.6 I1.526 J-2.602
X52.983 I-3.016
X58.909 Y228.797 I3.016
X59.016 Y228 I-2.909 J-0.797
G1 X59.02 Y227.772
X59.175 Y226.873
X59.216 Y226.767
X59.257 Y226.623
X59.283 Y226.475
X59.296 Y226.326
Y226.17
X59.282 Y226.004
X59.253 Y225.827
X59.208 Y225.642
X59.144 Y225.451
X59.06 Y225.254
X58.955 Y225.055
X58.829 Y224.855
X58.681 Y224.657
X58.51 Y224.464
X58.317 Y224.278
X58.102 Y224.102
X57.866 Y223.939
X57.61 Y223.79
X57.335 Y223.659
X57.043 Y223.548
X56.735 Y223.458
X56.415 Y223.392
X56.085 Y223.35
X55.746 Y223.336
X55.402 Y223.349
X55.055 Y223.389
X54.709 Y223.459
X54.365 Y223.557
X54.027 Y223.684
X53.697 Y223.838
X53.379 Y224.02
X53.074 Y224.229
X52.785 Y224.462
X52.514 Y224.72
X52.264 Y224.999
X52.035 Y225.299
X51.831 Y225.618
X51.653 Y225.953
X51.502 Y226.302
X51.379 Y226.663
X51.285 Y227.034
X51.221 Y227.411
X51.187 Y227.794
X51.184 Y228.178
X51.212 Y228.561
X51.271 Y228.942
X51.361 Y229.317
X51.48 Y229.684
X51.628 Y230.04
X51.805 Y230.384
X52.008 Y230.712
X52.238 Y231.023
X52.492 Y231.315
X52.768 Y231.586
X53.066 Y231.833
X53.382 Y232.056
X53.716 Y232.253
X54.064 Y232.423
X54.425 Y232.564
X54.796 Y232.676
X55.175 Y232.758
X55.559 Y232.809
X55.946 Y232.829
X56.334 Y232.817
X56.719 Y232.775
X57.1 Y232.702
X57.474 Y232.599
X57.838 Y232.466
X58.191 Y232.304
X58.529 Y232.114
X58.851 Y231.898
X59.155 Y231.657
X59.438 Y231.392
X59.699 Y231.105
X59.936 Y230.798
X60.154 Y230.465
X60.546 Y229.742
X60.843 Y229.072
X61.036 Y228.52
X61.167 Y228.023
X61.25 Y227.555
X61.294 Y227.101
X61.301 Y226.661
X61.273 Y226.234
X61.212 Y225.817
X61.118 Y225.409
X61.1 Y225.35
X61.038 Y225.19
X60.959 Y225.037
X60.862 Y224.895
X60.182 Y224.008
X60.123 Y223.934
X60.046 Y223.861
X59.915 Y223.759
X59.087 Y223.123
X58.879 Y222.975
X58.874 Y222.972
X58.672 Y222.886
X57.636 Y222.456
X57.533 Y222.416
X57.429 Y222.391
X56.186 Y222.227
X55.979 Y222.209
X55.771 Y222.233
X54.735 Y222.369
X54.528 Y222.399
X54.321 Y222.474
X53.285 Y222.903
X53.126 Y222.972
X53.078 Y223.001
X52.84 Y223.18
X52.03 Y223.801
X51.932 Y223.879
X51.879 Y223.933
X51.834 Y223.987
X51.023 Y225.044
X51.006 Y225.069
X50.956 Y225.16
X50.917 Y225.252
X50.488 Y226.287
X50.407 Y226.495
X50.384 Y226.621
X50.237 Y227.738
X50.211 Y227.945
X50.21 Y228.049
X50.222 Y228.152
X50.386 Y229.395
X50.406 Y229.499
X50.442 Y229.603
X50.871 Y230.639
X50.959 Y230.846
X51.006 Y230.93
X51.097 Y231.053
X51.834 Y232.013
X51.9 Y232.089
X52.042 Y232.208
X52.967 Y232.918
X53.078 Y232.999
X53.285 Y233.097
X54.353 Y233.539
X54.528 Y233.601
X54.735 Y233.631
X55.771 Y233.767
X55.979 Y233.791
X56.186 Y233.773
X57.429 Y233.609
X57.533 Y233.584
X57.647 Y233.539
X58.672 Y233.114
X58.879 Y233.024
X59.033 Y232.918
X59.915 Y232.241
X60.101 Y232.089
X60.123 Y232.066
X60.267 Y231.882
X60.951 Y230.989
X61.002 Y230.918
X61.042 Y230.846
X61.159 Y230.566
X61.573 Y229.564
X61.599 Y229.48
X61.614 Y229.395
X61.78 Y228.132
X61.791 Y228.038
X61.789 Y227.945
X61.78 Y227.868
X61.627 Y226.702
X61.593 Y226.495
X61.573 Y226.435
X61.083 Y225.252
X61.038 Y225.148
X60.977 Y225.044
X60.862 Y224.895
X60.82 Y224.859 Z-18.594
X60.78 Y224.825 Z-18.575
X60.745 Y224.795 Z-18.545
X60.715 Y224.769 Z-18.506
X60.692 Y224.75 Z-18.459
X60.676 Y224.741 Z-18.406
X60.67 Y224.738 Z-18.351
G0 Z5
X204.451 Y231.012
Z3.135
G1 Z2.5 F1219.2
G2 X204.124 Y224.988 Z0.829 I-0.163 J-3.012
X204.451 Y231.012 Z-0.842 I0.163 J3.012
X204.124 Y224.988 Z-2.513 I-0.163 J-3.012
X204.451 Y231.012 Z-4.183 I0.163 J3.012
X207.304 Y228 Z-4.99 I-0.163 J-3.012
X201.271 I-3.016
X207.196 Y228.797 I3.016
X207.304 Y228 I-2.909 J-0.797
G1 X207.307 Y227.772
X207.462 Y226.873
X207.503 Y226.767
X207.545 Y226.623
X207.571 Y226.475
X207.583 Y226.326
Y226.17
X207.57 Y226.004
X207.541 Y225.827
X207.495 Y225.642
X207.431 Y225.451
X207.347 Y225.254
X207.243 Y225.055
X207.117 Y224.855
X206.968 Y224.657
X206.798 Y224.464
X206.605 Y224.279
X206.39 Y224.102
X206.153 Y223.939
X205.897 Y223.79
X205.622 Y223.659
X205.33 Y223.548
X205.023 Y223.458
X204.703 Y223.392
X204.372 Y223.351
X204.033 Y223.336
X203.689 Y223.349
X203.343 Y223.39
X202.996 Y223.459
X202.652 Y223.557
X202.315 Y223.684
X201.985 Y223.838
X201.666 Y224.02
X201.361 Y224.229
X201.072 Y224.462
X200.802 Y224.72
X200.551 Y225
X200.323 Y225.3
X200.119 Y225.618
X199.941 Y225.953
X199.789 Y226.302
X199.666 Y226.663
X199.572 Y227.034
X199.508 Y227.412
X199.475 Y227.794
X199.472 Y228.178
X199.5 Y228.561
X199.559 Y228.942
X199.648 Y229.317
X199.767 Y229.684
X199.916 Y230.04
X200.092 Y230.384
X200.296 Y230.712
X200.526 Y231.023
X200.779 Y231.315
X201.056 Y231.586
X201.353 Y231.834
X201.67 Y232.057
X202.003 Y232.254
X202.352 Y232.423
X202.713 Y232.564
X203.084 Y232.676
X203.463 Y232.758
X203.847 Y232.809
X204.234 Y232.829
X204.621 Y232.818
X205.007 Y232.775
X205.388 Y232.702
X205.761 Y232.599
X206.126 Y232.466
X206.478 Y232.304
X206.816 Y232.114
X207.139 Y231.898
X207.442 Y231.657
X207.725 Y231.392
X207.987 Y231.105
X208.224 Y230.798
X208.441 Y230.465
X208.834 Y229.742
X209.131 Y229.072
X209.324 Y228.52
X209.454 Y228.023
X209.538 Y227.555
X209.581 Y227.101
X209.588 Y226.661
X209.56 Y226.234
X209.499 Y225.817
X209.406 Y225.409
X209.387 Y225.35
X209.326 Y225.19
X209.247 Y225.038
X209.151 Y224.896
X208.47 Y224.008
X208.372 Y223.895
X208.274 Y223.814
X207.238 Y223.02
X207.163 Y222.972
X207.031 Y222.915
X205.995 Y222.486
X205.788 Y222.406
X205.581 Y222.373
X204.545 Y222.236
X204.337 Y222.21
X204.234
X203.923 Y222.251
X202.887 Y222.387
X202.783 Y222.407
X202.68 Y222.445
X201.644 Y222.874
X201.437 Y222.961
X201.415 Y222.972
X201.229 Y223.102
X200.318 Y223.801
X200.193 Y223.904
X200.105 Y224.008
X199.31 Y225.044
X199.276 Y225.096
X199.249 Y225.148
X199.204 Y225.252
X198.743 Y226.365
X198.694 Y226.495
X198.661 Y226.702
X198.525 Y227.738
X198.499 Y227.945
X198.498 Y228.049
X198.51 Y228.152
X198.674 Y229.395
X198.693 Y229.499
X198.729 Y229.603
X199.159 Y230.639
X199.245 Y230.846
X199.297 Y230.936
X199.385 Y231.053
X200.021 Y231.882
X200.188 Y232.089
X200.193 Y232.095
X200.401 Y232.262
X201.255 Y232.918
X201.346 Y232.986
X201.437 Y233.039
X201.644 Y233.126
X202.68 Y233.555
X202.783 Y233.593
X202.887 Y233.613
X204.13 Y233.777
X204.234 Y233.79
X204.337
X204.676 Y233.746
X205.581 Y233.627
X205.788 Y233.594
X205.934 Y233.539
X207.031 Y233.085
X207.135 Y233.041
X207.187 Y233.014
X207.238 Y232.98
X207.591 Y232.71
X208.274 Y232.186
X208.388 Y232.089
X208.482 Y231.976
X209.19 Y231.053
X209.31 Y230.883
X209.33 Y230.846
X209.518 Y230.395
X209.846 Y229.603
X209.882 Y229.499
X209.902 Y229.395
X210.066 Y228.152
X210.078 Y228.049
X210.077 Y227.945
X210.051 Y227.738
X209.914 Y226.702
X209.881 Y226.495
X209.8 Y226.287
X209.371 Y225.252
X209.31 Y225.116
X209.264 Y225.044
X209.151 Y224.896
X209.109 Y224.86 Z-4.984
X209.069 Y224.826 Z-4.965
X209.033 Y224.796 Z-4.935
X209.003 Y224.77 Z-4.896
X208.981 Y224.751 Z-4.849
X208.965 Y224.742 Z-4.796
X208.959 Y224.739 Z-4.741
G0 Z5
X204.451 Y231.012
Z-1.855
G1 Z-2.49 F1219.2
G2 X204.124 Y224.988 Z-4.161 I-0.163 J-3.012
X204.451 Y231.012 Z-5.832 I0.163 J3.012
X204.124 Y224.988 Z-7.503 I-0.163 J-3.012
X204.451 Y231.012 Z-9.173 I0.163 J3.012
X207.304 Y228 Z-9.98 I-0.163 J-3.012
X201.271 I-3.016
X207.196 Y228.797 I3.016
X207.304 Y228 I-2.909 J-0.797
G1 X207.307 Y227.772
X207.462 Y226.873
X207.503 Y226.767
X207.545 Y226.623
X207.571 Y226.475
X207.583 Y226.326
Y226.17
X207.57 Y226.004
X207.541 Y225.827
X207.495 Y225.642
X207.431 Y225.451
X207.347 Y225.254
X207.243 Y225.055
X207.117 Y224.855
X206.968 Y224.657
X206.798 Y224.464
X206.605 Y224.279
X206.39 Y224.102
X206.153 Y223.939
X205.897 Y223.79
X205.622 Y223.659
X205.33 Y223.548
X205.023 Y223.458
X204.703 Y223.392
X204.372 Y223.351
X204.033 Y223.336
X203.689 Y223.349
X203.343 Y223.39
X202.996 Y223.459
X202.652 Y223.557
X202.315 Y223.684
X201.985 Y223.838
X201.666 Y224.02
X201.361 Y224.229
X201.072 Y224.462
X200.802 Y224.72
X200.551 Y225
X200.323 Y225.3
X200.119 Y225.618
X199.941 Y225.953
X199.789 Y226.302
X199.666 Y226.663
X199.572 Y227.034
X199.508 Y227.412
X199.475 Y227.794
X199.472 Y228.178
X199.5 Y228.561
X199.559 Y228.942
X199.648 Y229.317
X199.767 Y229.684
X199.916 Y230.04
X200.092 Y230.384
X200.296 Y230.712
X200.526 Y231.023
X200.779 Y231.315
X201.056 Y231.586
X201.353 Y231.834
X201.67 Y232.057
X202.003 Y232.254
X202.352 Y232.423
X202.713 Y232.564
X203.084 Y232.676
X203.463 Y232.758
X203.847 Y232.809
X204.234 Y232.829
X204.621 Y232.818
X205.007 Y232.775
X205.388 Y232.702
X205.761 Y232.599
X206.126 Y232.466
X206.478 Y232.304
X206.816 Y232.114
X207.139 Y231.898
X207.442 Y231.657
X207.725 Y231.392
X207.987 Y231.105
X208.224 Y230.798
X208.441 Y230.465
X208.834 Y229.742
X209.131 Y229.072
X209.324 Y228.52
X209.454 Y228.023
X209.538 Y227.555
X209.581 Y227.101
X209.588 Y226.661
X209.56 Y226.234
X209.499 Y225.817
X209.406 Y225.409
X209.387 Y225.35
X209.326 Y225.19
X209.247 Y225.038
X209.151 Y224.896
X208.47 Y224.008
X208.372 Y223.895
X208.274 Y223.814
X207.238 Y223.02
X207.163 Y222.972
X207.031 Y222.915
X205.995 Y222.486
X205.788 Y222.406
X205.581 Y222.373
X204.545 Y222.236
X204.337 Y222.21
X204.234
X203.923 Y222.251
X202.887 Y222.387
X202.783 Y222.407
X202.68 Y222.445
X201.644 Y222.874
X201.437 Y222.961
X201.415 Y222.972
X201.229 Y223.102
X200.318 Y223.801
X200.193 Y223.904
X200.105 Y224.008
X199.31 Y225.044
X199.276 Y225.096
X199.249 Y225.148
X199.204 Y225.252
X198.743 Y226.365
X198.694 Y226.495
X198.661 Y226.702
X198.525 Y227.738
X198.499 Y227.945
X198.498 Y228.049
X198.51 Y228.152
X198.674 Y229.395
X198.693 Y229.499
X198.729 Y229.603
X199.159 Y230.639
X199.245 Y230.846
X199.297 Y230.936
X199.385 Y231.053
X200.021 Y231.882
X200.188 Y232.089
X200.193 Y232.095
X200.401 Y232.262
X201.255 Y232.918
X201.346 Y232.986
X201.437 Y233.039
X201.644 Y233.126
X202.68 Y233.555
X202.783 Y233.593
X202.887 Y233.613
X204.13 Y233.777
X204.234 Y233.79
X204.337
X204.676 Y233.746
X205.581 Y233.627
X205.788 Y233.594
X205.934 Y233.539
X207.031 Y233.085
X207.135 Y233.041
X207.187 Y233.014
X207.238 Y232.98
X207.591 Y232.71
X208.274 Y232.186
X208.388 Y232.089
X208.482 Y231.976
X209.19 Y231.053
X209.31 Y230.883
X209.33 Y230.846
X209.518 Y230.395
X209.846 Y229.603
X209.882 Y229.499
X209.902 Y229.395
X210.066 Y228.152
X210.078 Y228.049
X210.077 Y227.945
X210.051 Y227.738
X209.914 Y226.702
X209.881 Y226.495
X209.8 Y226.287
X209.371 Y225.252
X209.31 Y225.116
X209.264 Y225.044
X209.151 Y224.896
X209.109 Y224.86 Z-9.974
X209.069 Y224.826 Z-9.955
X209.033 Y224.796 Z-9.925
X209.003 Y224.77 Z-9.886
X208.981 Y224.751 Z-9.839
X208.965 Y224.742 Z-9.786
X208.959 Y224.739 Z-9.731
G0 Z5
X204.451 Y231.012
Z-6.845
G1 Z-7.48 F1219.2
G2 X204.124 Y224.988 Z-9.151 I-0.163 J-3.012
X204.451 Y231.012 Z-10.822 I0.163 J3.012
X204.124 Y224.988 Z-12.493 I-0.163 J-3.012
X204.451 Y231.012 Z-14.163 I0.163 J3.012
X207.304 Y228 Z-14.97 I-0.163 J-3.012
X201.271 I-3.016
X207.196 Y228.797 I3.016
X207.304 Y228 I-2.909 J-0.797
G1 X207.307 Y227.772
X207.462 Y226.873
X207.503 Y226.767
X207.545 Y226.623
X207.571 Y226.475
X207.583 Y226.326
Y226.17
X207.57 Y226.004
X207.541 Y225.827
X207.495 Y225.642
X207.431 Y225.451
X207.347 Y225.254
X207.243 Y225.055
X207.117 Y224.855
X206.968 Y224.657
X206.798 Y224.464
X206.605 Y224.279
X206.39 Y224.102
X206.153 Y223.939
X205.897 Y223.79
X205.622 Y223.659
X205.33 Y223.548
X205.023 Y223.458
X204.703 Y223.392
X204.372 Y223.351
X204.033 Y223.336
X203.689 Y223.349
X203.343 Y223.39
X202.996 Y223.459
X202.652 Y223.557
X202.315 Y223.684
X201.985 Y223.838
X201.666 Y224.02
X201.361 Y224.229
X201.072 Y224.462
X200.802 Y224.72
X200.551 Y225
X200.323 Y225.3
X200.119 Y225.618
X199.941 Y225.953
X199.789 Y226.302
X199.666 Y226.663
X199.572 Y227.034
X199.508 Y227.412
X199.475 Y227.794
X199.472 Y228.178
X199.5 Y228.561
X199.559 Y228.942
X199.648 Y229.317
X199.767 Y229.684
X199.916 Y230.04
X200.092 Y230.384
X200.296 Y230.712
X200.526 Y231.023
X200.779 Y231.315
X201.056 Y231.586
X201.353 Y231.834
X201.67 Y232.057
X202.003 Y232.254
X202.352 Y232.423
X202.713 Y232.564
X203.084 Y232.676
X203.463 Y232.758
X203.847 Y232.809
X204.234 Y232.829
X204.621 Y232.818
X205.007 Y232.775
X205.388 Y232.702
X205.761 Y232.599
X206.126 Y232.466
X206.478 Y232.304
X206.816 Y232.114
X207.139 Y231.898
X207.442 Y231.657
X207.725 Y231.392
X207.987 Y231.105
X208.224 Y230.798
X208.441 Y230.465
X208.834 Y229.742
X209.131 Y229.072
X209.324 Y228.52
X209.454 Y228.023
X209.538 Y227.555
X209.581 Y227.101
X209.588 Y226.661
X209.56 Y226.234
X209.499 Y225.817
X209.406 Y225.409
X209.387 Y225.35
X209.326 Y225.19
X209.247 Y225.038
X209.151 Y224.896
X208.47 Y224.008
X208.372 Y223.895
X208.274 Y223.814
X207.238 Y223.02
X207.163 Y222.972
X207.031 Y222.915
X205.995 Y222.486
X205.788 Y222.406
X205.581 Y222.373
X204.545 Y222.236
X204.337 Y222.21
X204.234
X203.923 Y222.251
X202.887 Y222.387
X202.783 Y222.407
X202.68 Y222.445
X201.644 Y222.874
X201.437 Y222.961
X201.415 Y222.972
X201.229 Y223.102
X200.318 Y223.801
X200.193 Y223.904
X200.105 Y224.008
X199.31 Y225.044
X199.276 Y225.096
X199.249 Y225.148
X199.204 Y225.252
X198.743 Y226.365
X198.694 Y226.495
X198.661 Y226.702
X198.525 Y227.738
X198.499 Y227.945
X198.498 Y228.049
X198.51 Y228.152
X198.674 Y229.395
X198.693 Y229.499
X198.729 Y229.603
X199.159 Y230.639
X199.245 Y230.846
X199.297 Y230.936
X199.385 Y231.053
X200.021 Y231.882
X200.188 Y232.089
X200.193 Y232.095
X200.401 Y232.262
X201.255 Y232.918
X201.346 Y232.986
X201.437 Y233.039
X201.644 Y233.126
X202.68 Y233.555
X202.783 Y233.593
X202.887 Y233.613
X204.13 Y233.777
X204.234 Y233.79
X204.337
X204.676 Y233.746
X205.581 Y233.627
X205.788 Y233.594
X205.934 Y233.539
X207.031 Y233.085
X207.135 Y233.041
X207.187 Y233.014
X207.238 Y232.98
X207.591 Y232.71
X208.274 Y232.186
X208.388 Y232.089
X208.482 Y231.976
X209.19 Y231.053
X209.31 Y230.883
X209.33 Y230.846
X209.518 Y230.395
X209.846 Y229.603
X209.882 Y229.499
X209.902 Y229.395
X210.066 Y228.152
X210.078 Y228.049
X210.077 Y227.945
X210.051 Y227.738
X209.914 Y226.702
X209.881 Y226.495
X209.8 Y226.287
X209.371 Y225.252
X209.31 Y225.116
X209.264 Y225.044
X209.151 Y224.896
X209.109 Y224.86 Z-14.964
X209.069 Y224.826 Z-14.945
X209.033 Y224.796 Z-14.915
X209.003 Y224.77 Z-14.876
X208.981 Y224.751 Z-14.829
X208.965 Y224.742 Z-14.776
X208.959 Y224.739 Z-14.721
G0 Z5
X205.813 Y225.398
Z-11.835
G1 Z-12.47 F1219.2
G2 X201.905 Y226.15 Z-13.236 I-1.526 J2.602
X206.669 Y229.85 Z-14.907 I2.382 J1.85
X206.904 Y226.501 Z-15.535 I-2.382 J-1.85
X201.67 Y229.499 Z-17.206 I-2.617 J1.499
X207.304 Y228 Z-18.6 I2.617 J-1.499
X201.271 I-3.016
X207.196 Y228.797 I3.016
X207.304 Y228 I-2.909 J-0.797
G1 X207.307 Y227.772
X207.462 Y226.873
X207.503 Y226.767
X207.545 Y226.623
X207.571 Y226.475
X207.583 Y226.326
Y226.17
X207.57 Y226.004
X207.541 Y225.827
X207.495 Y225.642
X207.431 Y225.451
X207.347 Y225.254
X207.243 Y225.055
X207.117 Y224.855
X206.968 Y224.657
X206.798 Y224.464
X206.605 Y224.279
X206.39 Y224.102
X206.153 Y223.939
X205.897 Y223.79
X205.622 Y223.659
X205.33 Y223.548
X205.023 Y223.458
X204.703 Y223.392
X204.372 Y223.351
X204.033 Y223.336
X203.689 Y223.349
X203.343 Y223.39
X202.996 Y223.459
X202.652 Y223.557
X202.315 Y223.684
X201.985 Y223.838
X201.666 Y224.02
X201.361 Y224.229
X201.072 Y224.462
X200.802 Y224.72
X200.551 Y225
X200.323 Y225.3
X200.119 Y225.618
X199.941 Y225.953
X199.789 Y226.302
X199.666 Y226.663
X199.572 Y227.034
X199.508 Y227.412
X199.475 Y227.794
X199.472 Y228.178
X199.5 Y228.561
X199.559 Y228.942
X199.648 Y229.317
X199.767 Y229.684
X199.916 Y230.04
X200.092 Y230.384
X200.296 Y230.712
X200.526 Y231.023
X200.779 Y231.315
X201.056 Y231.586
X201.353 Y231.834
X201.67 Y232.057
X202.003 Y232.254
X202.352 Y232.423
X202.713 Y232.564
X203.084 Y232.676
X203.463 Y232.758
X203.847 Y232.809
X204.234 Y232.829
X204.621 Y232.818
X205.007 Y232.775
X205.388 Y232.702
X205.761 Y232.599
X206.126 Y232.466
X206.478 Y232.304
X206.816 Y232.114
X207.139 Y231.898
X207.442 Y231.657
X207.725 Y231.392
X207.987 Y231.105
X208.224 Y230.798
X208.441 Y230.465
X208.834 Y229.742
X209.131 Y229.072
X209.324 Y228.52
X209.454 Y228.023
X209.538 Y227.555
X209.581 Y227.101
X209.588 Y226.661
X209.56 Y226.234
X209.499 Y225.817
X209.406 Y225.409
X209.387 Y225.35
X209.326 Y225.19
X209.247 Y225.038
X209.151 Y224.896
X208.47 Y224.008
X208.372 Y223.895
X208.274 Y223.814
X207.238 Y223.02
X207.163 Y222.972
X207.031 Y222.915
X205.995 Y222.486
X205.788 Y222.406
X205.581 Y222.373
X204.545 Y222.236
X204.337 Y222.21
X204.234
X203.923 Y222.251
X202.887 Y222.387
X202.783 Y222.407
X202.68 Y222.445
X201.644 Y222.874
X201.437 Y222.961
X201.415 Y222.972
X201.229 Y223.102
X200.318 Y223.801
X200.193 Y223.904
X200.105 Y224.008
X199.31 Y225.044
X199.276 Y225.096
X199.249 Y225.148
X199.204 Y225.252
X198.743 Y226.365
X198.694 Y226.495
X198.661 Y226.702
X198.525 Y227.738
X198.499 Y227.945
X198.498 Y228.049
X198.51 Y228.152
X198.674 Y229.395
X198.693 Y229.499
X198.729 Y229.603
X199.159 Y230.639
X199.245 Y230.846
X199.297 Y230.936
X199.385 Y231.053
X200.021 Y231.882
X200.188 Y232.089
X200.193 Y232.095
X200.401 Y232.262
X201.255 Y232.918
X201.346 Y232.986
X201.437 Y233.039
X201.644 Y233.126
X202.68 Y233.555
X202.783 Y233.593
X202.887 Y233.613
X204.13 Y233.777
X204.234 Y233.79
X204.337
X204.676 Y233.746
X205.581 Y233.627
X205.788 Y233.594
X205.934 Y233.539
X207.031 Y233.085
X207.135 Y233.041
X207.187 Y233.014
X207.238 Y232.98
X207.591 Y232.71
X208.274 Y232.186
X208.388 Y232.089
X208.482 Y231.976
X209.19 Y231.053
X209.31 Y230.883
X209.33 Y230.846
X209.518 Y230.395
X209.846 Y229.603
X209.882 Y229.499
X209.902 Y229.395
X210.066 Y228.152
X210.078 Y228.049
X210.077 Y227.945
X210.051 Y227.738
X209.914 Y226.702
X209.881 Y226.495
X209.8 Y226.287
X209.371 Y225.252
X209.31 Y225.116
X209.264 Y225.044
X209.151 Y224.896
X209.109 Y224.86 Z-18.594
X209.069 Y224.826 Z-18.575
X209.033 Y224.796 Z-18.545
X209.003 Y224.77 Z-18.506
X208.981 Y224.751 Z-18.459
X208.965 Y224.742 Z-18.406
X208.959 Y224.739 Z-18.351
G0 Z5
X204.451 Y301.012
Z3.135
G1 Z2.5 F1219.2
G2 X207.3 Y297.855 Z1.668 I-0.163 J-3.012
X201.275 Y298.145 Z-0.003 I-3.013 J0.145
X207.303 Y297.928 Z-1.661 I3.013 J-0.145
X204.233 Y294.984 Z-2.493 I-3.015 J0.073
X204.306 Y301.016 Z-4.158 I0.054 J3.016
X207.304 Y298 Z-4.99 I-0.018 J-3.016
X204.287 Y294.984 I-3.016
Y301.017 J3.016
X207.196 Y298.798 J-3.016
X207.304 Y298 I-2.909 J-0.797
G1 X207.307 Y297.772
X207.462 Y296.874
X207.516 Y296.734
X207.554 Y296.589
X207.577 Y296.44
X207.586 Y296.291
X207.583 Y296.132
X207.566 Y295.963
X207.533 Y295.784
X207.483 Y295.598
X207.414 Y295.404
X207.325 Y295.207
X207.216 Y295.007
X207.084 Y294.808
X206.93 Y294.611
X206.754 Y294.419
X206.556 Y294.235
X206.335 Y294.062
X206.094 Y293.902
X205.833 Y293.757
X205.554 Y293.631
X205.258 Y293.524
X204.947 Y293.44
X204.624 Y293.38
X204.291 Y293.345
X203.951 Y293.337
X203.606 Y293.356
X203.259 Y293.404
X202.913 Y293.48
X202.57 Y293.585
X202.234 Y293.719
X201.907 Y293.88
X201.591 Y294.069
X201.29 Y294.283
X201.005 Y294.523
X200.739 Y294.786
X200.494 Y295.071
X200.272 Y295.375
X200.074 Y295.698
X199.902 Y296.037
X199.757 Y296.389
X199.641 Y296.753
X199.554 Y297.125
X199.497 Y297.504
X199.471 Y297.887
X199.476 Y298.271
X199.512 Y298.654
X199.578 Y299.034
X199.674 Y299.407
X199.801 Y299.771
X199.956 Y300.125
X200.139 Y300.465
X200.349 Y300.789
X200.585 Y301.096
X200.844 Y301.383
X201.126 Y301.648
X201.429 Y301.89
X201.749 Y302.107
X202.087 Y302.298
X202.438 Y302.46
X202.802 Y302.595
X203.175 Y302.699
X203.555 Y302.773
X203.94 Y302.817
X204.328 Y302.829
X204.715 Y302.811
X205.1 Y302.761
X205.479 Y302.68
X205.851 Y302.57
X206.212 Y302.43
X206.562 Y302.261
X206.896 Y302.065
X207.214 Y301.842
X207.513 Y301.595
X207.791 Y301.325
X208.046 Y301.033
X208.278 Y300.722
X208.518 Y300.337
X208.923 Y299.556
X209.185 Y298.931
X209.362 Y298.394
X209.479 Y297.907
X209.553 Y297.443
X209.587 Y296.993
X209.585 Y296.557
X209.549 Y296.132
X209.48 Y295.717
X209.41 Y295.435
X209.349 Y295.247
X209.264 Y295.068
X209.155 Y294.902
X208.482 Y294.024
X208.404 Y293.928
X208.298 Y293.833
X207.238 Y293.02
X207.215 Y293.004
X207.123 Y292.954
X207.031 Y292.915
X205.995 Y292.486
X205.788 Y292.406
X205.651 Y292.382
X204.545 Y292.236
X204.337 Y292.21
X204.234
X203.923 Y292.251
X202.887 Y292.387
X202.783 Y292.407
X202.68 Y292.445
X201.644 Y292.874
X201.437 Y292.961
X201.36 Y293.004
X201.229 Y293.102
X200.277 Y293.833
X200.193 Y293.906
X200.081 Y294.04
X199.365 Y294.974
X199.289 Y295.076
X199.191 Y295.283
X198.743 Y296.365
X198.687 Y296.526
X198.657 Y296.733
X198.521 Y297.769
X198.497 Y297.976
X198.514 Y298.184
X198.678 Y299.427
X198.702 Y299.53
X198.743 Y299.635
X199.171 Y300.67
X199.262 Y300.877
X199.365 Y301.026
X200.045 Y301.913
X200.193 Y302.096
X200.22 Y302.12
X200.401 Y302.262
X201.296 Y302.949
X201.366 Y302.999
X201.437 Y303.039
X201.716 Y303.156
X202.718 Y303.571
X202.802 Y303.598
X202.887 Y303.613
X204.138 Y303.778
X204.238 Y303.79
X204.337
X204.438 Y303.778
X205.581 Y303.627
X205.788 Y303.594
X205.859 Y303.571
X207.031 Y303.085
X207.135 Y303.041
X207.238 Y302.98
X208.274 Y302.186
X208.356 Y302.12
X208.425 Y302.048
X208.689 Y301.706
X209.166 Y301.084
X209.31 Y300.884
X209.314 Y300.877
X209.404 Y300.67
X209.833 Y299.634
X209.873 Y299.53
X209.897 Y299.427
X210.061 Y298.184
X210.079 Y297.976
X210.055 Y297.769
X209.919 Y296.733
X209.888 Y296.526
X209.813 Y296.319
X209.384 Y295.283
X209.31 Y295.117
X209.286 Y295.076
X209.155 Y294.902
X209.114 Y294.866 Z-4.984
X209.074 Y294.832 Z-4.965
X209.038 Y294.801 Z-4.935
X209.009 Y294.775 Z-4.896
X208.986 Y294.756 Z-4.849
X208.97 Y294.747 Z-4.796
X208.965 Y294.744 Z-4.741
G0 Z5
X204.451 Y301.012
Z-1.855
G1 Z-2.49 F1219.2
G2 X207.3 Y297.855 Z-3.322 I-0.163 J-3.012
X201.275 Y298.145 Z-4.993 I-3.013 J0.145
X207.303 Y297.928 Z-6.651 I3.013 J-0.145
X204.233 Y294.984 Z-7.483 I-3.015 J0.073
X204.306 Y301.016 Z-9.148 I0.054 J3.016
X207.304 Y298 Z-9.98 I-0.018 J-3.016
X204.287 Y294.984 I-3.016
Y301.017 J3.016
X207.196 Y298.798 J-3.016
X207.304 Y298 I-2.909 J-0.797
G1 X207.307 Y297.772
X207.462 Y296.874
X207.516 Y296.734
X207.554 Y296.589
X207.577 Y296.44
X207.586 Y296.291
X207.583 Y296.132
X207.566 Y295.963
X207.533 Y295.784
X207.483 Y295.598
X207.414 Y295.404
X207.325 Y295.207
X207.216 Y295.007
X207.084 Y294.808
X206.93 Y294.611
X206.754 Y294.419
X206.556 Y294.235
X206.335 Y294.062
X206.094 Y293.902
X205.833 Y293.757
X205.554 Y293.631
X205.258 Y293.524
X204.947 Y293.44
X204.624 Y293.38
X204.291 Y293.345
X203.951 Y293.337
X203.606 Y293.356
X203.259 Y293.404
X202.913 Y293.48
X202.57 Y293.585
X202.234 Y293.719
X201.907 Y293.88
X201.591 Y294.069
X201.29 Y294.283
X201.005 Y294.523
X200.739 Y294.786
X200.494 Y295.071
X200.272 Y295.375
X200.074 Y295.698
X199.902 Y296.037
X199.757 Y296.389
X199.641 Y296.753
X199.554 Y297.125
X199.497 Y297.504
X199.471 Y297.887
X199.476 Y298.271
X199.512 Y298.654
X199.578 Y299.034
X199.674 Y299.407
X199.801 Y299.771
X199.956 Y300.125
X200.139 Y300.465
X200.349 Y300.789
X200.585 Y301.096
X200.844 Y301.383
X201.126 Y301.648
X201.429 Y301.89
X201.749 Y302.107
X202.087 Y302.298
X202.438 Y302.46
X202.802 Y302.595
X203.175 Y302.699
X203.555 Y302.773
X203.94 Y302.817
X204.328 Y302.829
X204.715 Y302.811
X205.1 Y302.761
X205.479 Y302.68
X205.851 Y302.57
X206.212 Y302.43
X206.562 Y302.261
X206.896 Y302.065
X207.214 Y301.842
X207.513 Y301.595
X207.791 Y301.325
X208.046 Y301.033
X208.278 Y300.722
X208.518 Y300.337
X208.923 Y299.556
X209.185 Y298.931
X209.362 Y298.394
X209.479 Y297.907
X209.553 Y297.443
X209.587 Y296.993
X209.585 Y296.557
X209.549 Y296.132
X209.48 Y295.717
X209.41 Y295.435
X209.349 Y295.247
X209.264 Y295.068
X209.155 Y294.902
X208.482 Y294.024
X208.404 Y293.928
X208.298 Y293.833
X207.238 Y293.02
X207.215 Y293.004
X207.123 Y292.954
X207.031 Y292.915
X205.995 Y292.486
X205.788 Y292.406
X205.651 Y292.382
X204.545 Y292.236
X204.337 Y292.21
X204.234
X203.923 Y292.251
X202.887 Y292.387
X202.783 Y292.407
X202.68 Y292.445
X201.644 Y292.874
X201.437 Y292.961
X201.36 Y293.004
X201.229 Y293.102
X200.277 Y293.833
X200.193 Y293.906
X200.081 Y294.04
X199.365 Y294.974
X199.289 Y295.076
X199.191 Y295.283
X198.743 Y296.365
X198.687 Y296.526
X198.657 Y296.733
X198.521 Y297.769
X198.497 Y297.976
X198.514 Y298.184
X198.678 Y299.427
X198.702 Y299.53
X198.743 Y299.635
X199.171 Y300.67
X199.262 Y300.877
X199.365 Y301.026
X200.045 Y301.913
X200.193 Y302.096
X200.22 Y302.12
X200.401 Y302.262
X201.296 Y302.949
X201.366 Y302.999
X201.437 Y303.039
X201.716 Y303.156
X202.718 Y303.571
X202.802 Y303.598
X202.887 Y303.613
X204.138 Y303.778
X204.238 Y303.79
X204.337
X204.438 Y303.778
X205.581 Y303.627
X205.788 Y303.594
X205.859 Y303.571
X207.031 Y303.085
X207.135 Y303.041
X207.238 Y302.98
X208.274 Y302.186
X208.356 Y302.12
X208.425 Y302.048
X208.689 Y301.706
X209.166 Y301.084
X209.31 Y300.884
X209.314 Y300.877
X209.404 Y300.67
X209.833 Y299.634
X209.873 Y299.53
X209.897 Y299.427
X210.061 Y298.184
X210.079 Y297.976
X210.055 Y297.769
X209.919 Y296.733
X209.888 Y296.526
X209.813 Y296.319
X209.384 Y295.283
X209.31 Y295.117
X209.286 Y295.076
X209.155 Y294.902
X209.114 Y294.866 Z-9.974
X209.074 Y294.832 Z-9.955
X209.038 Y294.801 Z-9.925
X209.009 Y294.775 Z-9.886
X208.986 Y294.756 Z-9.839
X208.97 Y294.747 Z-9.786
X208.965 Y294.744 Z-9.731
G0 Z5
X204.451 Y301.012
Z-6.845
G1 Z-7.48 F1219.2
G2 X207.3 Y297.855 Z-8.312 I-0.163 J-3.012
X201.275 Y298.145 Z-9.983 I-3.013 J0.145
X207.303 Y297.928 Z-11.641 I3.013 J-0.145
X204.233 Y294.984 Z-12.473 I-3.015 J0.073
X204.306 Y301.016 Z-14.138 I0.054 J3.016
X207.304 Y298 Z-14.97 I-0.018 J-3.016
X204.287 Y294.984 I-3.016
Y301.017 J3.016
X207.196 Y298.798 J-3.016
X207.304 Y298 I-2.909 J-0.797
G1 X207.307 Y297.772
X207.462 Y296.874
X207.516 Y296.734
X207.554 Y296.589
X207.577 Y296.44
X207.586 Y296.291
X207.583 Y296.132
X207.566 Y295.963
X207.533 Y295.784
X207.483 Y295.598
X207.414 Y295.404
X207.325 Y295.207
X207.216 Y295.007
X207.084 Y294.808
X206.93 Y294.611
X206.754 Y294.419
X206.556 Y294.235
X206.335 Y294.062
X206.094 Y293.902
X205.833 Y293.757
X205.554 Y293.631
X205.258 Y293.524
X204.947 Y293.44
X204.624 Y293.38
X204.291 Y293.345
X203.951 Y293.337
X203.606 Y293.356
X203.259 Y293.404
X202.913 Y293.48
X202.57 Y293.585
X202.234 Y293.719
X201.907 Y293.88
X201.591 Y294.069
X201.29 Y294.283
X201.005 Y294.523
X200.739 Y294.786
X200.494 Y295.071
X200.272 Y295.375
X200.074 Y295.698
X199.902 Y296.037
X199.757 Y296.389
X199.641 Y296.753
X199.554 Y297.125
X199.497 Y297.504
X199.471 Y297.887
X199.476 Y298.271
X199.512 Y298.654
X199.578 Y299.034
X199.674 Y299.407
X199.801 Y299.771
X199.956 Y300.125
X200.139 Y300.465
X200.349 Y300.789
X200.585 Y301.096
X200.844 Y301.383
X201.126 Y301.648
X201.429 Y301.89
X201.749 Y302.107
X202.087 Y302.298
X202.438 Y302.46
X202.802 Y302.595
X203.175 Y302.699
X203.555 Y302.773
X203.94 Y302.817
X204.328 Y302.829
X204.715 Y302.811
X205.1 Y302.761
X205.479 Y302.68
X205.851 Y302.57
X206.212 Y302.43
X206.562 Y302.261
X206.896 Y302.065
X207.214 Y301.842
X207.513 Y301.595
X207.791 Y301.325
X208.046 Y301.033
X208.278 Y300.722
X208.518 Y300.337
X208.923 Y299.556
X209.185 Y298.931
X209.362 Y298.394
X209.479 Y297.907
X209.553 Y297.443
X209.587 Y296.993
X209.585 Y296.557
X209.549 Y296.132
X209.48 Y295.717
X209.41 Y295.435
X209.349 Y295.247
X209.264 Y295.068
X209.155 Y294.902
X208.482 Y294.024
X208.404 Y293.928
X208.298 Y293.833
X207.238 Y293.02
X207.215 Y293.004
X207.123 Y292.954
X207.031 Y292.915
X205.995 Y292.486
X205.788 Y292.406
X205.651 Y292.382
X204.545 Y292.236
X204.337 Y292.21
X204.234
X203.923 Y292.251
X202.887 Y292.387
X202.783 Y292.407
X202.68 Y292.445
X201.644 Y292.874
X201.437 Y292.961
X201.36 Y293.004
X201.229 Y293.102
X200.277 Y293.833
X200.193 Y293.906
X200.081 Y294.04
X199.365 Y294.974
X199.289 Y295.076
X199.191 Y295.283
X198.743 Y296.365
X198.687 Y296.526
X198.657 Y296.733
X198.521 Y297.769
X198.497 Y297.976
X198.514 Y298.184
X198.678 Y299.427
X198.702 Y299.53
X198.743 Y299.635
X199.171 Y300.67
X199.262 Y300.877
X199.365 Y301.026
X200.045 Y301.913
X200.193 Y302.096
X200.22 Y302.12
X200.401 Y302.262
X201.296 Y302.949
X201.366 Y302.999
X201.437 Y303.039
X201.716 Y303.156
X202.718 Y303.571
X202.802 Y303.598
X202.887 Y303.613
X204.138 Y303.778
X204.238 Y303.79
X204.337
X204.438 Y303.778
X205.581 Y303.627
X205.788 Y303.594
X205.859 Y303.571
X207.031 Y303.085
X207.135 Y303.041
X207.238 Y302.98
X208.274 Y302.186
X208.356 Y302.12
X208.425 Y302.048
X208.689 Y301.706
X209.166 Y301.084
X209.31 Y300.884
X209.314 Y300.877
X209.404 Y300.67
X209.833 Y299.634
X209.873 Y299.53
X209.897 Y299.427
X210.061 Y298.184
X210.079 Y297.976
X210.055 Y297.769
X209.919 Y296.733
X209.888 Y296.526
X209.813 Y296.319
X209.384 Y295.283
X209.31 Y295.117
X209.286 Y295.076
X209.155 Y294.902
X209.114 Y294.866 Z-14.964
X209.074 Y294.832 Z-14.945
X209.038 Y294.801 Z-14.915
X209.009 Y294.775 Z-14.876
X208.986 Y294.756 Z-14.829
X208.97 Y294.747 Z-14.776
X208.965 Y294.744 Z-14.721
G0 Z5
X205.813 Y295.398
Z-11.835
G1 Z-12.47 F1219.2
G2 X202.762 Y300.602 Z-14.141 I-1.526 J2.602
X206.114 Y300.401 Z-14.769 I1.526 J-2.602
X206.905 Y296.501 Z-15.535 I-1.826 J-2.401
X201.67 Y299.5 Z-17.206 I-2.617 J1.499
X207.304 Y298 Z-18.6 I2.617 J-1.499
X204.287 Y294.984 I-3.016
Y301.017 J3.016
X207.196 Y298.798 J-3.016
X207.304 Y298 I-2.909 J-0.797
G1 X207.307 Y297.772
X207.462 Y296.874
X207.516 Y296.734
X207.554 Y296.589
X207.577 Y296.44
X207.586 Y296.291
X207.583 Y296.132
X207.566 Y295.963
X207.533 Y295.784
X207.483 Y295.598
X207.414 Y295.404
X207.325 Y295.207
X207.216 Y295.007
X207.084 Y294.808
X206.93 Y294.611
X206.754 Y294.419
X206.556 Y294.235
X206.335 Y294.062
X206.094 Y293.902
X205.833 Y293.757
X205.554 Y293.631
X205.258 Y293.524
X204.947 Y293.44
X204.624 Y293.38
X204.291 Y293.345
X203.951 Y293.337
X203.606 Y293.356
X203.259 Y293.404
X202.913 Y293.48
X202.57 Y293.585
X202.234 Y293.719
X201.907 Y293.88
X201.591 Y294.069
X201.29 Y294.283
X201.005 Y294.523
X200.739 Y294.786
X200.494 Y295.071
X200.272 Y295.375
X200.074 Y295.698
X199.902 Y296.037
X199.757 Y296.389
X199.641 Y296.753
X199.554 Y297.125
X199.497 Y297.504
X199.471 Y297.887
X199.476 Y298.271
X199.512 Y298.654
X199.578 Y299.034
X199.674 Y299.407
X199.801 Y299.771
X199.956 Y300.125
X200.139 Y300.465
X200.349 Y300.789
X200.585 Y301.096
X200.844 Y301.383
X201.126 Y301.648
X201.429 Y301.89
X201.749 Y302.107
X202.087 Y302.298
X202.438 Y302.46
X202.802 Y302.595
X203.175 Y302.699
X203.555 Y302.773
X203.94 Y302.817
X204.328 Y302.829
X204.715 Y302.811
X205.1 Y302.761
X205.479 Y302.68
X205.851 Y302.57
X206.212 Y302.43
X206.562 Y302.261
X206.896 Y302.065
X207.214 Y301.842
X207.513 Y301.595
X207.791 Y301.325
X208.046 Y301.033
X208.278 Y300.722
X208.518 Y300.337
X208.923 Y299.556
X209.185 Y298.931
X209.362 Y298.394
X209.479 Y297.907
X209.553 Y297.443
X209.587 Y296.993
X209.585 Y296.557
X209.549 Y296.132
X209.48 Y295.717
X209.41 Y295.435
X209.349 Y295.247
X209.264 Y295.068
X209.155 Y294.902
X208.482 Y294.024
X208.404 Y293.928
X208.298 Y293.833
X207.238 Y293.02
X207.215 Y293.004
X207.123 Y292.954
X207.031 Y292.915
X205.995 Y292.486
X205.788 Y292.406
X205.651 Y292.382
X204.545 Y292.236
X204.337 Y292.21
X204.234
X203.923 Y292.251
X202.887 Y292.387
X202.783 Y292.407
X202.68 Y292.445
X201.644 Y292.874
X201.437 Y292.961
X201.36 Y293.004
X201.229 Y293.102
X200.277 Y293.833
X200.193 Y293.906
X200.081 Y294.04
X199.365 Y294.974
X199.289 Y295.076
X199.191 Y295.283
X198.743 Y296.365
X198.687 Y296.526
X198.657 Y296.733
X198.521 Y297.769
X198.497 Y297.976
X198.514 Y298.184
X198.678 Y299.427
X198.702 Y299.53
X198.743 Y299.635
X199.171 Y300.67
X199.262 Y300.877
X199.365 Y301.026
X200.045 Y301.913
X200.193 Y302.096
X200.22 Y302.12
X200.401 Y302.262
X201.296 Y302.949
X201.366 Y302.999
X201.437 Y303.039
X201.716 Y303.156
X202.718 Y303.571
X202.802 Y303.598
X202.887 Y303.613
X204.138 Y303.778
X204.238 Y303.79
X204.337
X204.438 Y303.778
X205.581 Y303.627
X205.788 Y303.594
X205.859 Y303.571
X207.031 Y303.085
X207.135 Y303.041
X207.238 Y302.98
X208.274 Y302.186
X208.356 Y302.12
X208.425 Y302.048
X208.689 Y301.706
X209.166 Y301.084
X209.31 Y300.884
X209.314 Y300.877
X209.404 Y300.67
X209.833 Y299.634
X209.873 Y299.53
X209.897 Y299.427
X210.061 Y298.184
X210.079 Y297.976
X210.055 Y297.769
X209.919 Y296.733
X209.888 Y296.526
X209.813 Y296.319
X209.384 Y295.283
X209.31 Y295.117
X209.286 Y295.076
X209.155 Y294.902
X209.114 Y294.866 Z-18.594
X209.074 Y294.832 Z-18.575
X209.038 Y294.801 Z-18.545
X209.009 Y294.775 Z-18.506
X208.986 Y294.756 Z-18.459
X208.97 Y294.747 Z-18.406
X208.965 Y294.744 Z-18.351
G0 Z5
X140.303 Y94.113
Z3.135
G1 Z2.5 F1219.2
G2 X139.976 Y88.09 Z0.829 I-0.163 J-3.012
X140.303 Y94.113 Z-0.842 I0.163 J3.012
X139.976 Y88.09 Z-2.513 I-0.163 J-3.012
X140.303 Y94.113 Z-4.183 I0.163 J3.012
X143.156 Y91.101 Z-4.99 I-0.163 J-3.012
X137.123 I-3.016
X143.048 Y91.899 I3.016
X143.156 Y91.101 I-2.909 J-0.797
G1 X143.159 Y90.874
X143.314 Y89.975
X143.368 Y89.835
X143.406 Y89.69
X143.429 Y89.542
X143.438 Y89.392
X143.435 Y89.233
X143.418 Y89.064
X143.385 Y88.886
X143.335 Y88.699
X143.266 Y88.506
X143.177 Y88.308
X143.068 Y88.108
X142.936 Y87.909
X142.782 Y87.712
X142.606 Y87.52
X142.408 Y87.337
X142.187 Y87.163
X141.946 Y87.003
X141.685 Y86.858
X141.406 Y86.732
X141.11 Y86.625
X140.799 Y86.541
X140.476 Y86.481
X140.143 Y86.446
X139.803 Y86.438
X139.458 Y86.457
X139.111 Y86.505
X138.765 Y86.581
X138.422 Y86.687
X138.086 Y86.82
X137.759 Y86.981
X137.443 Y87.17
X137.142 Y87.385
X136.857 Y87.624
X136.591 Y87.887
X136.346 Y88.172
X136.123 Y88.477
X135.925 Y88.799
X135.754 Y89.138
X135.609 Y89.49
X135.493 Y89.854
X135.406 Y90.226
X135.349 Y90.605
X135.323 Y90.988
X135.328 Y91.372
X135.363 Y91.755
X135.43 Y92.135
X135.526 Y92.508
X135.653 Y92.873
X135.808 Y93.226
X135.991 Y93.566
X136.201 Y93.891
X136.437 Y94.197
X136.696 Y94.484
X136.978 Y94.75
X137.28 Y94.991
X137.601 Y95.208
X137.939 Y95.399
X138.29 Y95.562
X138.654 Y95.696
X139.027 Y95.8
X139.407 Y95.874
X139.792 Y95.918
X140.18 Y95.93
X140.567 Y95.912
X140.952 Y95.862
X141.331 Y95.782
X141.703 Y95.671
X142.064 Y95.531
X142.413 Y95.362
X142.748 Y95.166
X143.066 Y94.944
X143.365 Y94.696
X143.643 Y94.426
X143.898 Y94.134
X144.13 Y93.823
X144.37 Y93.438
X144.775 Y92.657
X145.037 Y92.033
X145.214 Y91.495
X145.331 Y91.008
X145.404 Y90.544
X145.439 Y90.094
X145.437 Y89.658
X145.401 Y89.234
X145.332 Y88.819
X145.261 Y88.535
X145.199 Y88.343
X145.111 Y88.161
X145 Y87.992
X144.438 Y87.261
X144.278 Y87.054
X144.248 Y87.02
X144.037 Y86.846
X143.108 Y86.134
X143.057 Y86.098
X143.005 Y86.069
X142.887 Y86.018
X141.761 Y85.551
X141.658 Y85.512
X141.554 Y85.49
X140.207 Y85.313
X140.104 Y85.311
X139.897 Y85.336
X138.861 Y85.472
X138.653 Y85.504
X138.446 Y85.581
X137.298 Y86.057
X137.203 Y86.111
X136.996 Y86.269
X136.167 Y86.905
X136.084 Y86.97
X136.001 Y87.054
X135.205 Y88.09
X135.131 Y88.193
X135.079 Y88.297
X134.565 Y89.54
X134.535 Y89.644
X134.52 Y89.747
X134.357 Y90.99
X134.348 Y91.094
X134.355 Y91.197
X134.518 Y92.441
X134.533 Y92.544
X134.56 Y92.648
X134.644 Y92.855
X135.073 Y93.891
X135.131 Y94.009
X135.194 Y94.098
X135.989 Y95.134
X136.03 Y95.181
X136.078 Y95.228
X136.167 Y95.298
X137.034 Y95.963
X137.203 Y96.091
X137.28 Y96.136
X137.357 Y96.17
X138.446 Y96.621
X138.653 Y96.699
X138.861 Y96.73
X139.897 Y96.867
X140.104 Y96.892
X140.207 Y96.889
X141.554 Y96.713
X141.658 Y96.69
X141.761 Y96.651
X142.923 Y96.17
X143.005 Y96.134
X143.108 Y96.069
X144.056 Y95.341
X144.248 Y95.183
X144.291 Y95.134
X145.085 Y94.098
X145.157 Y93.995
X145.206 Y93.891
X145.698 Y92.702
X145.719 Y92.648
X145.747 Y92.544
X145.788 Y92.233
X145.925 Y91.197
X145.932 Y91.094
X145.923 Y90.99
X145.759 Y89.747
X145.744 Y89.644
X145.714 Y89.54
X145.2 Y88.297
X145.15 Y88.195
X145.074 Y88.09
X145 Y87.992
X144.958 Y87.957 Z-4.984
X144.918 Y87.923 Z-4.965
X144.882 Y87.892 Z-4.935
X144.852 Y87.867 Z-4.896
X144.829 Y87.848 Z-4.849
X144.813 Y87.839 Z-4.796
X144.808 Y87.836 Z-4.741
G0 Z5
X140.303 Y94.113
Z-1.855
G1 Z-2.49 F1219.2
G2 X139.976 Y88.09 Z-4.161 I-0.163 J-3.012
X140.303 Y94.113 Z-5.832 I0.163 J3.012
X139.976 Y88.09 Z-7.503 I-0.163 J-3.012
X140.303 Y94.113 Z-9.173 I0.163 J3.012
X143.156 Y91.101 Z-9.98 I-0.163 J-3.012
X137.123 I-3.016
X143.048 Y91.899 I3.016
X143.156 Y91.101 I-2.909 J-0.797
G1 X143.159 Y90.874
X143.314 Y89.975
X143.368 Y89.835
X143.406 Y89.69
X143.429 Y89.542
X143.438 Y89.392
X143.435 Y89.233
X143.418 Y89.064
X143.385 Y88.886
X143.335 Y88.699
X143.266 Y88.506
X143.177 Y88.308
X143.068 Y88.108
X142.936 Y87.909
X142.782 Y87.712
X142.606 Y87.52
X142.408 Y87.337
X142.187 Y87.163
X141.946 Y87.003
X141.685 Y86.858
X141.406 Y86.732
X141.11 Y86.625
X140.799 Y86.541
X140.476 Y86.481
X140.143 Y86.446
X139.803 Y86.438
X139.458 Y86.457
X139.111 Y86.505
X138.765 Y86.581
X138.422 Y86.687
X138.086 Y86.82
X137.759 Y86.981
X137.443 Y87.17
X137.142 Y87.385
X136.857 Y87.624
X136.591 Y87.887
X136.346 Y88.172
X136.123 Y88.477
X135.925 Y88.799
X135.754 Y89.138
X135.609 Y89.49
X135.493 Y89.854
X135.406 Y90.226
X135.349 Y90.605
X135.323 Y90.988
X135.328 Y91.372
X135.363 Y91.755
X135.43 Y92.135
X135.526 Y92.508
X135.653 Y92.873
X135.808 Y93.226
X135.991 Y93.566
X136.201 Y93.891
X136.437 Y94.197
X136.696 Y94.484
X136.978 Y94.75
X137.28 Y94.991
X137.601 Y95.208
X137.939 Y95.399
X138.29 Y95.562
X138.654 Y95.696
X139.027 Y95.8
X139.407 Y95.874
X139.792 Y95.918
X140.18 Y95.93
X140.567 Y95.912
X140.952 Y95.862
X141.331 Y95.782
X141.703 Y95.671
X142.064 Y95.531
X142.413 Y95.362
X142.748 Y95.166
X143.066 Y94.944
X143.365 Y94.696
X143.643 Y94.426
X143.898 Y94.134
X144.13 Y93.823
X144.37 Y93.438
X144.775 Y92.657
X145.037 Y92.033
X145.214 Y91.495
X145.331 Y91.008
X145.404 Y90.544
X145.439 Y90.094
X145.437 Y89.658
X145.401 Y89.234
X145.332 Y88.819
X145.261 Y88.535
X145.199 Y88.343
X145.111 Y88.161
X145 Y87.992
X144.438 Y87.261
X144.278 Y87.054
X144.248 Y87.02
X144.037 Y86.846
X143.108 Y86.134
X143.057 Y86.098
X143.005 Y86.069
X142.887 Y86.018
X141.761 Y85.551
X141.658 Y85.512
X141.554 Y85.49
X140.207 Y85.313
X140.104 Y85.311
X139.897 Y85.336
X138.861 Y85.472
X138.653 Y85.504
X138.446 Y85.581
X137.298 Y86.057
X137.203 Y86.111
X136.996 Y86.269
X136.167 Y86.905
X136.084 Y86.97
X136.001 Y87.054
X135.205 Y88.09
X135.131 Y88.193
X135.079 Y88.297
X134.565 Y89.54
X134.535 Y89.644
X134.52 Y89.747
X134.357 Y90.99
X134.348 Y91.094
X134.355 Y91.197
X134.518 Y92.441
X134.533 Y92.544
X134.56 Y92.648
X134.644 Y92.855
X135.073 Y93.891
X135.131 Y94.009
X135.194 Y94.098
X135.989 Y95.134
X136.03 Y95.181
X136.078 Y95.228
X136.167 Y95.298
X137.034 Y95.963
X137.203 Y96.091
X137.28 Y96.136
X137.357 Y96.17
X138.446 Y96.621
X138.653 Y96.699
X138.861 Y96.73
X139.897 Y96.867
X140.104 Y96.892
X140.207 Y96.889
X141.554 Y96.713
X141.658 Y96.69
X141.761 Y96.651
X142.923 Y96.17
X143.005 Y96.134
X143.108 Y96.069
X144.056 Y95.341
X144.248 Y95.183
X144.291 Y95.134
X145.085 Y94.098
X145.157 Y93.995
X145.206 Y93.891
X145.698 Y92.702
X145.719 Y92.648
X145.747 Y92.544
X145.788 Y92.233
X145.925 Y91.197
X145.932 Y91.094
X145.923 Y90.99
X145.759 Y89.747
X145.744 Y89.644
X145.714 Y89.54
X145.2 Y88.297
X145.15 Y88.195
X145.074 Y88.09
X145 Y87.992
X144.958 Y87.957 Z-9.974
X144.918 Y87.923 Z-9.955
X144.882 Y87.892 Z-9.925
X144.852 Y87.867 Z-9.886
X144.829 Y87.848 Z-9.839
X144.813 Y87.839 Z-9.786
X144.808 Y87.836 Z-9.731
G0 Z5
X140.303 Y94.113
Z-6.845
G1 Z-7.48 F1219.2
G2 X139.976 Y88.09 Z-9.151 I-0.163 J-3.012
X140.303 Y94.113 Z-10.822 I0.163 J3.012
X139.976 Y88.09 Z-12.493 I-0.163 J-3.012
X140.303 Y94.113 Z-14.163 I0.163 J3.012
X143.156 Y91.101 Z-14.97 I-0.163 J-3.012
X137.123 I-3.016
X143.048 Y91.899 I3.016
X143.156 Y91.101 I-2.909 J-0.797
G1 X143.159 Y90.874
X143.314 Y89.975
X143.368 Y89.835
X143.406 Y89.69
X143.429 Y89.542
X143.438 Y89.392
X143.435 Y89.233
X143.418 Y89.064
X143.385 Y88.886
X143.335 Y88.699
X143.266 Y88.506
X143.177 Y88.308
X143.068 Y88.108
X142.936 Y87.909
X142.782 Y87.712
X142.606 Y87.52
X142.408 Y87.337
X142.187 Y87.163
X141.946 Y87.003
X141.685 Y86.858
X141.406 Y86.732
X141.11 Y86.625
X140.799 Y86.541
X140.476 Y86.481
X140.143 Y86.446
X139.803 Y86.438
X139.458 Y86.457
X139.111 Y86.505
X138.765 Y86.581
X138.422 Y86.687
X138.086 Y86.82
X137.759 Y86.981
X137.443 Y87.17
X137.142 Y87.385
X136.857 Y87.624
X136.591 Y87.887
X136.346 Y88.172
X136.123 Y88.477
X135.925 Y88.799
X135.754 Y89.138
X135.609 Y89.49
X135.493 Y89.854
X135.406 Y90.226
X135.349 Y90.605
X135.323 Y90.988
X135.328 Y91.372
X135.363 Y91.755
X135.43 Y92.135
X135.526 Y92.508
X135.653 Y92.873
X135.808 Y93.226
X135.991 Y93.566
X136.201 Y93.891
X136.437 Y94.197
X136.696 Y94.484
X136.978 Y94.75
X137.28 Y94.991
X137.601 Y95.208
X137.939 Y95.399
X138.29 Y95.562
X138.654 Y95.696
X139.027 Y95.8
X139.407 Y95.874
X139.792 Y95.918
X140.18 Y95.93
X140.567 Y95.912
X140.952 Y95.862
X141.331 Y95.782
X141.703 Y95.671
X142.064 Y95.531
X142.413 Y95.362
X142.748 Y95.166
X143.066 Y94.944
X143.365 Y94.696
X143.643 Y94.426
X143.898 Y94.134
X144.13 Y93.823
X144.37 Y93.438
X144.775 Y92.657
X145.037 Y92.033
X145.214 Y91.495
X145.331 Y91.008
X145.404 Y90.544
X145.439 Y90.094
X145.437 Y89.658
X145.401 Y89.234
X145.332 Y88.819
X145.261 Y88.535
X145.199 Y88.343
X145.111 Y88.161
X145 Y87.992
X144.438 Y87.261
X144.278 Y87.054
X144.248 Y87.02
X144.037 Y86.846
X143.108 Y86.134
X143.057 Y86.098
X143.005 Y86.069
X142.887 Y86.018
X141.761 Y85.551
X141.658 Y85.512
X141.554 Y85.49
X140.207 Y85.313
X140.104 Y85.311
X139.897 Y85.336
X138.861 Y85.472
X138.653 Y85.504
X138.446 Y85.581
X137.298 Y86.057
X137.203 Y86.111
X136.996 Y86.269
X136.167 Y86.905
X136.084 Y86.97
X136.001 Y87.054
X135.205 Y88.09
X135.131 Y88.193
X135.079 Y88.297
X134.565 Y89.54
X134.535 Y89.644
X134.52 Y89.747
X134.357 Y90.99
X134.348 Y91.094
X134.355 Y91.197
X134.518 Y92.441
X134.533 Y92.544
X134.56 Y92.648
X134.644 Y92.855
X135.073 Y93.891
X135.131 Y94.009
X135.194 Y94.098
X135.989 Y95.134
X136.03 Y95.181
X136.078 Y95.228
X136.167 Y95.298
X137.034 Y95.963
X137.203 Y96.091
X137.28 Y96.136
X137.357 Y96.17
X138.446 Y96.621
X138.653 Y96.699
X138.861 Y96.73
X139.897 Y96.867
X140.104 Y96.892
X140.207 Y96.889
X141.554 Y96.713
X141.658 Y96.69
X141.761 Y96.651
X142.923 Y96.17
X143.005 Y96.134
X143.108 Y96.069
X144.056 Y95.341
X144.248 Y95.183
X144.291 Y95.134
X145.085 Y94.098
X145.157 Y93.995
X145.206 Y93.891
X145.698 Y92.702
X145.719 Y92.648
X145.747 Y92.544
X145.788 Y92.233
X145.925 Y91.197
X145.932 Y91.094
X145.923 Y90.99
X145.759 Y89.747
X145.744 Y89.644
X145.714 Y89.54
X145.2 Y88.297
X145.15 Y88.195
X145.074 Y88.09
X145 Y87.992
X144.958 Y87.957 Z-14.964
X144.918 Y87.923 Z-14.945
X144.882 Y87.892 Z-14.915
X144.852 Y87.867 Z-14.876
X144.829 Y87.848 Z-14.829
X144.813 Y87.839 Z-14.776
X144.808 Y87.836 Z-14.721
G0 Z5
X141.665 Y88.499
Z-11.835
G1 Z-12.47 F1219.2
G2 X138.614 Y93.703 Z-14.141 I-1.526 J2.602
X141.665 Y88.499 Z-15.812 I1.526 J-2.602
X138.614 Y93.703 Z-17.483 I-1.526 J2.602
X143.156 Y91.101 Z-18.6 I1.526 J-2.602
X137.123 I-3.016
X143.048 Y91.899 I3.016
X143.156 Y91.101 I-2.909 J-0.797
G1 X143.159 Y90.874
X143.314 Y89.975
X143.368 Y89.835
X143.406 Y89.69
X143.429 Y89.542
X143.438 Y89.392
X143.435 Y89.233
X143.418 Y89.064
X143.385 Y88.886
X143.335 Y88.699
X143.266 Y88.506
X143.177 Y88.308
X143.068 Y88.108
X142.936 Y87.909
X142.782 Y87.712
X142.606 Y87.52
X142.408 Y87.337
X142.187 Y87.163
X141.946 Y87.003
X141.685 Y86.858
X141.406 Y86.732
X141.11 Y86.625
X140.799 Y86.541
X140.476 Y86.481
X140.143 Y86.446
X139.803 Y86.438
X139.458 Y86.457
X139.111 Y86.505
X138.765 Y86.581
X138.422 Y86.687
X138.086 Y86.82
X137.759 Y86.981
X137.443 Y87.17
X137.142 Y87.385
X136.857 Y87.624
X136.591 Y87.887
X136.346 Y88.172
X136.123 Y88.477
X135.925 Y88.799
X135.754 Y89.138
X135.609 Y89.49
X135.493 Y89.854
X135.406 Y90.226
X135.349 Y90.605
X135.323 Y90.988
X135.328 Y91.372
X135.363 Y91.755
X135.43 Y92.135
X135.526 Y92.508
X135.653 Y92.873
X135.808 Y93.226
X135.991 Y93.566
X136.201 Y93.891
X136.437 Y94.197
X136.696 Y94.484
X136.978 Y94.75
X137.28 Y94.991
X137.601 Y95.208
X137.939 Y95.399
X138.29 Y95.562
X138.654 Y95.696
X139.027 Y95.8
X139.407 Y95.874
X139.792 Y95.918
X140.18 Y95.93
X140.567 Y95.912
X140.952 Y95.862
X141.331 Y95.782
X141.703 Y95.671
X142.064 Y95.531
X142.413 Y95.362
X142.748 Y95.166
X143.066 Y94.944
X143.365 Y94.696
X143.643 Y94.426
X143.898 Y94.134
X144.13 Y93.823
X144.37 Y93.438
X144.775 Y92.657
X145.037 Y92.033
X145.214 Y91.495
X145.331 Y91.008
X145.404 Y90.544
X145.439 Y90.094
X145.437 Y89.658
X145.401 Y89.234
X145.332 Y88.819
X145.261 Y88.535
X145.199 Y88.343
X145.111 Y88.161
X145 Y87.992
X144.438 Y87.261
X144.278 Y87.054
X144.248 Y87.02
X144.037 Y86.846
X143.108 Y86.134
X143.057 Y86.098
X143.005 Y86.069
X142.887 Y86.018
X141.761 Y85.551
X141.658 Y85.512
X141.554 Y85.49
X140.207 Y85.313
X140.104 Y85.311
X139.897 Y85.336
X138.861 Y85.472
X138.653 Y85.504
X138.446 Y85.581
X137.298 Y86.057
X137.203 Y86.111
X136.996 Y86.269
X136.167 Y86.905
X136.084 Y86.97
X136.001 Y87.054
X135.205 Y88.09
X135.131 Y88.193
X135.079 Y88.297
X134.565 Y89.54
X134.535 Y89.644
X134.52 Y89.747
X134.357 Y90.99
X134.348 Y91.094
X134.355 Y91.197
X134.518 Y92.441
X134.533 Y92.544
X134.56 Y92.648
X134.644 Y92.855
X135.073 Y93.891
X135.131 Y94.009
X135.194 Y94.098
X135.989 Y95.134
X136.03 Y95.181
X136.078 Y95.228
X136.167 Y95.298
X137.034 Y95.963
X137.203 Y96.091
X137.28 Y96.136
X137.357 Y96.17
X138.446 Y96.621
X138.653 Y96.699
X138.861 Y96.73
X139.897 Y96.867
X140.104 Y96.892
X140.207 Y96.889
X141.554 Y96.713
X141.658 Y96.69
X141.761 Y96.651
X142.923 Y96.17
X143.005 Y96.134
X143.108 Y96.069
X144.056 Y95.341
X144.248 Y95.183
X144.291 Y95.134
X145.085 Y94.098
X145.157 Y93.995
X145.206 Y93.891
X145.698 Y92.702
X145.719 Y92.648
X145.747 Y92.544
X145.788 Y92.233
X145.925 Y91.197
X145.932 Y91.094
X145.923 Y90.99
X145.759 Y89.747
X145.744 Y89.644
X145.714 Y89.54
X145.2 Y88.297
X145.15 Y88.195
X145.074 Y88.09
X145 Y87.992
X144.958 Y87.957 Z-18.594
X144.918 Y87.923 Z-18.575
X144.882 Y87.892 Z-18.545
X144.852 Y87.867 Z-18.506
X144.829 Y87.848 Z-18.459
X144.813 Y87.839 Z-18.406
X144.808 Y87.836 Z-18.351
G0 Z5
X140.303 Y40.613
Z3.135
G1 Z2.5 F1219.2
G2 X139.977 Y34.589 Z0.829 I-0.163 J-3.012
X140.303 Y40.613 Z-0.842 I0.163 J3.012
X139.977 Y34.589 Z-2.513 I-0.163 J-3.012
X140.303 Y40.613 Z-4.183 I0.163 J3.012
X143.156 Y37.601 Z-4.99 I-0.163 J-3.012
X137.124 I-3.016
X143.049 Y38.399 I3.016
X143.156 Y37.601 I-2.909 J-0.797
G1 X143.16 Y37.373
X143.315 Y36.475
X143.369 Y36.335
X143.406 Y36.19
X143.429 Y36.041
X143.438 Y35.892
X143.435 Y35.733
X143.418 Y35.564
X143.385 Y35.385
X143.335 Y35.199
X143.267 Y35.005
X143.178 Y34.808
X143.068 Y34.608
X142.937 Y34.409
X142.783 Y34.212
X142.607 Y34.02
X142.408 Y33.836
X142.188 Y33.663
X141.947 Y33.503
X141.685 Y33.358
X141.406 Y33.232
X141.11 Y33.125
X140.8 Y33.041
X140.477 Y32.981
X140.144 Y32.946
X139.803 Y32.938
X139.458 Y32.957
X139.112 Y33.005
X138.765 Y33.081
X138.423 Y33.186
X138.087 Y33.32
X137.759 Y33.481
X137.444 Y33.67
X137.142 Y33.884
X136.858 Y34.124
X136.592 Y34.387
X136.346 Y34.672
X136.124 Y34.976
X135.926 Y35.299
X135.754 Y35.638
X135.609 Y35.99
X135.493 Y36.354
X135.407 Y36.726
X135.35 Y37.105
X135.324 Y37.488
X135.328 Y37.872
X135.364 Y38.255
X135.43 Y38.635
X135.527 Y39.008
X135.653 Y39.372
X135.808 Y39.726
X135.992 Y40.066
X136.202 Y40.39
X136.437 Y40.697
X136.697 Y40.984
X136.979 Y41.249
X137.281 Y41.491
X137.602 Y41.708
X137.939 Y41.899
X138.29 Y42.061
X138.654 Y42.196
X139.027 Y42.3
X139.408 Y42.374
X139.793 Y42.418
X140.18 Y42.43
X140.568 Y42.412
X140.952 Y42.362
X141.331 Y42.281
X141.703 Y42.171
X142.065 Y42.031
X142.414 Y41.862
X142.749 Y41.666
X143.066 Y41.443
X143.365 Y41.196
X143.643 Y40.926
X143.899 Y40.634
X144.13 Y40.323
X144.37 Y39.938
X144.775 Y39.157
X145.037 Y38.532
X145.214 Y37.995
X145.332 Y37.508
X145.405 Y37.044
X145.439 Y36.594
X145.438 Y36.158
X145.402 Y35.733
X145.333 Y35.319
X145.262 Y35.036
X145.2 Y34.844
X145.112 Y34.662
X145 Y34.493
X144.313 Y33.598
X144.248 Y33.519
X144.095 Y33.391
X143.108 Y32.634
X143.005 Y32.569
X142.991 Y32.562
X142.798 Y32.48
X141.761 Y32.051
X141.658 Y32.012
X141.554 Y31.99
X140.207 Y31.813
X140.104 Y31.811
X139.897 Y31.836
X138.861 Y31.972
X138.653 Y32.004
X138.446 Y32.081
X137.41 Y32.51
X137.289 Y32.562
X137.203 Y32.611
X136.995 Y32.769
X136.167 Y33.405
X136.067 Y33.485
X135.967 Y33.598
X135.171 Y34.634
X135.131 Y34.692
X135.061 Y34.841
X134.632 Y35.877
X134.55 Y36.084
X134.514 Y36.291
X134.352 Y37.534
X134.349 Y37.638
X134.361 Y37.742
X134.524 Y38.985
X134.542 Y39.088
X134.577 Y39.192
X135.092 Y40.435
X135.131 Y40.509
X135.228 Y40.642
X135.96 Y41.596
X136.028 Y41.678
X136.097 Y41.744
X137.091 Y42.507
X137.203 Y42.591
X137.255 Y42.623
X137.307 Y42.649
X138.464 Y43.129
X138.653 Y43.199
X138.861 Y43.23
X139.897 Y43.367
X140.104 Y43.392
X140.207 Y43.39
X141.554 Y43.212
X141.658 Y43.19
X141.761 Y43.151
X142.816 Y42.714
X143.005 Y42.634
X143.097 Y42.577
X143.459 Y42.3
X144.041 Y41.853
X144.248 Y41.683
X144.416 Y41.471
X145.077 Y40.609
X145.14 Y40.522
X145.187 Y40.435
X145.531 Y39.606
X145.702 Y39.192
X145.737 Y39.088
X145.755 Y38.985
X145.919 Y37.742
X145.931 Y37.638
X145.928 Y37.534
X145.765 Y36.291
X145.729 Y36.084
X145.698 Y36.001
X145.218 Y34.841
X145.172 Y34.737
X145.108 Y34.634
X145 Y34.493
X144.958 Y34.458 Z-4.984
X144.918 Y34.424 Z-4.965
X144.883 Y34.393 Z-4.935
X144.853 Y34.368 Z-4.896
X144.83 Y34.349 Z-4.849
X144.814 Y34.34 Z-4.796
X144.808 Y34.337 Z-4.741
G0 Z5
X140.303 Y40.613
Z-1.855
G1 Z-2.49 F1219.2
G2 X139.977 Y34.589 Z-4.161 I-0.163 J-3.012
X140.303 Y40.613 Z-5.832 I0.163 J3.012
X139.977 Y34.589 Z-7.503 I-0.163 J-3.012
X140.303 Y40.613 Z-9.173 I0.163 J3.012
X143.156 Y37.601 Z-9.98 I-0.163 J-3.012
X137.124 I-3.016
X143.049 Y38.399 I3.016
X143.156 Y37.601 I-2.909 J-0.797
G1 X143.16 Y37.373
X143.315 Y36.475
X143.369 Y36.335
X143.406 Y36.19
X143.429 Y36.041
X143.438 Y35.892
X143.435 Y35.733
X143.418 Y35.564
X143.385 Y35.385
X143.335 Y35.199
X143.267 Y35.005
X143.178 Y34.808
X143.068 Y34.608
X142.937 Y34.409
X142.783 Y34.212
X142.607 Y34.02
X142.408 Y33.836
X142.188 Y33.663
X141.947 Y33.503
X141.685 Y33.358
X141.406 Y33.232
X141.11 Y33.125
X140.8 Y33.041
X140.477 Y32.981
X140.144 Y32.946
X139.803 Y32.938
X139.458 Y32.957
X139.112 Y33.005
X138.765 Y33.081
X138.423 Y33.186
X138.087 Y33.32
X137.759 Y33.481
X137.444 Y33.67
X137.142 Y33.884
X136.858 Y34.124
X136.592 Y34.387
X136.346 Y34.672
X136.124 Y34.976
X135.926 Y35.299
X135.754 Y35.638
X135.609 Y35.99
X135.493 Y36.354
X135.407 Y36.726
X135.35 Y37.105
X135.324 Y37.488
X135.328 Y37.872
X135.364 Y38.255
X135.43 Y38.635
X135.527 Y39.008
X135.653 Y39.372
X135.808 Y39.726
X135.992 Y40.066
X136.202 Y40.39
X136.437 Y40.697
X136.697 Y40.984
X136.979 Y41.249
X137.281 Y41.491
X137.602 Y41.708
X137.939 Y41.899
X138.29 Y42.061
X138.654 Y42.196
X139.027 Y42.3
X139.408 Y42.374
X139.793 Y42.418
X140.18 Y42.43
X140.568 Y42.412
X140.952 Y42.362
X141.331 Y42.281
X141.703 Y42.171
X142.065 Y42.031
X142.414 Y41.862
X142.749 Y41.666
X143.066 Y41.443
X143.365 Y41.196
X143.643 Y40.926
X143.899 Y40.634
X144.13 Y40.323
X144.37 Y39.938
X144.775 Y39.157
X145.037 Y38.532
X145.214 Y37.995
X145.332 Y37.508
X145.405 Y37.044
X145.439 Y36.594
X145.438 Y36.158
X145.402 Y35.733
X145.333 Y35.319
X145.262 Y35.036
X145.2 Y34.844
X145.112 Y34.662
X145 Y34.493
X144.313 Y33.598
X144.248 Y33.519
X144.095 Y33.391
X143.108 Y32.634
X143.005 Y32.569
X142.991 Y32.562
X142.798 Y32.48
X141.761 Y32.051
X141.658 Y32.012
X141.554 Y31.99
X140.207 Y31.813
X140.104 Y31.811
X139.897 Y31.836
X138.861 Y31.972
X138.653 Y32.004
X138.446 Y32.081
X137.41 Y32.51
X137.289 Y32.562
X137.203 Y32.611
X136.995 Y32.769
X136.167 Y33.405
X136.067 Y33.485
X135.967 Y33.598
X135.171 Y34.634
X135.131 Y34.692
X135.061 Y34.841
X134.632 Y35.877
X134.55 Y36.084
X134.514 Y36.291
X134.352 Y37.534
X134.349 Y37.638
X134.361 Y37.742
X134.524 Y38.985
X134.542 Y39.088
X134.577 Y39.192
X135.092 Y40.435
X135.131 Y40.509
X135.228 Y40.642
X135.96 Y41.596
X136.028 Y41.678
X136.097 Y41.744
X137.091 Y42.507
X137.203 Y42.591
X137.255 Y42.623
X137.307 Y42.649
X138.464 Y43.129
X138.653 Y43.199
X138.861 Y43.23
X139.897 Y43.367
X140.104 Y43.392
X140.207 Y43.39
X141.554 Y43.212
X141.658 Y43.19
X141.761 Y43.151
X142.816 Y42.714
X143.005 Y42.634
X143.097 Y42.577
X143.459 Y42.3
X144.041 Y41.853
X144.248 Y41.683
X144.416 Y41.471
X145.077 Y40.609
X145.14 Y40.522
X145.187 Y40.435
X145.531 Y39.606
X145.702 Y39.192
X145.737 Y39.088
X145.755 Y38.985
X145.919 Y37.742
X145.931 Y37.638
X145.928 Y37.534
X145.765 Y36.291
X145.729 Y36.084
X145.698 Y36.001
X145.218 Y34.841
X145.172 Y34.737
X145.108 Y34.634
X145 Y34.493
X144.958 Y34.458 Z-9.974
X144.918 Y34.424 Z-9.955
X144.883 Y34.393 Z-9.925
X144.853 Y34.368 Z-9.886
X144.83 Y34.349 Z-9.839
X144.814 Y34.34 Z-9.786
X144.808 Y34.337 Z-9.731
G0 Z5
X140.303 Y40.613
Z-6.845
G1 Z-7.48 F1219.2
G2 X139.977 Y34.589 Z-9.151 I-0.163 J-3.012
X140.303 Y40.613 Z-10.822 I0.163 J3.012
X139.977 Y34.589 Z-12.493 I-0.163 J-3.012
X140.303 Y40.613 Z-14.163 I0.163 J3.012
X143.156 Y37.601 Z-14.97 I-0.163 J-3.012
X137.124 I-3.016
X143.049 Y38.399 I3.016
X143.156 Y37.601 I-2.909 J-0.797
G1 X143.16 Y37.373
X143.315 Y36.475
X143.369 Y36.335
X143.406 Y36.19
X143.429 Y36.041
X143.438 Y35.892
X143.435 Y35.733
X143.418 Y35.564
X143.385 Y35.385
X143.335 Y35.199
X143.267 Y35.005
X143.178 Y34.808
X143.068 Y34.608
X142.937 Y34.409
X142.783 Y34.212
X142.607 Y34.02
X142.408 Y33.836
X142.188 Y33.663
X141.947 Y33.503
X141.685 Y33.358
X141.406 Y33.232
X141.11 Y33.125
X140.8 Y33.041
X140.477 Y32.981
X140.144 Y32.946
X139.803 Y32.938
X139.458 Y32.957
X139.112 Y33.005
X138.765 Y33.081
X138.423 Y33.186
X138.087 Y33.32
X137.759 Y33.481
X137.444 Y33.67
X137.142 Y33.884
X136.858 Y34.124
X136.592 Y34.387
X136.346 Y34.672
X136.124 Y34.976
X135.926 Y35.299
X135.754 Y35.638
X135.609 Y35.99
X135.493 Y36.354
X135.407 Y36.726
X135.35 Y37.105
X135.324 Y37.488
X135.328 Y37.872
X135.364 Y38.255
X135.43 Y38.635
X135.527 Y39.008
X135.653 Y39.372
X135.808 Y39.726
X135.992 Y40.066
X136.202 Y40.39
X136.437 Y40.697
X136.697 Y40.984
X136.979 Y41.249
X137.281 Y41.491
X137.602 Y41.708
X137.939 Y41.899
X138.29 Y42.061
X138.654 Y42.196
X139.027 Y42.3
X139.408 Y42.374
X139.793 Y42.418
X140.18 Y42.43
X140.568 Y42.412
X140.952 Y42.362
X141.331 Y42.281
X141.703 Y42.171
X142.065 Y42.031
X142.414 Y41.862
X142.749 Y41.666
X143.066 Y41.443
X143.365 Y41.196
X143.643 Y40.926
X143.899 Y40.634
X144.13 Y40.323
X144.37 Y39.938
X144.775 Y39.157
X145.037 Y38.532
X145.214 Y37.995
X145.332 Y37.508
X145.405 Y37.044
X145.439 Y36.594
X145.438 Y36.158
X145.402 Y35.733
X145.333 Y35.319
X145.262 Y35.036
X145.2 Y34.844
X145.112 Y34.662
X145 Y34.493
X144.313 Y33.598
X144.248 Y33.519
X144.095 Y33.391
X143.108 Y32.634
X143.005 Y32.569
X142.991 Y32.562
X142.798 Y32.48
X141.761 Y32.051
X141.658 Y32.012
X141.554 Y31.99
X140.207 Y31.813
X140.104 Y31.811
X139.897 Y31.836
X138.861 Y31.972
X138.653 Y32.004
X138.446 Y32.081
X137.41 Y32.51
X137.289 Y32.562
X137.203 Y32.611
X136.995 Y32.769
X136.167 Y33.405
X136.067 Y33.485
X135.967 Y33.598
X135.171 Y34.634
X135.131 Y34.692
X135.061 Y34.841
X134.632 Y35.877
X134.55 Y36.084
X134.514 Y36.291
X134.352 Y37.534
X134.349 Y37.638
X134.361 Y37.742
X134.524 Y38.985
X134.542 Y39.088
X134.577 Y39.192
X135.092 Y40.435
X135.131 Y40.509
X135.228 Y40.642
X135.96 Y41.596
X136.028 Y41.678
X136.097 Y41.744
X137.091 Y42.507
X137.203 Y42.591
X137.255 Y42.623
X137.307 Y42.649
X138.464 Y43.129
X138.653 Y43.199
X138.861 Y43.23
X139.897 Y43.367
X140.104 Y43.392
X140.207 Y43.39
X141.554 Y43.212
X141.658 Y43.19
X141.761 Y43.151
X142.816 Y42.714
X143.005 Y42.634
X143.097 Y42.577
X143.459 Y42.3
X144.041 Y41.853
X144.248 Y41.683
X144.416 Y41.471
X145.077 Y40.609
X145.14 Y40.522
X145.187 Y40.435
X145.531 Y39.606
X145.702 Y39.192
X145.737 Y39.088
X145.755 Y38.985
X145.919 Y37.742
X145.931 Y37.638
X145.928 Y37.534
X145.765 Y36.291
X145.729 Y36.084
X145.698 Y36.001
X145.218 Y34.841
X145.172 Y34.737
X145.108 Y34.634
X145 Y34.493
X144.958 Y34.458 Z-14.964
X144.918 Y34.424 Z-14.945
X144.883 Y34.393 Z-14.915
X144.853 Y34.368 Z-14.876
X144.83 Y34.349 Z-14.829
X144.814 Y34.34 Z-14.776
X144.808 Y34.337 Z-14.721
G0 Z5
X141.665 Y34.999
Z-11.835
G1 Z-12.47 F1219.2
G2 X137.758 Y35.751 Z-13.236 I-1.526 J2.602
X142.522 Y39.451 Z-14.907 I2.382 J1.85
X137.758 Y35.751 Z-16.578 I-2.382 J-1.85
X142.522 Y39.451 Z-18.249 I2.382 J1.85
X143.156 Y37.601 Z-18.6 I-2.382 J-1.85
X137.124 I-3.016
X143.049 Y38.399 I3.016
X143.156 Y37.601 I-2.909 J-0.797
G1 X143.16 Y37.373
X143.315 Y36.475
X143.369 Y36.335
X143.406 Y36.19
X143.429 Y36.041
X143.438 Y35.892
X143.435 Y35.733
X143.418 Y35.564
X143.385 Y35.385
X143.335 Y35.199
X143.267 Y35.005
X143.178 Y34.808
X143.068 Y34.608
X142.937 Y34.409
X142.783 Y34.212
X142.607 Y34.02
X142.408 Y33.836
X142.188 Y33.663
X141.947 Y33.503
X141.685 Y33.358
X141.406 Y33.232
X141.11 Y33.125
X140.8 Y33.041
X140.477 Y32.981
X140.144 Y32.946
X139.803 Y32.938
X139.458 Y32.957
X139.112 Y33.005
X138.765 Y33.081
X138.423 Y33.186
X138.087 Y33.32
X137.759 Y33.481
X137.444 Y33.67
X137.142 Y33.884
X136.858 Y34.124
X136.592 Y34.387
X136.346 Y34.672
X136.124 Y34.976
X135.926 Y35.299
X135.754 Y35.638
X135.609 Y35.99
X135.493 Y36.354
X135.407 Y36.726
X135.35 Y37.105
X135.324 Y37.488
X135.328 Y37.872
X135.364 Y38.255
X135.43 Y38.635
X135.527 Y39.008
X135.653 Y39.372
X135.808 Y39.726
X135.992 Y40.066
X136.202 Y40.39
X136.437 Y40.697
X136.697 Y40.984
X136.979 Y41.249
X137.281 Y41.491
X137.602 Y41.708
X137.939 Y41.899
X138.29 Y42.061
X138.654 Y42.196
X139.027 Y42.3
X139.408 Y42.374
X139.793 Y42.418
X140.18 Y42.43
X140.568 Y42.412
X140.952 Y42.362
X141.331 Y42.281
X141.703 Y42.171
X142.065 Y42.031
X142.414 Y41.862
X142.749 Y41.666
X143.066 Y41.443
X143.365 Y41.196
X143.643 Y40.926
X143.899 Y40.634
X144.13 Y40.323
X144.37 Y39.938
X144.775 Y39.157
X145.037 Y38.532
X145.214 Y37.995
X145.332 Y37.508
X145.405 Y37.044
X145.439 Y36.594
X145.438 Y36.158
X145.402 Y35.733
X145.333 Y35.319
X145.262 Y35.036
X145.2 Y34.844
X145.112 Y34.662
X145 Y34.493
X144.313 Y33.598
X144.248 Y33.519
X144.095 Y33.391
X143.108 Y32.634
X143.005 Y32.569
X142.991 Y32.562
X142.798 Y32.48
X141.761 Y32.051
X141.658 Y32.012
X141.554 Y31.99
X140.207 Y31.813
X140.104 Y31.811
X139.897 Y31.836
X138.861 Y31.972
X138.653 Y32.004
X138.446 Y32.081
X137.41 Y32.51
X137.289 Y32.562
X137.203 Y32.611
X136.995 Y32.769
X136.167 Y33.405
X136.067 Y33.485
X135.967 Y33.598
X135.171 Y34.634
X135.131 Y34.692
X135.061 Y34.841
X134.632 Y35.877
X134.55 Y36.084
X134.514 Y36.291
X134.352 Y37.534
X134.349 Y37.638
X134.361 Y37.742
X134.524 Y38.985
X134.542 Y39.088
X134.577 Y39.192
X135.092 Y40.435
X135.131 Y40.509
X135.228 Y40.642
X135.96 Y41.596
X136.028 Y41.678
X136.097 Y41.744
X137.091 Y42.507
X137.203 Y42.591
X137.255 Y42.623
X137.307 Y42.649
X138.464 Y43.129
X138.653 Y43.199
X138.861 Y43.23
X139.897 Y43.367
X140.104 Y43.392
X140.207 Y43.39
X141.554 Y43.212
X141.658 Y43.19
X141.761 Y43.151
X142.816 Y42.714
X143.005 Y42.634
X143.097 Y42.577
X143.459 Y42.3
X144.041 Y41.853
X144.248 Y41.683
X144.416 Y41.471
X145.077 Y40.609
X145.14 Y40.522
X145.187 Y40.435
X145.531 Y39.606
X145.702 Y39.192
X145.737 Y39.088
X145.755 Y38.985
X145.919 Y37.742
X145.931 Y37.638
X145.928 Y37.534
X145.765 Y36.291
X145.729 Y36.084
X145.698 Y36.001
X145.218 Y34.841
X145.172 Y34.737
X145.108 Y34.634
X145 Y34.493
X144.958 Y34.458 Z-18.594
X144.918 Y34.424 Z-18.575
X144.883 Y34.393 Z-18.545
X144.853 Y34.368 Z-18.506
X144.83 Y34.349 Z-18.459
X144.814 Y34.34 Z-18.406
X144.808 Y34.337 Z-18.351
G0 Z5
X288.59 Y40.613
Z3.135
G1 Z2.5 F1219.2
G2 X288.264 Y34.589 Z0.829 I-0.163 J-3.012
X288.59 Y40.613 Z-0.842 I0.163 J3.012
X288.264 Y34.589 Z-2.513 I-0.163 J-3.012
X288.445 Y40.617 Z-4.158 I0.163 J3.012
X291.443 Y37.601 Z-4.99 I-0.018 J-3.016
X285.411 I-3.016
X291.336 Y38.398 I3.016
X291.443 Y37.601 I-2.909 J-0.797
G1 X291.447 Y37.373
X291.602 Y36.474
X291.656 Y36.334
X291.694 Y36.189
X291.716 Y36.041
X291.726 Y35.891
X291.722 Y35.733
X291.705 Y35.564
X291.672 Y35.385
X291.622 Y35.198
X291.554 Y35.005
X291.465 Y34.807
X291.355 Y34.608
X291.224 Y34.408
X291.07 Y34.211
X290.894 Y34.02
X290.695 Y33.836
X290.475 Y33.663
X290.234 Y33.502
X289.973 Y33.358
X289.693 Y33.231
X289.397 Y33.125
X289.087 Y33.04
X288.764 Y32.98
X288.431 Y32.945
X288.091 Y32.937
X287.746 Y32.957
X287.399 Y33.004
X287.053 Y33.081
X286.71 Y33.186
X286.374 Y33.319
X286.047 Y33.481
X285.731 Y33.669
X285.43 Y33.884
X285.145 Y34.123
X284.879 Y34.386
X284.634 Y34.671
X284.411 Y34.976
X284.213 Y35.299
X284.041 Y35.637
X283.897 Y35.99
X283.78 Y36.353
X283.694 Y36.726
X283.637 Y37.105
X283.611 Y37.487
X283.616 Y37.872
X283.651 Y38.255
X283.717 Y38.634
X283.814 Y39.007
X283.94 Y39.372
X284.096 Y39.725
X284.279 Y40.066
X284.489 Y40.39
X284.724 Y40.697
X284.984 Y40.984
X285.266 Y41.249
X285.568 Y41.491
X285.889 Y41.708
X286.226 Y41.898
X286.578 Y42.061
X286.941 Y42.195
X287.314 Y42.3
X287.695 Y42.374
X288.08 Y42.417
X288.467 Y42.43
X288.855 Y42.411
X289.239 Y42.361
X289.619 Y42.281
X289.99 Y42.17
X290.352 Y42.03
X290.701 Y41.862
X291.036 Y41.665
X291.353 Y41.443
X291.652 Y41.196
X291.93 Y40.925
X292.186 Y40.634
X292.417 Y40.322
X292.658 Y39.937
X293.062 Y39.156
X293.325 Y38.532
X293.501 Y37.994
X293.619 Y37.508
X293.692 Y37.043
X293.727 Y36.593
X293.725 Y36.157
X293.689 Y35.733
X293.62 Y35.318
X293.55 Y35.037
X293.487 Y34.844
X293.4 Y34.663
X293.288 Y34.494
X292.6 Y33.598
X292.555 Y33.541
X292.5 Y33.484
X292.382 Y33.391
X291.571 Y32.768
X291.364 Y32.611
X291.276 Y32.562
X291.156 Y32.51
X290.12 Y32.081
X289.913 Y32.003
X289.706 Y31.972
X288.67 Y31.836
X288.463 Y31.811
X288.359 Y31.813
X287.012 Y31.99
X286.909 Y32.013
X286.805 Y32.052
X285.769 Y32.481
X285.576 Y32.562
X285.562 Y32.569
X285.51 Y32.598
X285.458 Y32.634
X284.472 Y33.391
X284.319 Y33.521
X284.254 Y33.598
X283.459 Y34.634
X283.423 Y34.686
X283.394 Y34.737
X283.349 Y34.841
X282.868 Y36.002
X282.838 Y36.084
X282.802 Y36.291
X282.638 Y37.534
X282.636 Y37.638
X282.648 Y37.742
X282.812 Y38.985
X282.83 Y39.088
X282.865 Y39.192
X283.38 Y40.435
X283.428 Y40.522
X283.49 Y40.609
X284.151 Y41.471
X284.314 Y41.678
X284.319 Y41.683
X284.526 Y41.853
X285.378 Y42.507
X285.562 Y42.633
X285.769 Y42.722
X286.805 Y43.151
X286.909 Y43.191
X287.012 Y43.213
X288.359 Y43.39
X288.463 Y43.392
X288.67 Y43.367
X289.706 Y43.231
X289.913 Y43.199
X290.104 Y43.129
X291.26 Y42.649
X291.312 Y42.624
X291.364 Y42.591
X291.476 Y42.507
X292.4 Y41.798
X292.539 Y41.678
X292.607 Y41.596
X293.339 Y40.642
X293.436 Y40.51
X293.474 Y40.435
X293.99 Y39.192
X294.025 Y39.088
X294.043 Y38.985
X294.206 Y37.742
X294.218 Y37.638
X294.216 Y37.534
X294.053 Y36.291
X294.017 Y36.084
X293.935 Y35.877
X293.505 Y34.841
X293.436 Y34.695
X293.395 Y34.634
X293.288 Y34.494
X293.246 Y34.458 Z-4.984
X293.206 Y34.425 Z-4.965
X293.17 Y34.394 Z-4.935
X293.14 Y34.369 Z-4.896
X293.118 Y34.35 Z-4.849
X293.102 Y34.34 Z-4.796
X293.096 Y34.337 Z-4.741
G0 Z5
X288.59 Y40.613
Z-1.855
G1 Z-2.49 F1219.2
G2 X288.264 Y34.589 Z-4.161 I-0.163 J-3.012
X288.59 Y40.613 Z-5.832 I0.163 J3.012
X288.264 Y34.589 Z-7.503 I-0.163 J-3.012
X288.445 Y40.617 Z-9.148 I0.163 J3.012
X291.443 Y37.601 Z-9.98 I-0.018 J-3.016
X285.411 I-3.016
X291.336 Y38.398 I3.016
X291.443 Y37.601 I-2.909 J-0.797
G1 X291.447 Y37.373
X291.602 Y36.474
X291.656 Y36.334
X291.694 Y36.189
X291.716 Y36.041
X291.726 Y35.891
X291.722 Y35.733
X291.705 Y35.564
X291.672 Y35.385
X291.622 Y35.198
X291.554 Y35.005
X291.465 Y34.807
X291.355 Y34.608
X291.224 Y34.408
X291.07 Y34.211
X290.894 Y34.02
X290.695 Y33.836
X290.475 Y33.663
X290.234 Y33.502
X289.973 Y33.358
X289.693 Y33.231
X289.397 Y33.125
X289.087 Y33.04
X288.764 Y32.98
X288.431 Y32.945
X288.091 Y32.937
X287.746 Y32.957
X287.399 Y33.004
X287.053 Y33.081
X286.71 Y33.186
X286.374 Y33.319
X286.047 Y33.481
X285.731 Y33.669
X285.43 Y33.884
X285.145 Y34.123
X284.879 Y34.386
X284.634 Y34.671
X284.411 Y34.976
X284.213 Y35.299
X284.041 Y35.637
X283.897 Y35.99
X283.78 Y36.353
X283.694 Y36.726
X283.637 Y37.105
X283.611 Y37.487
X283.616 Y37.872
X283.651 Y38.255
X283.717 Y38.634
X283.814 Y39.007
X283.94 Y39.372
X284.096 Y39.725
X284.279 Y40.066
X284.489 Y40.39
X284.724 Y40.697
X284.984 Y40.984
X285.266 Y41.249
X285.568 Y41.491
X285.889 Y41.708
X286.226 Y41.898
X286.578 Y42.061
X286.941 Y42.195
X287.314 Y42.3
X287.695 Y42.374
X288.08 Y42.417
X288.467 Y42.43
X288.855 Y42.411
X289.239 Y42.361
X289.619 Y42.281
X289.99 Y42.17
X290.352 Y42.03
X290.701 Y41.862
X291.036 Y41.665
X291.353 Y41.443
X291.652 Y41.196
X291.93 Y40.925
X292.186 Y40.634
X292.417 Y40.322
X292.658 Y39.937
X293.062 Y39.156
X293.325 Y38.532
X293.501 Y37.994
X293.619 Y37.508
X293.692 Y37.043
X293.727 Y36.593
X293.725 Y36.157
X293.689 Y35.733
X293.62 Y35.318
X293.55 Y35.037
X293.487 Y34.844
X293.4 Y34.663
X293.288 Y34.494
X292.6 Y33.598
X292.555 Y33.541
X292.5 Y33.484
X292.382 Y33.391
X291.571 Y32.768
X291.364 Y32.611
X291.276 Y32.562
X291.156 Y32.51
X290.12 Y32.081
X289.913 Y32.003
X289.706 Y31.972
X288.67 Y31.836
X288.463 Y31.811
X288.359 Y31.813
X287.012 Y31.99
X286.909 Y32.013
X286.805 Y32.052
X285.769 Y32.481
X285.576 Y32.562
X285.562 Y32.569
X285.51 Y32.598
X285.458 Y32.634
X284.472 Y33.391
X284.319 Y33.521
X284.254 Y33.598
X283.459 Y34.634
X283.423 Y34.686
X283.394 Y34.737
X283.349 Y34.841
X282.868 Y36.002
X282.838 Y36.084
X282.802 Y36.291
X282.638 Y37.534
X282.636 Y37.638
X282.648 Y37.742
X282.812 Y38.985
X282.83 Y39.088
X282.865 Y39.192
X283.38 Y40.435
X283.428 Y40.522
X283.49 Y40.609
X284.151 Y41.471
X284.314 Y41.678
X284.319 Y41.683
X284.526 Y41.853
X285.378 Y42.507
X285.562 Y42.633
X285.769 Y42.722
X286.805 Y43.151
X286.909 Y43.191
X287.012 Y43.213
X288.359 Y43.39
X288.463 Y43.392
X288.67 Y43.367
X289.706 Y43.231
X289.913 Y43.199
X290.104 Y43.129
X291.26 Y42.649
X291.312 Y42.624
X291.364 Y42.591
X291.476 Y42.507
X292.4 Y41.798
X292.539 Y41.678
X292.607 Y41.596
X293.339 Y40.642
X293.436 Y40.51
X293.474 Y40.435
X293.99 Y39.192
X294.025 Y39.088
X294.043 Y38.985
X294.206 Y37.742
X294.218 Y37.638
X294.216 Y37.534
X294.053 Y36.291
X294.017 Y36.084
X293.935 Y35.877
X293.505 Y34.841
X293.436 Y34.695
X293.395 Y34.634
X293.288 Y34.494
X293.246 Y34.458 Z-9.974
X293.206 Y34.425 Z-9.955
X293.17 Y34.394 Z-9.925
X293.14 Y34.369 Z-9.886
X293.118 Y34.35 Z-9.839
X293.102 Y34.34 Z-9.786
X293.096 Y34.337 Z-9.731
G0 Z5
X288.59 Y40.613
Z-6.845
G1 Z-7.48 F1219.2
G2 X288.264 Y34.589 Z-9.151 I-0.163 J-3.012
X288.59 Y40.613 Z-10.822 I0.163 J3.012
X288.264 Y34.589 Z-12.493 I-0.163 J-3.012
X288.445 Y40.617 Z-14.138 I0.163 J3.012
X291.443 Y37.601 Z-14.97 I-0.018 J-3.016
X285.411 I-3.016
X291.336 Y38.398 I3.016
X291.443 Y37.601 I-2.909 J-0.797
G1 X291.447 Y37.373
X291.602 Y36.474
X291.656 Y36.334
X291.694 Y36.189
X291.716 Y36.041
X291.726 Y35.891
X291.722 Y35.733
X291.705 Y35.564
X291.672 Y35.385
X291.622 Y35.198
X291.554 Y35.005
X291.465 Y34.807
X291.355 Y34.608
X291.224 Y34.408
X291.07 Y34.211
X290.894 Y34.02
X290.695 Y33.836
X290.475 Y33.663
X290.234 Y33.502
X289.973 Y33.358
X289.693 Y33.231
X289.397 Y33.125
X289.087 Y33.04
X288.764 Y32.98
X288.431 Y32.945
X288.091 Y32.937
X287.746 Y32.957
X287.399 Y33.004
X287.053 Y33.081
X286.71 Y33.186
X286.374 Y33.319
X286.047 Y33.481
X285.731 Y33.669
X285.43 Y33.884
X285.145 Y34.123
X284.879 Y34.386
X284.634 Y34.671
X284.411 Y34.976
X284.213 Y35.299
X284.041 Y35.637
X283.897 Y35.99
X283.78 Y36.353
X283.694 Y36.726
X283.637 Y37.105
X283.611 Y37.487
X283.616 Y37.872
X283.651 Y38.255
X283.717 Y38.634
X283.814 Y39.007
X283.94 Y39.372
X284.096 Y39.725
X284.279 Y40.066
X284.489 Y40.39
X284.724 Y40.697
X284.984 Y40.984
X285.266 Y41.249
X285.568 Y41.491
X285.889 Y41.708
X286.226 Y41.898
X286.578 Y42.061
X286.941 Y42.195
X287.314 Y42.3
X287.695 Y42.374
X288.08 Y42.417
X288.467 Y42.43
X288.855 Y42.411
X289.239 Y42.361
X289.619 Y42.281
X289.99 Y42.17
X290.352 Y42.03
X290.701 Y41.862
X291.036 Y41.665
X291.353 Y41.443
X291.652 Y41.196
X291.93 Y40.925
X292.186 Y40.634
X292.417 Y40.322
X292.658 Y39.937
X293.062 Y39.156
X293.325 Y38.532
X293.501 Y37.994
X293.619 Y37.508
X293.692 Y37.043
X293.727 Y36.593
X293.725 Y36.157
X293.689 Y35.733
X293.62 Y35.318
X293.55 Y35.037
X293.487 Y34.844
X293.4 Y34.663
X293.288 Y34.494
X292.6 Y33.598
X292.555 Y33.541
X292.5 Y33.484
X292.382 Y33.391
X291.571 Y32.768
X291.364 Y32.611
X291.276 Y32.562
X291.156 Y32.51
X290.12 Y32.081
X289.913 Y32.003
X289.706 Y31.972
X288.67 Y31.836
X288.463 Y31.811
X288.359 Y31.813
X287.012 Y31.99
X286.909 Y32.013
X286.805 Y32.052
X285.769 Y32.481
X285.576 Y32.562
X285.562 Y32.569
X285.51 Y32.598
X285.458 Y32.634
X284.472 Y33.391
X284.319 Y33.521
X284.254 Y33.598
X283.459 Y34.634
X283.423 Y34.686
X283.394 Y34.737
X283.349 Y34.841
X282.868 Y36.002
X282.838 Y36.084
X282.802 Y36.291
X282.638 Y37.534
X282.636 Y37.638
X282.648 Y37.742
X282.812 Y38.985
X282.83 Y39.088
X282.865 Y39.192
X283.38 Y40.435
X283.428 Y40.522
X283.49 Y40.609
X284.151 Y41.471
X284.314 Y41.678
X284.319 Y41.683
X284.526 Y41.853
X285.378 Y42.507
X285.562 Y42.633
X285.769 Y42.722
X286.805 Y43.151
X286.909 Y43.191
X287.012 Y43.213
X288.359 Y43.39
X288.463 Y43.392
X288.67 Y43.367
X289.706 Y43.231
X289.913 Y43.199
X290.104 Y43.129
X291.26 Y42.649
X291.312 Y42.624
X291.364 Y42.591
X291.476 Y42.507
X292.4 Y41.798
X292.539 Y41.678
X292.607 Y41.596
X293.339 Y40.642
X293.436 Y40.51
X293.474 Y40.435
X293.99 Y39.192
X294.025 Y39.088
X294.043 Y38.985
X294.206 Y37.742
X294.218 Y37.638
X294.216 Y37.534
X294.053 Y36.291
X294.017 Y36.084
X293.935 Y35.877
X293.505 Y34.841
X293.436 Y34.695
X293.395 Y34.634
X293.288 Y34.494
X293.246 Y34.458 Z-14.964
X293.206 Y34.425 Z-14.945
X293.17 Y34.394 Z-14.915
X293.14 Y34.369 Z-14.876
X293.118 Y34.35 Z-14.829
X293.102 Y34.34 Z-14.776
X293.096 Y34.337 Z-14.721
G0 Z5
X289.953 Y34.999
Z-11.835
G1 Z-12.47 F1219.2
G2 X286.045 Y35.751 Z-13.236 I-1.526 J2.602
X286.283 Y39.723 Z-14.002 I2.382 J1.85
X290.571 Y35.479 Z-15.673 I2.144 J-2.122
X287.28 Y34.811 Z-16.301 I-2.144 J2.122
X285.512 Y38.377 Z-17.067 I1.147 J2.79
X291.443 Y37.601 Z-18.6 I2.915 J-0.776
X285.411 I-3.016
X291.336 Y38.398 I3.016
X291.443 Y37.601 I-2.909 J-0.797
G1 X291.447 Y37.373
X291.602 Y36.474
X291.656 Y36.334
X291.694 Y36.189
X291.716 Y36.041
X291.726 Y35.891
X291.722 Y35.733
X291.705 Y35.564
X291.672 Y35.385
X291.622 Y35.198
X291.554 Y35.005
X291.465 Y34.807
X291.355 Y34.608
X291.224 Y34.408
X291.07 Y34.211
X290.894 Y34.02
X290.695 Y33.836
X290.475 Y33.663
X290.234 Y33.502
X289.973 Y33.358
X289.693 Y33.231
X289.397 Y33.125
X289.087 Y33.04
X288.764 Y32.98
X288.431 Y32.945
X288.091 Y32.937
X287.746 Y32.957
X287.399 Y33.004
X287.053 Y33.081
X286.71 Y33.186
X286.374 Y33.319
X286.047 Y33.481
X285.731 Y33.669
X285.43 Y33.884
X285.145 Y34.123
X284.879 Y34.386
X284.634 Y34.671
X284.411 Y34.976
X284.213 Y35.299
X284.041 Y35.637
X283.897 Y35.99
X283.78 Y36.353
X283.694 Y36.726
X283.637 Y37.105
X283.611 Y37.487
X283.616 Y37.872
X283.651 Y38.255
X283.717 Y38.634
X283.814 Y39.007
X283.94 Y39.372
X284.096 Y39.725
X284.279 Y40.066
X284.489 Y40.39
X284.724 Y40.697
X284.984 Y40.984
X285.266 Y41.249
X285.568 Y41.491
X285.889 Y41.708
X286.226 Y41.898
X286.578 Y42.061
X286.941 Y42.195
X287.314 Y42.3
X287.695 Y42.374
X288.08 Y42.417
X288.467 Y42.43
X288.855 Y42.411
X289.239 Y42.361
X289.619 Y42.281
X289.99 Y42.17
X290.352 Y42.03
X290.701 Y41.862
X291.036 Y41.665
X291.353 Y41.443
X291.652 Y41.196
X291.93 Y40.925
X292.186 Y40.634
X292.417 Y40.322
X292.658 Y39.937
X293.062 Y39.156
X293.325 Y38.532
X293.501 Y37.994
X293.619 Y37.508
X293.692 Y37.043
X293.727 Y36.593
X293.725 Y36.157
X293.689 Y35.733
X293.62 Y35.318
X293.55 Y35.037
X293.487 Y34.844
X293.4 Y34.663
X293.288 Y34.494
X292.6 Y33.598
X292.555 Y33.541
X292.5 Y33.484
X292.382 Y33.391
X291.571 Y32.768
X291.364 Y32.611
X291.276 Y32.562
X291.156 Y32.51
X290.12 Y32.081
X289.913 Y32.003
X289.706 Y31.972
X288.67 Y31.836
X288.463 Y31.811
X288.359 Y31.813
X287.012 Y31.99
X286.909 Y32.013
X286.805 Y32.052
X285.769 Y32.481
X285.576 Y32.562
X285.562 Y32.569
X285.51 Y32.598
X285.458 Y32.634
X284.472 Y33.391
X284.319 Y33.521
X284.254 Y33.598
X283.459 Y34.634
X283.423 Y34.686
X283.394 Y34.737
X283.349 Y34.841
X282.868 Y36.002
X282.838 Y36.084
X282.802 Y36.291
X282.638 Y37.534
X282.636 Y37.638
X282.648 Y37.742
X282.812 Y38.985
X282.83 Y39.088
X282.865 Y39.192
X283.38 Y40.435
X283.428 Y40.522
X283.49 Y40.609
X284.151 Y41.471
X284.314 Y41.678
X284.319 Y41.683
X284.526 Y41.853
X285.378 Y42.507
X285.562 Y42.633
X285.769 Y42.722
X286.805 Y43.151
X286.909 Y43.191
X287.012 Y43.213
X288.359 Y43.39
X288.463 Y43.392
X288.67 Y43.367
X289.706 Y43.231
X289.913 Y43.199
X290.104 Y43.129
X291.26 Y42.649
X291.312 Y42.624
X291.364 Y42.591
X291.476 Y42.507
X292.4 Y41.798
X292.539 Y41.678
X292.607 Y41.596
X293.339 Y40.642
X293.436 Y40.51
X293.474 Y40.435
X293.99 Y39.192
X294.025 Y39.088
X294.043 Y38.985
X294.206 Y37.742
X294.218 Y37.638
X294.216 Y37.534
X294.053 Y36.291
X294.017 Y36.084
X293.935 Y35.877
X293.505 Y34.841
X293.436 Y34.695
X293.395 Y34.634
X293.288 Y34.494
X293.246 Y34.458 Z-18.594
X293.206 Y34.425 Z-18.575
X293.17 Y34.394 Z-18.545
X293.14 Y34.369 Z-18.506
X293.118 Y34.35 Z-18.459
X293.102 Y34.34 Z-18.406
X293.096 Y34.337 Z-18.351
G0 Z5
X288.591 Y94.113
Z3.135
G1 Z2.5 F1219.2
G2 X288.264 Y88.09 Z0.829 I-0.163 J-3.012
X288.591 Y94.113 Z-0.842 I0.163 J3.012
X288.264 Y88.09 Z-2.513 I-0.163 J-3.012
X288.446 Y94.118 Z-4.158 I0.163 J3.012
X291.444 Y91.101 Z-4.99 I-0.018 J-3.016
X285.411 I-3.016
X288.427 Y94.118 I3.016
X291.336 Y91.899 J-3.016
X291.444 Y91.101 I-2.909 J-0.797
G1 X291.447 Y90.874
X291.602 Y89.975
X291.656 Y89.835
X291.694 Y89.69
X291.717 Y89.542
X291.726 Y89.392
X291.723 Y89.234
X291.706 Y89.064
X291.673 Y88.886
X291.623 Y88.699
X291.554 Y88.506
X291.465 Y88.308
X291.356 Y88.108
X291.224 Y87.909
X291.07 Y87.712
X290.894 Y87.52
X290.696 Y87.337
X290.475 Y87.163
X290.234 Y87.003
X289.973 Y86.858
X289.694 Y86.732
X289.398 Y86.625
X289.087 Y86.541
X288.764 Y86.481
X288.431 Y86.446
X288.091 Y86.438
X287.746 Y86.457
X287.399 Y86.505
X287.053 Y86.582
X286.71 Y86.687
X286.374 Y86.82
X286.047 Y86.981
X285.731 Y87.17
X285.43 Y87.385
X285.145 Y87.624
X284.879 Y87.887
X284.634 Y88.172
X284.411 Y88.477
X284.214 Y88.799
X284.042 Y89.138
X283.897 Y89.49
X283.781 Y89.854
X283.694 Y90.226
X283.637 Y90.605
X283.611 Y90.988
X283.616 Y91.372
X283.652 Y91.755
X283.718 Y92.135
X283.814 Y92.508
X283.941 Y92.873
X284.096 Y93.226
X284.279 Y93.566
X284.489 Y93.891
X284.725 Y94.197
X284.984 Y94.484
X285.266 Y94.75
X285.568 Y94.991
X285.889 Y95.208
X286.227 Y95.399
X286.578 Y95.562
X286.942 Y95.696
X287.315 Y95.8
X287.695 Y95.875
X288.08 Y95.918
X288.468 Y95.93
X288.855 Y95.912
X289.24 Y95.862
X289.619 Y95.782
X289.991 Y95.671
X290.352 Y95.531
X290.702 Y95.362
X291.036 Y95.166
X291.354 Y94.944
X291.653 Y94.696
X291.931 Y94.426
X292.186 Y94.134
X292.418 Y93.823
X292.658 Y93.438
X293.063 Y92.657
X293.325 Y92.033
X293.502 Y91.495
X293.619 Y91.008
X293.693 Y90.544
X293.727 Y90.094
X293.725 Y89.658
X293.689 Y89.234
X293.62 Y88.819
X293.55 Y88.537
X293.488 Y88.345
X293.4 Y88.163
X293.288 Y87.995
X292.566 Y87.054
X292.528 Y87.012
X292.483 Y86.97
X292.4 Y86.904
X291.514 Y86.225
X291.364 Y86.111
X291.269 Y86.057
X290.12 Y85.581
X289.913 Y85.503
X289.706 Y85.472
X288.67 Y85.336
X288.463 Y85.311
X288.359 Y85.313
X287.012 Y85.49
X286.909 Y85.513
X286.805 Y85.552
X285.68 Y86.018
X285.562 Y86.069
X285.458 Y86.134
X284.526 Y86.85
X284.319 Y87.021
X284.289 Y87.054
X284.111 Y87.283
X283.49 Y88.094
X283.418 Y88.195
X283.367 Y88.297
X282.853 Y89.54
X282.823 Y89.644
X282.808 Y89.747
X282.644 Y90.99
X282.635 Y91.094
X282.642 Y91.197
X282.806 Y92.441
X282.82 Y92.544
X282.848 Y92.648
X282.868 Y92.701
X283.361 Y93.891
X283.41 Y93.995
X283.482 Y94.098
X284.276 Y95.134
X284.319 Y95.182
X284.51 Y95.341
X285.458 Y96.069
X285.51 Y96.105
X285.562 Y96.134
X285.644 Y96.17
X286.805 Y96.651
X286.909 Y96.69
X287.012 Y96.713
X288.359 Y96.89
X288.463 Y96.892
X288.67 Y96.867
X289.706 Y96.731
X289.913 Y96.7
X290.12 Y96.622
X291.21 Y96.17
X291.287 Y96.136
X291.364 Y96.091
X291.571 Y95.934
X292.4 Y95.298
X292.489 Y95.228
X292.578 Y95.134
X293.372 Y94.098
X293.436 Y94.009
X293.493 Y93.891
X293.923 Y92.855
X294.007 Y92.648
X294.034 Y92.544
X294.076 Y92.233
X294.212 Y91.197
X294.219 Y91.094
X294.21 Y90.99
X294.047 Y89.747
X294.032 Y89.644
X294.002 Y89.54
X293.487 Y88.297
