%
(1001)
(T1  D=6.35 CR=0 - ZMIN=-20 - flat end mill)
G90 G94
G17
G21

(Face2)
M9
T1 M6
S8000 M3
G54
M9
G0 X114.128 Y49.393
Z10
Z5
G1 Z-1.365 F1219.2
G18 G3 X113.493 Z-2 I-0.635
G1 X110
X10
G17 G2 Y54.401 J2.504
G1 X110
G3 Y59.408 J2.504
G1 X10
G2 Y64.416 J2.504
G1 X110
G3 Y69.423 J2.504
G1 X10
G18 G3 X9.365 Z-1.365 K0.635
G0 Z5
X5.872 Y49.393
G1 Z-1.865 F1219.2
G2 X6.508 Z-2.5 I0.635
G1 X10
X110
G17 G3 Y54.401 J2.504
G1 X10
G2 Y59.408 J2.504
G1 X110
G3 Y64.416 J2.504
G1 X10
G2 Y69.423 J2.504
G1 X110
G18 G2 X110.635 Z-1.865 K0.635
G0 Z10
G17

(2D Contour3)
M9
G0 Z15
X24.92 Y58.865
Z5
G1 Z1 F1219.2
Z-19.365 F762
G18 G2 X25.555 Z-20 I0.635
G1 X26.19 F1219.2
G17 G3 X26.825 Y59.5 J0.635
X23.175 I-1.825
X26.825 I1.825
X26.19 Y60.135 I-0.635
G1 X25.555
G18 G3 X24.92 Z-19.365 K0.635
G0 Z15
G17

(2D Contour1)
M9
G0 X53.865 Y60.58
Z15
Z5
G1 Z3.5 F1219.2
Z-1.865 F762
G19 G2 Y59.945 Z-2.5 J-0.635
G1 Y59.31 F1219.2
G17 G3 X54.5 Y58.675 I0.635
G1 X91.825
Y61.325
X53.175
Y58.675
X54.5
G3 X55.135 Y59.31 J0.635
G1 Y59.945
G19 G3 Y60.58 Z-1.865 K0.635
G0 Z5
X53.865
G1 Z1 F1219.2
Z-4.365 F762
G2 Y59.945 Z-5 J-0.635
G1 Y59.31 F1219.2
G17 G3 X54.5 Y58.675 I0.635
G1 X91.825
Y61.325
X53.175
Y58.675
X54.5
G3 X55.135 Y59.31 J0.635
G1 Y59.945
G19 G3 Y60.58 Z-4.365 K0.635
G0 Z5
X53.865
G1 Z-1.5 F1219.2
Z-6.865 F762
G2 Y59.945 Z-7.5 J-0.635
G1 Y59.31 F1219.2
G17 G3 X54.5 Y58.675 I0.635
G1 X91.825
Y61.325
X53.175
Y58.675
X54.5
G3 X55.135 Y59.31 J0.635
G1 Y59.945
G19 G3 Y60.58 Z-6.865 K0.635
G0 Z5
X53.865
G1 Z-4 F1219.2
Z-9.365 F762
G2 Y59.945 Z-10 J-0.635
G1 Y59.31 F1219.2
G17 G3 X54.5 Y58.675 I0.635
G1 X91.825
Y61.325
X53.175
Y58.675
X54.5
G3 X55.135 Y59.31 J0.635
G1 Y59.945
G19 G3 Y60.58 Z-9.365 K0.635
G0 Z5
X53.865
G1 Z-6.5 F1219.2
Z-11.865 F762
G2 Y59.945 Z-12.5 J-0.635
G1 Y59.31 F1219.2
G17 G3 X54.5 Y58.675 I0.635
G1 X91.825
Y61.325
X53.175
Y58.675
X54.5
G3 X55.135 Y59.31 J0.635
G1 Y59.945
G19 G3 Y60.58 Z-11.865 K0.635
G0 Z5
X53.865
G1 Z-9 F1219.2
Z-14.365 F762
G2 Y59.945 Z-15 J-0.635
G1 Y59.31 F1219.2
G17 G3 X54.5 Y58.675 I0.635
G1 X91.825
Y61.325
X53.175
Y58.675
X54.5
G3 X55.135 Y59.31 J0.635
G1 Y59.945
G19 G3 Y60.58 Z-14.365 K0.635
G0 Z5
X53.865
G1 Z-11.5 F1219.2
Z-16.865 F762
G2 Y59.945 Z-17.5 J-0.635
G1 Y59.31 F1219.2
G17 G3 X54.5 Y58.675 I0.635
G1 X91.825
Y61.325
X53.175
Y58.675
X54.5
G3 X55.135 Y59.31 J0.635
G1 Y59.945
G19 G3 Y60.58 Z-16.865 K0.635
G0 Z5
X9.365 Y77.58
G1 Z3.5 F1219.2
Z-1.865 F762
G2 Y76.945 Z-2.5 J-0.635
G1 Y76.31 F1219.2
G17 G3 X10 Y75.675 I0.635
G1 X110
G2 X113.175 Y72.5 J-3.175
G1 Y47.5
G2 X110 Y44.325 I-3.175
G1 X10
G2 X6.825 Y47.5 J3.175
G1 Y72.5
G2 X10 Y75.675 I3.175
G3 X10.635 Y76.31 J0.635
G1 Y76.945
G19 G3 Y77.58 Z-1.865 K0.635
G0 Z5
X9.365
G1 Z1 F1219.2
Z-4.365 F762
G2 Y76.945 Z-5 J-0.635
G1 Y76.31 F1219.2
G17 G3 X10 Y75.675 I0.635
G1 X110
G2 X113.175 Y72.5 J-3.175
G1 Y47.5
G2 X110 Y44.325 I-3.175
G1 X10
G2 X6.825 Y47.5 J3.175
G1 Y72.5
G2 X10 Y75.675 I3.175
G3 X10.635 Y76.31 J0.635
G1 Y76.945
G19 G3 Y77.58 Z-4.365 K0.635
G0 Z5
X9.365
G1 Z-1.5 F1219.2
Z-6.865 F762
G2 Y76.945 Z-7.5 J-0.635
G1 Y76.31 F1219.2
G17 G3 X10 Y75.675 I0.635
G1 X110
G2 X113.175 Y72.5 J-3.175
G1 Y47.5
G2 X110 Y44.325 I-3.175
G1 X10
G2 X6.825 Y47.5 J3.175
G1 Y72.5
G2 X10 Y75.675 I3.175
G3 X10.635 Y76.31 J0.635
G1 Y76.945
G19 G3 Y77.58 Z-6.865 K0.635
G0 Z5
X9.365
G1 Z-4 F1219.2
Z-9.365 F762
G2 Y76.945 Z-10 J-0.635
G1 Y76.31 F1219.2
G17 G3 X10 Y75.675 I0.635
G1 X110
G2 X113.175 Y72.5 J-3.175
G1 Y47.5
G2 X110 Y44.325 I-3.175
G1 X10
G2 X6.825 Y47.5 J3.175
G1 Y72.5
G2 X10 Y75.675 I3.175
G3 X10.635 Y76.31 J0.635
G1 Y76.945
G19 G3 Y77.58 Z-9.365 K0.635
G0 Z5
X9.365
G1 Z-6.5 F1219.2
Z-11.865 F762
G2 Y76.945 Z-12.5 J-0.635
G1 Y76.31 F1219.2
G17 G3 X10 Y75.675 I0.635
G1 X110
G2 X113.175 Y72.5 J-3.175
G1 Y47.5
G2 X110 Y44.325 I-3.175
G1 X10
G2 X6.825 Y47.5 J3.175
G1 Y72.5
G2 X10 Y75.675 I3.175
G3 X10.635 Y76.31 J0.635
G1 Y76.945
G19 G3 Y77.58 Z-11.865 K0.635
G0 Z5
X9.365
G1 Z-9 F1219.2
Z-14.365 F762
G2 Y76.945 Z-15 J-0.635
G1 Y76.31 F1219.2
G17 G3 X10 Y75.675 I0.635
G1 X110
G2 X113.175 Y72.5 J-3.175
G1 Y47.5
G2 X110 Y44.325 I-3.175
G1 X10
G2 X6.825 Y47.5 J3.175
G1 Y72.5
G2 X10 Y75.675 I3.175
G3 X10.635 Y76.31 J0.635
G1 Y76.945
G19 G3 Y77.58 Z-14.365 K0.635
G0 Z5
X9.365
G1 Z-11.5 F1219.2
Z-16.865 F762
G2 Y76.945 Z-17.5 J-0.635
G1 Y76.31 F1219.2
G17 G3 X10 Y75.675 I0.635
G1 X52.742
Z-15.913
X65.442
Z-17.5 F762
X110 F1219.2
G2 X113.175 Y72.5 J-3.175
G1 Y64.678
Z-15.913
Y51.978
Z-17.5 F762
Y47.5 F1219.2
G2 X110 Y44.325 I-3.175
G1 X65.379
Z-15.913
X52.679
Z-17.5 F762
X10 F1219.2
G2 X6.825 Y47.5 J3.175
G1 Y53.093
Z-15.913
Y65.793
Z-17.5 F762
Y72.5 F1219.2
G2 X10 Y75.675 I3.175
G3 X10.635 Y76.31 J0.635
G1 Y76.945
G19 G3 Y77.58 Z-16.865 K0.635
G0 Z15
G17
M9
M30
%
