%
(1001)
(T1  D=6.35 CR=0 - ZMIN=-19.1 - flat end mill)
G90 G94
G17
G21

(Face3)
M9
T1 M6
S8000 M3
G54
M9
G0 X54.127 Y-10.607
Z9
Z3
G1 Z-0.465 F1219.2
G18 G3 X53.493 Z-1.1 I-0.635
G1 X50
X-50
G17 G2 Y-5.599 J2.504
G1 X50
G3 Y-0.592 J2.504
G1 X-50
G2 Y4.416 J2.504
G1 X50
G3 Y9.423 J2.504
G1 X-50
G18 G3 X-50.635 Z-0.465 K0.635
G0 Z4
X-54.127 Y-10.607
Z3
G1 Z-2.965 F1219.2
G2 X-53.493 Z-3.6 I0.635
G1 X-50
X50
G17 G3 Y-5.599 J2.504
G1 X-50
G2 Y-0.592 J2.504
G1 X50
G3 Y4.416 J2.504
G1 X-50
G2 Y9.423 J2.504
G1 X50
G18 G2 X50.635 Z-2.965 K0.635
G0 Z4
X54.127 Y-10.607
Z3
G1 Z-5.465 F1219.2
G3 X53.493 Z-6.1 I-0.635
G1 X50
X-50
G17 G2 Y-5.599 J2.504
G1 X50
G3 Y-0.592 J2.504
G1 X-50
G2 Y4.416 J2.504
G1 X50
G3 Y9.423 J2.504
G1 X-50
G18 G3 X-50.635 Z-5.465 K0.635
G0 Z4
X-54.127 Y-10.607
Z3
G1 Z-7.965 F1219.2
G2 X-53.493 Z-8.6 I0.635
G1 X-50
X50
G17 G3 Y-5.599 J2.504
G1 X-50
G2 Y-0.592 J2.504
G1 X50
G3 Y4.416 J2.504
G1 X-50
G2 Y9.423 J2.504
G1 X50
G18 G2 X50.635 Z-7.965 K0.635
G0 Z4
X54.127 Y-10.607
Z3
G1 Z-8.965 F1219.2
G3 X53.493 Z-9.6 I-0.635
G1 X50
X-50
G17 G2 Y-5.599 J2.504
G1 X50
G3 Y-0.592 J2.504
G1 X-50
G2 Y4.416 J2.504
G1 X50
G3 Y9.423 J2.504
G1 X-50
G18 G3 X-50.635 Z-8.965 K0.635
G0 Z9
G17

(Bore1)
M9
G0 Z10
X35.238 Y-0.135
Z-7.6
G1 Z-8.965 F1219.2
G18 G2 X35.873 Z-9.6 I0.635
G1 X36.19
G17 G3 X36.825 Y0.5 J0.635
X33.175 Z-10.1 I-1.825
X36.825 Z-10.6 I1.825
X33.175 Z-11.1 I-1.825
X36.825 Z-11.6 I1.825
X33.175 Z-12.1 I-1.825
X36.825 Z-12.6 I1.825
X33.175 Z-13.1 I-1.825
X36.825 Z-13.6 I1.825
X33.175 Z-14.1 I-1.825
X36.825 Z-14.6 I1.825
X33.175 Z-15.1 I-1.825
X36.825 Z-15.6 I1.825
X33.175 Z-16.1 I-1.825
X36.825 Z-16.6 I1.825
X33.175 Z-17.1 I-1.825
X36.825 Z-17.6 I1.825
X33.175 Z-18.1 I-1.825
X36.825 Z-18.6 I1.825
X33.175 Z-19.1 I-1.825
X36.825 I1.825
X33.175 I-1.825
X33.81 Y-0.135 I0.635
G1 X34.128
G18 G2 X34.763 Z-18.465 K0.635
G0 Z10
G17

(2D Contour7)
M9
G0 X4.92 Y-0.635
Z10
Z5
G1 Z3.5 F1219.2
Z-1.865 F762
G18 G2 X5.555 Z-2.5 I0.635
G1 X6.19 F1219.2
G17 G3 X6.825 Y0 J0.635
G1 Y1.325
X-31.825
Y-1.325
X6.825
Y0
G3 X6.19 Y0.635 I-0.635
G1 X5.555
G18 G3 X4.92 Z-1.865 K0.635
G0 Z5
Y-0.635
G1 Z1 F1219.2
Z-4.365 F762
G2 X5.555 Z-5 I0.635
G1 X6.19 F1219.2
G17 G3 X6.825 Y0 J0.635
G1 Y1.325
X-31.825
Y-1.325
X6.825
Y0
G3 X6.19 Y0.635 I-0.635
G1 X5.555
G18 G3 X4.92 Z-4.365 K0.635
G0 Z5
Y-0.635
G1 Z-1.5 F1219.2
Z-6.865 F762
G2 X5.555 Z-7.5 I0.635
G1 X6.19 F1219.2
G17 G3 X6.825 Y0 J0.635
G1 Y1.325
X-31.825
Y-1.325
X6.825
Y0
G3 X6.19 Y0.635 I-0.635
G1 X5.555
G18 G3 X4.92 Z-6.865 K0.635
G0 Z5
Y-0.635
G1 Z-4 F1219.2
Z-9.365 F762
G2 X5.555 Z-10 I0.635
G1 X6.19 F1219.2
G17 G3 X6.825 Y0 J0.635
G1 Y1.325
X-31.825
Y-1.325
X6.825
Y0
G3 X6.19 Y0.635 I-0.635
G1 X5.555
G18 G3 X4.92 Z-9.365 K0.635
G0 Z5
Y-0.635
G1 Z-6.5 F1219.2
Z-11.865 F762
G2 X5.555 Z-12.5 I0.635
G1 X6.19 F1219.2
G17 G3 X6.825 Y0 J0.635
G1 Y1.325
X-31.825
Y-1.325
X6.825
Y0
G3 X6.19 Y0.635 I-0.635
G1 X5.555
G18 G3 X4.92 Z-11.865 K0.635
G0 Z5
Y-0.635
G1 Z-9 F1219.2
Z-14.365 F762
G2 X5.555 Z-15 I0.635
G1 X6.19 F1219.2
G17 G3 X6.825 Y0 J0.635
G1 Y1.325
X-31.825
Y-1.325
X6.825
Y0
G3 X6.19 Y0.635 I-0.635
G1 X5.555
G18 G3 X4.92 Z-14.365 K0.635
G0 Z5
Y-0.635
G1 Z-11.5 F1219.2
Z-16.865 F762
G2 X5.555 Z-17.5 I0.635
G1 X6.19 F1219.2
G17 G3 X6.825 Y0 J0.635
G1 Y1.325
X-31.825
Y-1.325
X6.825
Y0
G3 X6.19 Y0.635 I-0.635
G1 X5.555
G18 G3 X4.92 Z-16.865 K0.635
G0 Z5
Y-0.635
G1 Z-14 F1219.2
Z-18.465 F762
G2 X5.555 Z-19.1 I0.635
G1 X6.19 F1219.2
G17 G3 X6.825 Y0 J0.635
G1 Y1.325
X-31.825
Y-1.325
X6.825
Y0
G3 X6.19 Y0.635 I-0.635
G1 X5.555
G18 G3 X4.92 Z-18.465 K0.635
G0 Z5
X50.635 Y-17.58
G1 Z3.5 F1219.2
Z-1.865 F762
G19 G3 Y-16.945 Z-2.5 J0.635
G1 Y-16.31 F1219.2
G17 G3 X50 Y-15.675 I-0.635
G1 X-50
G2 X-53.175 Y-12.5 J3.175
G1 Y12.5
G2 X-50 Y15.675 I3.175
G1 X50
G2 X53.175 Y12.5 J-3.175
G1 Y-12.5
G2 X50 Y-15.675 I-3.175
G3 X49.365 Y-16.31 J-0.635
G1 Y-16.945
G19 G2 Y-17.58 Z-1.865 K0.635
G0 Z5
X50.635
G1 Z1 F1219.2
Z-4.365 F762
G3 Y-16.945 Z-5 J0.635
G1 Y-16.31 F1219.2
G17 G3 X50 Y-15.675 I-0.635
G1 X-50
G2 X-53.175 Y-12.5 J3.175
G1 Y12.5
G2 X-50 Y15.675 I3.175
G1 X50
G2 X53.175 Y12.5 J-3.175
G1 Y-12.5
G2 X50 Y-15.675 I-3.175
G3 X49.365 Y-16.31 J-0.635
G1 Y-16.945
G19 G2 Y-17.58 Z-4.365 K0.635
G0 Z5
X50.635
G1 Z-1.5 F1219.2
Z-6.865 F762
G3 Y-16.945 Z-7.5 J0.635
G1 Y-16.31 F1219.2
G17 G3 X50 Y-15.675 I-0.635
G1 X-50
G2 X-53.175 Y-12.5 J3.175
G1 Y12.5
G2 X-50 Y15.675 I3.175
G1 X50
G2 X53.175 Y12.5 J-3.175
G1 Y-12.5
G2 X50 Y-15.675 I-3.175
G3 X49.365 Y-16.31 J-0.635
G1 Y-16.945
G19 G2 Y-17.58 Z-6.865 K0.635
G0 Z5
X50.635
G1 Z-4 F1219.2
Z-9.365 F762
G3 Y-16.945 Z-10 J0.635
G1 Y-16.31 F1219.2
G17 G3 X50 Y-15.675 I-0.635
G1 X-50
G2 X-53.175 Y-12.5 J3.175
G1 Y12.5
G2 X-50 Y15.675 I3.175
G1 X50
G2 X53.175 Y12.5 J-3.175
G1 Y-12.5
G2 X50 Y-15.675 I-3.175
G3 X49.365 Y-16.31 J-0.635
G1 Y-16.945
G19 G2 Y-17.58 Z-9.365 K0.635
G0 Z5
X50.635
G1 Z-6.5 F1219.2
Z-11.865 F762
G3 Y-16.945 Z-12.5 J0.635
G1 Y-16.31 F1219.2
G17 G3 X50 Y-15.675 I-0.635
G1 X-50
G2 X-53.175 Y-12.5 J3.175
G1 Y12.5
G2 X-50 Y15.675 I3.175
G1 X50
G2 X53.175 Y12.5 J-3.175
G1 Y-12.5
G2 X50 Y-15.675 I-3.175
G3 X49.365 Y-16.31 J-0.635
G1 Y-16.945
G19 G2 Y-17.58 Z-11.865 K0.635
G0 Z5
X50.635
G1 Z-9 F1219.2
Z-14.365 F762
G3 Y-16.945 Z-15 J0.635
G1 Y-16.31 F1219.2
G17 G3 X50 Y-15.675 I-0.635
G1 X-50
G2 X-53.175 Y-12.5 J3.175
G1 Y12.5
G2 X-50 Y15.675 I3.175
G1 X50
G2 X53.175 Y12.5 J-3.175
G1 Y-12.5
G2 X50 Y-15.675 I-3.175
G3 X49.365 Y-16.31 J-0.635
G1 Y-16.945
G19 G2 Y-17.58 Z-14.365 K0.635
G0 Z5
X50.635
G1 Z-11.5 F1219.2
Z-16.865 F762
G3 Y-16.945 Z-17.5 J0.635
G1 Y-16.31 F1219.2
G17 G3 X50 Y-15.675 I-0.635
G1 X-50
G2 X-53.175 Y-12.5 J3.175
G1 Y12.5
G2 X-50 Y15.675 I3.175
G1 X50
G2 X53.175 Y12.5 J-3.175
G1 Y-12.5
G2 X50 Y-15.675 I-3.175
G3 X49.365 Y-16.31 J-0.635
G1 Y-16.945
G19 G2 Y-17.58 Z-16.865 K0.635
G0 Z5
X50.635
G1 Z-14 F1219.2
Z-18.465 F762
G3 Y-16.945 Z-19.1 J0.635
G1 Y-16.31 F1219.2
G17 G3 X50 Y-15.675 I-0.635
G1 X6.35
Z-17.513
X-6.35
Z-19.1 F762
X-50 F1219.2
G2 X-53.175 Y-12.5 J3.175
G1 Y12.5
G2 X-50 Y15.675 I3.175
G1 X-6.35
Z-17.513
X6.35
Z-19.1 F762
X50 F1219.2
G2 X53.175 Y12.5 J-3.175
G1 Y-12.5
G2 X50 Y-15.675 I-3.175
G3 X49.365 Y-16.31 J-0.635
G1 Y-16.945
G19 G2 Y-17.58 Z-18.465 K0.635
G0 Z10
G17
M9
M30
%
