%
(Dust shoe)
(T2  D=6.35 CR=0 - ZMIN=-20.3 - flat end mill)
(T3  D=6.35 CR=0 - ZMIN=-19.8 - flat end mill)
G90 G94
G17
G21
G28 G91 Z0
G90

(Contour1)
M9
T2 M6
S10000 M3
G54
M8
G0 X80.258 Y52.949
Z10
Z0.738
G1 Z-1 F1524
G3 X79.174 Y52.5 I-0.449 J-0.449
G1 Y52.399
X79.17 Y52.198
X79.157 Y51.594
X79.152 Y51.393
X79.141 Y51.192
X79.09 Y50.387
X79.074 Y50.186
X79.053 Y49.984
X78.99 Y49.381
X78.967 Y49.18
X78.963 Y49.148
X78.94 Y48.978
X78.851 Y48.375
X78.821 Y48.173
X78.787 Y47.972
X78.749 Y47.771
X78.634 Y47.167
X78.595 Y46.966
X78.561 Y46.815
X78.549 Y46.765
X78.359 Y45.957
X78.308 Y45.758
X78.252 Y45.557
X78.084 Y44.953
X78.024 Y44.752
X77.96 Y44.551
X77.756 Y43.921
X77.697 Y43.746
X77.625 Y43.545
X77.4 Y42.941
X77.353 Y42.815
X77.325 Y42.74
X77.243 Y42.539
X76.951 Y41.842
X76.905 Y41.734
X76.814 Y41.532
X76.749 Y41.394
X76.436 Y40.727
X76.347 Y40.549
X76.335 Y40.526
X76.23 Y40.325
X75.944 Y39.778
X75.914 Y39.721
X75.803 Y39.52
X75.454 Y38.916
X75.341 Y38.722
X75.336 Y38.715
X75.212 Y38.514
X74.829 Y37.91
X74.737 Y37.768
X74.699 Y37.709
X74.559 Y37.508
X74.279 Y37.105
X74.139 Y36.904
X74.133 Y36.895
X73.992 Y36.703
X73.932 Y36.623
X73.53 Y36.093
X73.378 Y35.898
X73.328 Y35.836
X73.213 Y35.696
X72.88 Y35.294
X72.725 Y35.107
X72.712 Y35.093
X72.534 Y34.891
X72.121 Y34.433
X71.989 Y34.288
X71.92 Y34.213
X71.797 Y34.087
X71.316 Y33.595
X71.205 Y33.483
X71.115 Y33.394
X70.995 Y33.282
X70.511 Y32.827
X70.35 Y32.678
X70.31 Y32.642
X70.119 Y32.477
X69.653 Y32.074
X69.505 Y31.948
X69.412 Y31.873
X69.304 Y31.787
X68.901 Y31.468
X68.7 Y31.308
X68.649 Y31.269
X68.499 Y31.157
X67.895 Y30.718
X67.822 Y30.665
X67.694 Y30.575
X67.528 Y30.464
X66.922 Y30.062
X66.889 Y30.04
X66.687 Y29.912
X66.084 Y29.547
X65.937 Y29.458
X65.882 Y29.425
X65.681 Y29.312
X65.078 Y28.98
X64.876 Y28.87
X64.846 Y28.854
X64.675 Y28.768
X64.038 Y28.452
X63.87 Y28.37
X63.669 Y28.278
X63.065 Y28.009
X62.864 Y27.921
X62.686 Y27.848
X62.059 Y27.6
X61.858 Y27.521
X61.656 Y27.447
X61.053 Y27.237
X60.851 Y27.167
X60.65 Y27.102
X60.457 Y27.043
X59.791 Y26.842
X59.644 Y26.8
X59.443 Y26.747
X58.839 Y26.592
X58.638 Y26.541
X58.437 Y26.495
X57.632 Y26.324
X57.43 Y26.285
X57.229 Y26.251
X56.625 Y26.148
X56.424 Y26.116
X56.223 Y26.088
X55.619 Y26.012
X55.418 Y25.987
X55.217 Y25.964
X55.016 Y25.947
X54.412 Y25.896
X54.211 Y25.88
X54.009 Y25.869
X53.204 Y25.836
X53.003 Y25.83
X52.802 Y25.829
X52.198
X51.997 Y25.83
X51.796 Y25.836
X50.991 Y25.869
X50.789 Y25.88
X50.588 Y25.896
X49.984 Y25.947
X49.783 Y25.964
X49.582 Y25.987
X49.381 Y26.012
X48.777 Y26.088
X48.576 Y26.116
X48.375 Y26.148
X47.771 Y26.251
X47.57 Y26.285
X47.368 Y26.324
X46.563 Y26.495
X46.362 Y26.541
X46.161 Y26.592
X45.557 Y26.747
X45.356 Y26.8
X45.209 Y26.842
X44.543 Y27.043
X44.35 Y27.102
X44.149 Y27.167
X43.947 Y27.237
X43.344 Y27.447
X43.142 Y27.521
X42.941 Y27.6
X42.314 Y27.848
X42.136 Y27.921
X41.935 Y28.009
X41.331 Y28.278
X41.13 Y28.37
X40.962 Y28.452
X40.325 Y28.768
X40.154 Y28.854
X40.124 Y28.87
X39.922 Y28.98
X39.319 Y29.312
X39.118 Y29.425
X39.063 Y29.458
X38.916 Y29.547
X38.313 Y29.912
X38.111 Y30.04
X38.078 Y30.062
X37.472 Y30.464
X37.306 Y30.575
X37.178 Y30.665
X37.105 Y30.718
X36.501 Y31.157
X36.351 Y31.269
X36.3 Y31.308
X36.095 Y31.47
X35.696 Y31.787
X35.588 Y31.873
X35.495 Y31.948
X35.347 Y32.074
X34.881 Y32.477
X34.69 Y32.642
X34.65 Y32.678
X34.489 Y32.827
X34.005 Y33.282
X33.885 Y33.394
X33.795 Y33.483
X33.684 Y33.595
X33.203 Y34.087
X33.08 Y34.213
X33.011 Y34.288
X32.879 Y34.433
X32.466 Y34.891
X32.288 Y35.093
X32.275 Y35.107
X32.12 Y35.294
X31.787 Y35.696
X31.672 Y35.836
X31.622 Y35.898
X31.47 Y36.093
X31.068 Y36.623
X31.008 Y36.703
X30.867 Y36.895
X30.861 Y36.904
X30.721 Y37.105
X30.441 Y37.508
X30.302 Y37.709
X30.263 Y37.768
X30.171 Y37.91
X29.788 Y38.514
X29.664 Y38.715
X29.659 Y38.722
X29.546 Y38.916
X29.197 Y39.52
X29.086 Y39.721
X29.056 Y39.778
X28.77 Y40.325
X28.665 Y40.526
X28.653 Y40.549
X28.564 Y40.727
X28.251 Y41.394
X28.186 Y41.532
X28.095 Y41.734
X28.049 Y41.842
X27.757 Y42.539
X27.675 Y42.74
X27.647 Y42.815
X27.6 Y42.941
X27.375 Y43.545
X27.303 Y43.746
X27.244 Y43.921
X27.04 Y44.551
X26.976 Y44.752
X26.916 Y44.953
X26.748 Y45.557
X26.692 Y45.758
X26.641 Y45.957
X26.451 Y46.765
X26.439 Y46.815
X26.405 Y46.966
X26.366 Y47.167
X26.238 Y47.838
X26.213 Y47.972
X26.179 Y48.173
X26.149 Y48.375
X26.06 Y48.978
X26.037 Y49.148
X26.033 Y49.18
X26.01 Y49.381
X25.947 Y49.984
X25.926 Y50.186
X25.91 Y50.387
X25.859 Y51.192
X25.848 Y51.393
X25.843 Y51.594
X25.836 Y51.938
X25.83 Y52.198
X25.826 Y52.399
Y52.601
X25.83 Y52.802
X25.843 Y53.406
X25.848 Y53.607
X25.859 Y53.808
X25.91 Y54.613
X25.926 Y54.814
X25.947 Y55.016
X26.01 Y55.619
X26.033 Y55.82
X26.037 Y55.852
X26.06 Y56.022
X26.149 Y56.625
X26.179 Y56.827
X26.213 Y57.028
X26.251 Y57.229
X26.366 Y57.833
X26.405 Y58.034
X26.439 Y58.185
X26.451 Y58.235
X26.641 Y59.043
X26.692 Y59.242
X26.748 Y59.443
X26.916 Y60.047
X26.976 Y60.248
X27.04 Y60.449
X27.244 Y61.079
X27.303 Y61.254
X27.375 Y61.455
X27.6 Y62.059
X27.647 Y62.185
X27.675 Y62.26
X27.757 Y62.461
X28.049 Y63.158
X28.095 Y63.266
X28.186 Y63.468
X28.251 Y63.606
X28.564 Y64.273
X28.653 Y64.451
X28.665 Y64.474
X28.77 Y64.675
X29.056 Y65.222
X29.086 Y65.279
X29.197 Y65.48
X29.546 Y66.084
X29.659 Y66.278
X29.664 Y66.285
X29.788 Y66.486
X30.171 Y67.09
X30.263 Y67.232
X30.302 Y67.291
X30.441 Y67.492
X30.721 Y67.895
X30.861 Y68.096
X30.867 Y68.105
X31.008 Y68.297
X31.068 Y68.377
X31.47 Y68.907
X31.622 Y69.102
X31.672 Y69.164
X31.787 Y69.304
X32.12 Y69.706
X32.275 Y69.893
X32.288 Y69.907
X32.466 Y70.109
X32.879 Y70.567
X33.011 Y70.712
X33.08 Y70.787
X33.203 Y70.913
X33.684 Y71.405
X33.795 Y71.517
X33.885 Y71.606
X34.005 Y71.718
X34.489 Y72.173
X34.65 Y72.322
X34.69 Y72.358
X34.881 Y72.523
X35.347 Y72.926
X35.495 Y73.052
X35.588 Y73.127
X35.696 Y73.213
X36.099 Y73.532
X36.3 Y73.692
X36.351 Y73.731
X36.501 Y73.843
X37.105 Y74.282
X37.178 Y74.335
X37.306 Y74.425
X37.472 Y74.536
X38.078 Y74.938
X38.111 Y74.96
X38.313 Y75.088
X38.916 Y75.453
X39.063 Y75.542
X39.118 Y75.575
X39.319 Y75.688
X39.922 Y76.02
X40.124 Y76.13
X40.154 Y76.146
X40.325 Y76.232
X40.962 Y76.548
X41.13 Y76.63
X41.331 Y76.722
X41.935 Y76.991
X42.136 Y77.079
X42.314 Y77.152
X42.941 Y77.4
X43.142 Y77.479
X43.344 Y77.553
X43.947 Y77.763
X44.149 Y77.833
X44.35 Y77.898
X44.543 Y77.957
X45.209 Y78.158
X45.356 Y78.2
X45.557 Y78.253
X46.161 Y78.408
X46.362 Y78.459
X46.563 Y78.505
X47.368 Y78.676
X47.57 Y78.715
X47.771 Y78.749
X48.375 Y78.852
X48.576 Y78.884
X48.777 Y78.912
X49.381 Y78.988
X49.582 Y79.013
X49.783 Y79.036
X49.984 Y79.053
X50.588 Y79.104
X50.789 Y79.12
X50.991 Y79.131
X51.796 Y79.164
X51.997 Y79.17
X52.198 Y79.171
X52.802
X53.003 Y79.17
X53.204 Y79.164
X54.009 Y79.131
X54.211 Y79.12
X54.412 Y79.104
X55.016 Y79.053
X55.217 Y79.036
X55.418 Y79.013
X55.619 Y78.988
X56.223 Y78.912
X56.424 Y78.884
X56.625 Y78.852
X57.229 Y78.749
X57.43 Y78.715
X57.632 Y78.676
X58.437 Y78.505
X58.638 Y78.459
X58.839 Y78.408
X59.443 Y78.253
X59.644 Y78.2
X59.791 Y78.158
X60.457 Y77.957
X60.65 Y77.898
X60.851 Y77.833
X61.053 Y77.763
X61.656 Y77.553
X61.858 Y77.479
X62.059 Y77.4
X62.686 Y77.152
X62.864 Y77.079
X63.065 Y76.991
X63.669 Y76.722
X63.87 Y76.63
X64.038 Y76.548
X64.675 Y76.232
X64.846 Y76.146
X64.876 Y76.13
X65.078 Y76.02
X65.681 Y75.688
X65.882 Y75.575
X65.937 Y75.542
X66.084 Y75.453
X66.687 Y75.088
X66.889 Y74.96
X66.922 Y74.938
X67.528 Y74.536
X67.694 Y74.425
X67.822 Y74.335
X67.895 Y74.282
X68.499 Y73.843
X68.649 Y73.731
X68.7 Y73.692
X68.905 Y73.53
X69.304 Y73.213
X69.412 Y73.127
X69.505 Y73.052
X69.653 Y72.926
X70.119 Y72.523
X70.31 Y72.358
X70.35 Y72.322
X70.511 Y72.173
X70.995 Y71.718
X71.115 Y71.606
X71.205 Y71.517
X71.316 Y71.405
X71.797 Y70.913
X71.92 Y70.787
X71.989 Y70.712
X72.121 Y70.567
X72.534 Y70.109
X72.712 Y69.907
X72.725 Y69.893
X72.88 Y69.706
X73.213 Y69.304
X73.328 Y69.164
X73.378 Y69.102
X73.53 Y68.907
X73.932 Y68.377
X73.992 Y68.297
X74.133 Y68.105
X74.139 Y68.096
X74.279 Y67.895
X74.559 Y67.492
X74.699 Y67.291
X74.737 Y67.232
X74.829 Y67.09
X75.212 Y66.486
X75.336 Y66.285
X75.341 Y66.278
X75.454 Y66.084
X75.803 Y65.48
X75.914 Y65.279
X75.944 Y65.222
X76.23 Y64.675
X76.335 Y64.474
X76.347 Y64.451
X76.436 Y64.273
X76.749 Y63.606
X76.814 Y63.468
X76.905 Y63.266
X76.951 Y63.158
X77.243 Y62.461
X77.325 Y62.26
X77.353 Y62.185
X77.4 Y62.059
X77.625 Y61.455
X77.697 Y61.254
X77.756 Y61.079
X77.96 Y60.449
X78.024 Y60.248
X78.084 Y60.047
X78.252 Y59.443
X78.308 Y59.242
X78.359 Y59.043
X78.549 Y58.235
X78.561 Y58.185
X78.595 Y58.034
X78.634 Y57.833
X78.762 Y57.162
X78.787 Y57.028
X78.821 Y56.827
X78.851 Y56.625
X78.94 Y56.022
X78.963 Y55.852
X78.967 Y55.82
X78.99 Y55.619
X79.053 Y55.016
X79.074 Y54.814
X79.09 Y54.613
X79.141 Y53.808
X79.152 Y53.607
X79.157 Y53.406
X79.17 Y52.802
X79.174 Y52.601
Y52.5
X79.175
Y52.49
Y52.479
Y52.458
X79.174 Y52.417
X79.173 Y52.334
X79.169 Y52.167
X79.163 Y51.814 Z-1.001
X79.157 Y51.463 Z-1.003
X79.142 Y51.145 Z-1.004
X79.123 Y50.796 Z-1.007
X79.105 Y50.456 Z-1.01
X79.081 Y50.116 Z-1.014
X79.049 Y49.779 Z-1.018
X79.017 Y49.429 Z-1.022
X78.985 Y49.105 Z-1.027
X78.963 Y48.935 Z-1.03
X78.941 Y48.765 Z-1.033
X78.918 Y48.59 Z-1.036
X78.896 Y48.414 Z-1.039
X78.874 Y48.248 Z-1.042
X78.852 Y48.081 Z-1.045
X78.826 Y47.918 Z-1.048
X78.799 Y47.754 Z-1.052
X78.769 Y47.58 Z-1.055
X78.74 Y47.406 Z-1.059
X78.711 Y47.233 Z-1.063
X78.682 Y47.061 Z-1.067
X78.654 Y46.903 Z-1.071
X78.621 Y46.746 Z-1.075
X78.585 Y46.574 Z-1.079
X78.549 Y46.402 Z-1.083
X78.513 Y46.229 Z-1.088
X78.478 Y46.055 Z-1.093
X78.445 Y45.897 Z-1.097
X78.408 Y45.739 Z-1.101
X78.366 Y45.571 Z-1.106
X78.324 Y45.403 Z-1.111
X78.303 Y45.318 Z-1.114
X78.282 Y45.232 Z-1.116
X78.261 Y45.146 Z-1.119
X78.239 Y45.06 Z-1.121
X78.199 Y44.899 Z-1.126
X78.179 Y44.818 Z-1.129
X78.157 Y44.738 Z-1.131
X78.135 Y44.656 Z-1.134
X78.112 Y44.575 Z-1.136
X78.088 Y44.494 Z-1.139
X78.04 Y44.327 Z-1.145
X78.015 Y44.243 Z-1.147
X77.99 Y44.158 Z-1.15
X77.966 Y44.073 Z-1.153
X77.942 Y43.991 Z-1.156
X77.919 Y43.91 Z-1.159
X77.895 Y43.828 Z-1.161
X77.871 Y43.747 Z-1.164
X77.846 Y43.667 Z-1.167
X77.822 Y43.588 Z-1.17
X77.795 Y43.509 Z-1.172
X77.741 Y43.346 Z-1.178
X77.713 Y43.262 Z-1.181
X77.685 Y43.178 Z-1.184
X77.63 Y43.012 Z-1.19
X77.603 Y42.93 Z-1.193
X77.575 Y42.848 Z-1.196
X77.548 Y42.766 Z-1.2
X77.521 Y42.686 Z-1.202
X77.493 Y42.606 Z-1.205
X77.464 Y42.526 Z-1.208
X77.434 Y42.447 Z-1.211
X77.404 Y42.367 Z-1.214
X77.373 Y42.286 Z-1.217
X77.343 Y42.206 Z-1.22
X77.312 Y42.126 Z-1.223
X77.281 Y42.044 Z-1.226
X77.25 Y41.961 Z-1.229
X77.219 Y41.879 Z-1.233
X77.187 Y41.797 Z-1.236
X77.158 Y41.721 Z-1.238
X77.129 Y41.644 Z-1.241
X77.099 Y41.568 Z-1.244
X77.068 Y41.493 Z-1.247
X77.034 Y41.412 Z-1.25
X77 Y41.331 Z-1.253
X76.965 Y41.25 Z-1.256
X76.93 Y41.17 Z-1.259
X76.861 Y41.007 Z-1.265
X76.758 Y40.766 Z-1.275
X76.691 Y40.61 Z-1.281
X76.657 Y40.533 Z-1.284
X76.621 Y40.456 Z-1.286
X76.585 Y40.379 Z-1.289
X76.549 Y40.303 Z-1.292
X76.512 Y40.227 Z-1.295
X76.436 Y40.067 Z-1.301
X76.323 Y39.831 Z-1.311
X76.249 Y39.676 Z-1.317
X76.212 Y39.599 Z-1.32
X76.173 Y39.522 Z-1.323
X76.134 Y39.446 Z-1.326
X76.095 Y39.37 Z-1.329
X76.055 Y39.294 Z-1.332
X75.973 Y39.14 Z-1.338
X75.85 Y38.909 Z-1.347
X75.767 Y38.753 Z-1.353
X75.726 Y38.675 Z-1.356
X75.687 Y38.602 Z-1.359
X75.647 Y38.529 Z-1.362
X75.607 Y38.457 Z-1.365
X75.566 Y38.385 Z-1.368
X75.477 Y38.234 Z-1.374
X75.211 Y37.78 Z-1.392
X75.168 Y37.706 Z-1.395
X75.124 Y37.633 Z-1.398
X75.08 Y37.56 Z-1.401
X75.036 Y37.486 Z-1.404
X74.99 Y37.414 Z-1.407
X74.707 Y36.975 Z-1.425
X74.613 Y36.829 Z-1.431
X74.567 Y36.758 Z-1.434
X74.521 Y36.687 Z-1.437
X74.475 Y36.616 Z-1.44
X74.427 Y36.544 Z-1.443
X74.378 Y36.473 Z-1.446
X74.328 Y36.402 Z-1.449
X74.278 Y36.331 Z-1.452
X74.024 Y35.971 Z-1.468
X73.874 Y35.758 Z-1.477
X73.824 Y35.688 Z-1.48
X73.774 Y35.619 Z-1.483
X73.722 Y35.551 Z-1.486
X73.671 Y35.483 Z-1.489
X73.618 Y35.414 Z-1.492
X73.19 Y34.858 Z-1.516
X73.137 Y34.791 Z-1.519
X73.083 Y34.724 Z-1.522
X73.029 Y34.658 Z-1.525
X72.975 Y34.591 Z-1.528
X72.469 Y33.989 Z-1.556
X72.413 Y33.923 Z-1.559
X72.356 Y33.858 Z-1.562
X72.3 Y33.793 Z-1.565
X72.242 Y33.729 Z-1.568
X71.77 Y33.212 Z-1.592
X71.711 Y33.148 Z-1.595
X71.594 Y33.021 Z-1.601
X71.535 Y32.96 Z-1.604
X71.475 Y32.899 Z-1.607
X71.415 Y32.838 Z-1.61
X71.29 Y32.713 Z-1.616
X70.979 Y32.4 Z-1.632
X70.917 Y32.337 Z-1.635
X70.857 Y32.277 Z-1.638
X70.796 Y32.217 Z-1.641
X70.735 Y32.158 Z-1.644
X70.672 Y32.1 Z-1.647
X70.608 Y32.04 Z-1.65
X70.543 Y31.98 Z-1.653
X70.349 Y31.8 Z-1.662
X70.219 Y31.68 Z-1.668
X70.154 Y31.619 Z-1.672
X70.028 Y31.503 Z-1.678
X69.964 Y31.445 Z-1.681
X69.9 Y31.388 Z-1.684
X69.833 Y31.331 Z-1.687
X69.767 Y31.274 Z-1.69
X69.566 Y31.103 Z-1.699
X69.432 Y30.988 Z-1.705
X69.364 Y30.931 Z-1.708
X69.232 Y30.818 Z-1.714
X69.166 Y30.762 Z-1.717
X69.099 Y30.707 Z-1.72
X68.963 Y30.597 Z-1.726
X68.895 Y30.543 Z-1.729
X68.826 Y30.489 Z-1.732
X68.687 Y30.38 Z-1.739
X68.617 Y30.326 Z-1.742
X68.547 Y30.271 Z-1.745
X68.479 Y30.218 Z-1.748
X68.41 Y30.164 Z-1.751
X68.341 Y30.11 Z-1.754
X68.272 Y30.056 Z-1.757
X68.202 Y30.004 Z-1.76
X68.133 Y29.951 Z-1.763
X68.063 Y29.899 Z-1.766
X67.992 Y29.849 Z-1.769
X67.92 Y29.797 Z-1.772
X67.848 Y29.746 Z-1.775
X67.777 Y29.694 Z-1.778
X67.705 Y29.643 Z-1.782
X67.633 Y29.591 Z-1.785
X67.561 Y29.54 Z-1.788
X67.489 Y29.489 Z-1.791
X67.417 Y29.437 Z-1.794
X67.346 Y29.387 Z-1.797
X67.275 Y29.337 Z-1.8
X67.204 Y29.288 Z-1.803
X67.132 Y29.239 Z-1.806
X67.059 Y29.191 Z-1.809
X66.985 Y29.143 Z-1.812
X66.911 Y29.095 Z-1.815
X66.837 Y29.046 Z-1.818
X66.763 Y28.998 Z-1.821
X66.689 Y28.95 Z-1.824
X66.615 Y28.901 Z-1.827
X66.541 Y28.853 Z-1.83
X66.468 Y28.805 Z-1.833
X66.394 Y28.757 Z-1.836
X66.32 Y28.709 Z-1.839
X66.245 Y28.662 Z-1.842
X66.171 Y28.617 Z-1.845
X66.096 Y28.573 Z-1.847
X66.021 Y28.528 Z-1.85
X65.869 Y28.438 Z-1.856
X65.793 Y28.393 Z-1.858
X65.717 Y28.348 Z-1.861
X65.641 Y28.303 Z-1.864
X65.565 Y28.259 Z-1.867
X65.49 Y28.214 Z-1.869
X65.414 Y28.169 Z-1.872
X65.338 Y28.125 Z-1.875
X65.261 Y28.082 Z-1.877
X65.184 Y28.04 Z-1.88
X65.107 Y27.998 Z-1.882
X65.03 Y27.956 Z-1.885
X64.952 Y27.914 Z-1.887
X64.874 Y27.873 Z-1.89
X64.718 Y27.79 Z-1.895
X64.563 Y27.708 Z-1.9
X64.407 Y27.625 Z-1.904
X64.25 Y27.545 Z-1.909
X64.093 Y27.466 Z-1.914
X63.933 Y27.391 Z-1.918
X63.774 Y27.315 Z-1.922
X63.614 Y27.239 Z-1.927
X63.455 Y27.163 Z-1.931
X63.295 Y27.089 Z-1.935
X63.135 Y27.017 Z-1.939
X62.972 Y26.947 Z-1.943
X62.81 Y26.879 Z-1.946
X62.647 Y26.81 Z-1.95
X62.484 Y26.742 Z-1.954
X62.321 Y26.674 Z-1.957
X62.157 Y26.608 Z-1.96
X61.993 Y26.544 Z-1.963
X61.827 Y26.484 Z-1.966
X61.661 Y26.423 Z-1.969
X61.495 Y26.362 Z-1.972
X61.329 Y26.301 Z-1.975
X61.163 Y26.241 Z-1.977
X60.829 Y26.129 Z-1.982
X60.491 Y26.023 Z-1.986
X60.154 Y25.917 Z-1.99
X59.815 Y25.818 Z-1.993
X59.473 Y25.727 Z-1.996
X59.131 Y25.637 Z-1.998
X58.788 Y25.551 Z-1.999
X58.443 Y25.474 Z-2
X58.306 Y25.445
X58.202 Y25.423
X58.168 Y25.415
X58.034 Y25.387
X57.833 Y25.345
X57.632 Y25.306
X57.43 Y25.27
X56.827 Y25.168
X56.625 Y25.135
X56.424 Y25.105
X55.82 Y25.029
X55.619 Y25.004
X55.418 Y24.979
X55.217 Y24.961
X55.016 Y24.943
X54.412 Y24.893
X54.211 Y24.879
X54.009 Y24.868
X53.808 Y24.86
X53.406 Y24.843
X53.204 Y24.834
X53.003 Y24.831
X52.936 Y24.829
X52.802
X52.198
X52.064
X51.997 Y24.831
X51.796 Y24.834
X51.594 Y24.843
X51.192 Y24.86
X50.991 Y24.868
X50.789 Y24.879
X50.588 Y24.893
X49.984 Y24.943
X49.783 Y24.961
X49.582 Y24.979
X49.381 Y25.004
X49.18 Y25.029
X48.576 Y25.105
X48.375 Y25.135
X48.173 Y25.168
X47.57 Y25.27
X47.368 Y25.306
X47.167 Y25.345
X46.966 Y25.387
X46.563 Y25.473
X46.362 Y25.515
X46.161 Y25.562
X45.96 Y25.611
X45.356 Y25.766
X45.155 Y25.819
X45.092 Y25.836
X44.953 Y25.874
X44.35 Y26.057
X44.149 Y26.118
X43.947 Y26.18
X43.776 Y26.238
X43.746 Y26.249
X43.545 Y26.318
X43.142 Y26.458
X42.941 Y26.529
X42.74 Y26.605
X42.646 Y26.641
X42.539 Y26.683
X41.935 Y26.922
X41.734 Y27.006
X41.647 Y27.043
X41.532 Y27.093
X40.929 Y27.362
X40.747 Y27.446
X40.727 Y27.455
X40.526 Y27.551
X39.922 Y27.851
X39.721 Y27.953
X39.539 Y28.049
X38.916 Y28.392
X38.715 Y28.503
X38.514 Y28.622
X38.461 Y28.653
X38.313 Y28.743
X37.796 Y29.056
X37.709 Y29.109
X37.508 Y29.24
X37.482 Y29.257
X37.306 Y29.373
X36.876 Y29.659
X36.703 Y29.778
X36.585 Y29.86
X36.501 Y29.92
X36.03 Y30.263
X35.898 Y30.359
X35.758 Y30.464
X35.696 Y30.511
X35.5 Y30.665
X35.093 Y30.989
X34.994 Y31.068
X34.891 Y31.151
X34.749 Y31.269
X34.283 Y31.672
X34.087 Y31.842
X34.051 Y31.873
X33.885 Y32.023
X33.83 Y32.074
X33.684 Y32.211
X33.282 Y32.589
X33.187 Y32.678
X33.08 Y32.784
X32.985 Y32.879
X32.879 Y32.987
X32.477 Y33.398
X32.395 Y33.483
X32.275 Y33.611
X32.207 Y33.684
X32.074 Y33.831
X31.844 Y34.087
X31.672 Y34.279
X31.663 Y34.288
X31.488 Y34.489
X31.47 Y34.51
X31.321 Y34.69
X30.988 Y35.093
X30.867 Y35.242
X30.825 Y35.294
X30.669 Y35.495
X30.363 Y35.898
X30.263 Y36.03
X30.211 Y36.099
X30.063 Y36.3
X29.922 Y36.501
X29.642 Y36.904
X29.503 Y37.105
X29.458 Y37.172
X29.371 Y37.306
X29.257 Y37.484
X28.986 Y37.91
X28.86 Y38.111
X28.854 Y38.121
X28.739 Y38.313
X28.653 Y38.462
X28.391 Y38.916
X28.277 Y39.118
X28.251 Y39.165
X28.167 Y39.319
X27.848 Y39.929
X27.748 Y40.124
X27.648 Y40.325
X27.364 Y40.929
X27.27 Y41.13
X27.244 Y41.185
X27.18 Y41.331
X27.095 Y41.532
X26.841 Y42.136
X26.759 Y42.337
X26.682 Y42.539
X26.439 Y43.191
X26.384 Y43.344
X26.315 Y43.545
X26.249 Y43.746
X26.118 Y44.149
X26.053 Y44.35
X26.037 Y44.404
X25.992 Y44.551
X25.934 Y44.752
X25.765 Y45.356
X25.711 Y45.557
X25.66 Y45.758
X25.518 Y46.362
X25.471 Y46.563
X25.433 Y46.73
X25.426 Y46.765
X25.387 Y46.966
X25.348 Y47.167
X25.232 Y47.775
X25.199 Y47.972
X25.168 Y48.173
X25.079 Y48.777
X25.051 Y48.978
X25.026 Y49.18
X25.004 Y49.381
X24.941 Y49.984
X24.923 Y50.186
X24.907 Y50.387
X24.869 Y50.991
X24.858 Y51.192
X24.847 Y51.393
X24.842 Y51.594
X24.83 Y52.198
X24.829 Y52.215
X24.826 Y52.399
Y52.601
X24.829 Y52.785
X24.83 Y52.802
X24.842 Y53.406
X24.847 Y53.607
X24.858 Y53.808
X24.869 Y54.009
X24.907 Y54.613
X24.923 Y54.814
X24.941 Y55.016
X25.004 Y55.619
X25.026 Y55.82
X25.051 Y56.022
X25.079 Y56.223
X25.168 Y56.827
X25.199 Y57.028
X25.232 Y57.225
X25.348 Y57.833
X25.387 Y58.034
X25.426 Y58.235
X25.433 Y58.27
X25.471 Y58.437
X25.518 Y58.638
X25.66 Y59.242
X25.711 Y59.443
X25.765 Y59.644
X25.934 Y60.248
X25.992 Y60.449
X26.037 Y60.596
X26.053 Y60.65
X26.118 Y60.851
X26.249 Y61.254
X26.315 Y61.455
X26.384 Y61.656
X26.439 Y61.809
X26.682 Y62.461
X26.759 Y62.663
X26.841 Y62.864
X27.095 Y63.468
X27.18 Y63.669
X27.244 Y63.815
X27.27 Y63.87
X27.364 Y64.071
X27.648 Y64.675
X27.748 Y64.876
X27.848 Y65.071
X28.167 Y65.681
X28.251 Y65.835
X28.277 Y65.882
X28.391 Y66.084
X28.653 Y66.538
X28.739 Y66.687
X28.854 Y66.879
X28.86 Y66.889
X28.986 Y67.09
X29.257 Y67.516
X29.371 Y67.694
X29.458 Y67.828
X29.503 Y67.895
X29.659 Y68.12
X29.922 Y68.499
X30.063 Y68.7
X30.211 Y68.901
X30.263 Y68.97
X30.363 Y69.102
X30.669 Y69.505
X30.825 Y69.706
X30.867 Y69.758
X30.988 Y69.907
X31.321 Y70.31
X31.47 Y70.49
X31.488 Y70.511
X31.663 Y70.712
X31.672 Y70.721
X31.844 Y70.913
X32.074 Y71.169
X32.207 Y71.316
X32.275 Y71.389
X32.395 Y71.517
X32.477 Y71.602
X32.879 Y72.013
X32.985 Y72.121
X33.08 Y72.216
X33.187 Y72.322
X33.282 Y72.411
X33.684 Y72.789
X33.83 Y72.926
X33.885 Y72.977
X34.051 Y73.127
X34.087 Y73.158
X34.283 Y73.328
X34.749 Y73.731
X34.891 Y73.849
X34.994 Y73.932
X35.093 Y74.011
X35.5 Y74.335
X35.696 Y74.489
X35.758 Y74.536
X35.898 Y74.641
X36.03 Y74.737
X36.501 Y75.08
X36.585 Y75.14
X36.703 Y75.222
X36.876 Y75.341
X37.306 Y75.627
X37.482 Y75.743
X37.508 Y75.76
X37.709 Y75.891
X37.796 Y75.944
X38.313 Y76.257
X38.461 Y76.347
X38.514 Y76.378
X38.715 Y76.497
X38.916 Y76.608
X39.539 Y76.951
X39.721 Y77.047
X39.922 Y77.149
X40.526 Y77.449
X40.727 Y77.545
X40.747 Y77.554
X40.929 Y77.638
X41.532 Y77.907
X41.647 Y77.957
X41.734 Y77.994
X41.935 Y78.078
X42.539 Y78.317
X42.646 Y78.359
X42.74 Y78.395
X42.941 Y78.471
X43.142 Y78.542
X43.545 Y78.682
X43.746 Y78.751
X43.776 Y78.762
X43.947 Y78.82
X44.149 Y78.882
X44.35 Y78.943
X44.953 Y79.126
X45.092 Y79.164
X45.155 Y79.181
X45.356 Y79.234
X45.96 Y79.389
X46.161 Y79.438
X46.362 Y79.485
X46.563 Y79.527
X46.966 Y79.613
X47.167 Y79.655
X47.368 Y79.694
X47.57 Y79.73
X48.173 Y79.832
X48.375 Y79.865
X48.576 Y79.895
X49.18 Y79.971
X49.381 Y79.996
X49.582 Y80.021
X49.783 Y80.039
X49.984 Y80.057
X50.588 Y80.107
X50.789 Y80.121
X50.991 Y80.132
X51.192 Y80.14
X51.594 Y80.157
X51.796 Y80.166
X51.997 Y80.169
X52.064 Y80.171
X52.198
X52.802
X52.936
X53.003 Y80.169
X53.204 Y80.166
X53.406 Y80.157
X53.808 Y80.14
X54.009 Y80.132
X54.211 Y80.121
X54.412 Y80.107
X55.016 Y80.057
X55.217 Y80.039
X55.418 Y80.021
X55.619 Y79.996
X55.82 Y79.971
X56.424 Y79.895
X56.625 Y79.865
X56.827 Y79.832
X57.43 Y79.73
X57.632 Y79.694
X57.833 Y79.655
X58.034 Y79.613
X58.437 Y79.527
X58.638 Y79.485
X58.839 Y79.438
X59.04 Y79.389
X59.644 Y79.234
X59.845 Y79.181
X59.908 Y79.164
X60.047 Y79.126
X60.65 Y78.943
X60.851 Y78.882
X61.053 Y78.82
X61.224 Y78.762
X61.254 Y78.751
X61.455 Y78.682
X61.858 Y78.542
X62.059 Y78.471
X62.26 Y78.395
X62.354 Y78.359
X62.461 Y78.317
X63.065 Y78.078
X63.266 Y77.994
X63.353 Y77.957
X63.468 Y77.907
X64.071 Y77.638
X64.253 Y77.554
X64.273 Y77.545
X64.474 Y77.449
X65.078 Y77.149
X65.279 Y77.047
X65.461 Y76.951
X66.084 Y76.608
X66.285 Y76.497
X66.486 Y76.378
X66.539 Y76.347
X66.687 Y76.257
X67.204 Y75.944
X67.291 Y75.891
X67.492 Y75.76
X67.518 Y75.743
X67.694 Y75.627
X68.124 Y75.341
X68.297 Y75.222
X68.415 Y75.14
X68.499 Y75.08
X68.97 Y74.737
X69.102 Y74.641
X69.242 Y74.536
X69.304 Y74.489
X69.5 Y74.335
X69.907 Y74.011
X70.006 Y73.932
X70.109 Y73.849
X70.251 Y73.731
X70.717 Y73.328
X70.913 Y73.158
X70.949 Y73.127
X71.115 Y72.977
X71.17 Y72.926
X71.316 Y72.789
X71.718 Y72.411
X71.813 Y72.322
X71.92 Y72.216
X72.015 Y72.121
X72.121 Y72.013
X72.523 Y71.602
X72.605 Y71.517
X72.725 Y71.389
X72.793 Y71.316
X72.926 Y71.169
X73.156 Y70.913
X73.328 Y70.721
X73.337 Y70.712
X73.512 Y70.511
X73.53 Y70.49
X73.679 Y70.31
X74.012 Y69.907
X74.133 Y69.758
X74.175 Y69.706
X74.331 Y69.505
X74.637 Y69.102
X74.737 Y68.97
X74.789 Y68.901
X74.937 Y68.7
X75.078 Y68.499
X75.358 Y68.096
X75.497 Y67.895
X75.542 Y67.828
X75.629 Y67.694
X75.743 Y67.516
X76.014 Y67.09
X76.14 Y66.889
X76.146 Y66.879
X76.261 Y66.687
X76.347 Y66.538
X76.609 Y66.084
X76.723 Y65.882
X76.749 Y65.835
X76.833 Y65.681
X77.152 Y65.071
X77.252 Y64.876
X77.352 Y64.675
X77.636 Y64.071
X77.73 Y63.87
X77.756 Y63.815
X77.82 Y63.669
X77.905 Y63.468
X78.159 Y62.864
X78.241 Y62.663
X78.318 Y62.461
X78.561 Y61.809
X78.616 Y61.656
X78.685 Y61.455
X78.751 Y61.254
X78.882 Y60.851
X78.947 Y60.65
X78.963 Y60.596
X79.008 Y60.449
X79.066 Y60.248
X79.235 Y59.644
X79.289 Y59.443
X79.34 Y59.242
X79.482 Y58.638
X79.529 Y58.437
X79.567 Y58.27
X79.574 Y58.235
X79.613 Y58.034
X79.652 Y57.833
X79.768 Y57.225
X79.801 Y57.028
X79.832 Y56.827
X79.921 Y56.223
X79.949 Y56.022
X79.974 Y55.82
X79.996 Y55.619
X80.059 Y55.016
X80.077 Y54.814
X80.093 Y54.613
X80.131 Y54.009
X80.142 Y53.808
X80.153 Y53.607
X80.158 Y53.406
X80.17 Y52.802
X80.171 Y52.785
X80.174 Y52.601
Y52.399
X80.171 Y52.215
X80.17 Y52.198
X80.158 Y51.594
X80.153 Y51.393
X80.142 Y51.192
X80.131 Y50.991
X80.093 Y50.387
X80.077 Y50.186
X80.059 Y49.984
X79.996 Y49.381
X79.974 Y49.18
X79.949 Y48.978
X79.921 Y48.777
X79.832 Y48.173
X79.801 Y47.972
X79.768 Y47.775
X79.652 Y47.167
X79.613 Y46.966
X79.574 Y46.765
X79.567 Y46.73
X79.529 Y46.563
X79.482 Y46.362
X79.34 Y45.758
X79.289 Y45.557
X79.235 Y45.356
X79.066 Y44.752
X79.008 Y44.551
X78.963 Y44.404
X78.947 Y44.35
X78.882 Y44.149
X78.751 Y43.746
X78.685 Y43.545
X78.616 Y43.344
X78.561 Y43.191
X78.318 Y42.539
X78.241 Y42.337
X78.159 Y42.136
X77.905 Y41.532
X77.82 Y41.331
X77.756 Y41.185
X77.73 Y41.13
X77.636 Y40.929
X77.352 Y40.325
X77.252 Y40.124
X77.152 Y39.929
X76.833 Y39.319
X76.749 Y39.165
X76.723 Y39.118
X76.609 Y38.916
X76.347 Y38.462
X76.261 Y38.313
X76.146 Y38.121
X76.14 Y38.111
X76.014 Y37.91
X75.743 Y37.484
X75.629 Y37.306
X75.542 Y37.172
X75.497 Y37.105
X75.341 Y36.88
X75.078 Y36.501
X74.937 Y36.3
X74.789 Y36.099
X74.737 Y36.03
X74.637 Y35.898
X74.331 Y35.495
X74.175 Y35.294
X74.133 Y35.242
X74.012 Y35.093
X73.679 Y34.69
X73.53 Y34.51
X73.512 Y34.489
X73.337 Y34.288
X73.328 Y34.279
X73.156 Y34.087
X72.926 Y33.831
X72.793 Y33.684
X72.725 Y33.611
X72.605 Y33.483
X72.523 Y33.398
X72.121 Y32.987
X72.015 Y32.879
X71.92 Y32.784
X71.813 Y32.678
X71.718 Y32.589
X71.316 Y32.211
X71.17 Y32.074
X71.115 Y32.023
X70.949 Y31.873
X70.913 Y31.842
X70.717 Y31.672
X70.251 Y31.269
X70.109 Y31.151
X70.006 Y31.068
X69.907 Y30.989
X69.5 Y30.665
X69.304 Y30.511
X69.242 Y30.464
X69.102 Y30.359
X68.97 Y30.263
X68.499 Y29.92
X68.415 Y29.86
X68.297 Y29.778
X68.124 Y29.659
X67.694 Y29.373
X67.518 Y29.257
X67.492 Y29.24
X67.291 Y29.109
X67.204 Y29.056
X66.687 Y28.743
X66.539 Y28.653
X66.486 Y28.622
X66.285 Y28.503
X66.084 Y28.392
X65.461 Y28.049
X65.279 Y27.953
X65.078 Y27.851
X64.474 Y27.551
X64.273 Y27.455
X64.253 Y27.446
X64.071 Y27.362
X63.468 Y27.093
X63.353 Y27.043
X63.266 Y27.006
X63.065 Y26.922
X62.461 Y26.683
X62.354 Y26.641
X62.26 Y26.605
X62.059 Y26.529
X61.858 Y26.458
X61.455 Y26.318
X61.254 Y26.249
X61.224 Y26.238
X61.053 Y26.18
X60.851 Y26.118
X60.65 Y26.057
X60.047 Y25.874
X59.908 Y25.836
X59.845 Y25.819
X59.644 Y25.766
X59.04 Y25.611
X58.839 Y25.562
X58.638 Y25.515
X58.437 Y25.473
X58.168 Y25.415
X57.887 Y25.329
X57.626 Y25.208
X57.362 Y25.057
X57.09 Y24.876
X56.824 Y24.687
X56.562 Y24.503
X56.285 Y24.328
X56.003 Y24.174
X55.717 Y24.054
X55.425 Y23.982
X55.128 Y23.954
X55.106 Y23.953
X55.016 Y23.945 Z-2.004
X54.613 Y23.911 Z-2.018
X54.412 Y23.894 Z-2.025
X54.211 Y23.883 Z-2.032
X54.009 Y23.872 Z-2.039
X53.808 Y23.863 Z-2.046
X53.406 Y23.846 Z-2.06
X53.204 Y23.84 Z-2.067
X53.003 Y23.836 Z-2.074
X52.802 Y23.833 Z-2.081
X52.198 Z-2.102
X51.997 Y23.836 Z-2.109
X51.796 Y23.84 Z-2.116
X51.594 Y23.846 Z-2.123
X51.192 Y23.863 Z-2.137
X50.991 Y23.872 Z-2.144
X50.789 Y23.883 Z-2.151
X50.588 Y23.894 Z-2.158
X50.387 Y23.911 Z-2.165
X49.984 Y23.945 Z-2.179
X49.783 Y23.962 Z-2.187
X49.582 Y23.98 Z-2.194
X49.381 Y24.002 Z-2.201
X49.18 Y24.026 Z-2.208
X48.978 Y24.051 Z-2.215
X48.576 Y24.102 Z-2.229
X48.375 Y24.129 Z-2.236
X48.173 Y24.16 Z-2.243
X47.972 Y24.192 Z-2.25
X47.368 Y24.294 Z-2.272
X47.167 Y24.332 Z-2.279
X46.966 Y24.371 Z-2.286
X46.765 Y24.412 Z-2.293
X46.362 Y24.498 Z-2.308
X46.161 Y24.541 Z-2.315
X45.96 Y24.587 Z-2.322
X45.785 Y24.628 Z-2.328
X45.758 Y24.635 Z-2.329
X45.155 Y24.79 Z-2.351
X45.004 Y24.829 Z-2.356
X44.752 Y24.897 Z-2.365
X44.551 Y24.956 Z-2.373
X44.149 Y25.078 Z-2.387
X43.947 Y25.139 Z-2.395
X43.746 Y25.2 Z-2.402
X43.644 Y25.232 Z-2.406
X43.545 Y25.266 Z-2.41
X43.344 Y25.335 Z-2.417
X43.142 Y25.405 Z-2.424
X42.74 Y25.545 Z-2.439
X42.539 Y25.617 Z-2.447
X42.337 Y25.694 Z-2.454
X42.136 Y25.772 Z-2.462
X41.734 Y25.931 Z-2.477
X41.532 Y26.011 Z-2.485
X41.472 Y26.037 Z-2.487
X41.331 Y26.097 Z-2.492
X41.13 Y26.183 Z-2.5
X40.554 Y26.439 Z-2.522
X40.526 Y26.452 Z-2.523
X40.325 Y26.545 Z-2.531
X40.124 Y26.64 Z-2.538
X40.122 Y26.641
X39.922 Y26.74 Z-2.546
X39.52 Y26.939 Z-2.562
X39.316 Y27.043 Z-2.57
X39.118 Y27.145 Z-2.578
X38.937 Y27.244 Z-2.585
X38.571 Y27.446 Z-2.599
X38.514 Y27.477 Z-2.602
X38.313 Y27.589 Z-2.61
X38.208 Y27.647 Z-2.614
X38.111 Y27.703 Z-2.618
X37.869 Y27.848 Z-2.628
X37.709 Y27.945 Z-2.634
X37.306 Y28.189 Z-2.651
X37.205 Y28.251 Z-2.655
X37.105 Y28.315 Z-2.659
X36.895 Y28.452 Z-2.668
X36.703 Y28.579 Z-2.676
X36.3 Y28.847 Z-2.693
X36.289 Y28.854
X36.099 Y28.986 Z-2.701
X36 Y29.056 Z-2.705
X35.898 Y29.128 Z-2.71
X35.444 Y29.458 Z-2.729
X35.294 Y29.569 Z-2.736
X35.093 Y29.721 Z-2.745
X34.913 Y29.86 Z-2.753
X34.489 Y30.197 Z-2.772
X34.407 Y30.263 Z-2.775
X34.288 Y30.36 Z-2.781
X34.159 Y30.464 Z-2.786
X34.087 Y30.526 Z-2.79
X33.684 Y30.874 Z-2.808
X33.483 Y31.048 Z-2.818
X33.46 Y31.068 Z-2.819
X33.282 Y31.226 Z-2.827
X33.235 Y31.269 Z-2.829
X33.08 Y31.413 Z-2.837
X33.019 Y31.47 Z-2.84
X32.59 Y31.873 Z-2.86
X32.477 Y31.981 Z-2.866
X32.384 Y32.074 Z-2.87
X32.275 Y32.182 Z-2.875
X32.183 Y32.275 Z-2.88
X31.789 Y32.678 Z-2.9
X31.672 Y32.8 Z-2.906
X31.47 Y33.016 Z-2.916
X31.411 Y33.08 Z-2.919
X31.049 Y33.483 Z-2.938
X30.87 Y33.684 Z-2.947
X30.696 Y33.885 Z-2.957
X30.665 Y33.921 Z-2.958
X30.263 Y34.408 Z-2.98
X30.197 Y34.489 Z-2.984
X30.034 Y34.69 Z-2.993
X29.918 Y34.839 Z-3
X29.904 Y34.857
X29.877 Y34.891
X29.572 Y35.294
X29.458 Y35.445
X29.42 Y35.495
X29.271 Y35.696
X29.13 Y35.898
X29.056 Y36.005
X28.71 Y36.501
X28.653 Y36.585
X28.577 Y36.703
X28.452 Y36.895
X28.446 Y36.904
X28.318 Y37.105
X28.191 Y37.306
X28.063 Y37.508
X28.049 Y37.53
X27.942 Y37.709
X27.848 Y37.865
X27.822 Y37.91
X27.59 Y38.313
X27.475 Y38.514
X27.363 Y38.715
X27.254 Y38.916
X27.043 Y39.32
X26.939 Y39.52
X26.837 Y39.721
X26.738 Y39.922
X26.548 Y40.325
X26.454 Y40.526
X26.36 Y40.727
X26.27 Y40.929
X26.185 Y41.13
X26.1 Y41.331
X25.93 Y41.734
X25.848 Y41.935
X25.771 Y42.136
X25.695 Y42.337
X25.545 Y42.74
X25.471 Y42.941
X25.433 Y43.051
X25.402 Y43.142
X25.333 Y43.344
X25.137 Y43.947
X25.075 Y44.149
X25.031 Y44.293
X25.013 Y44.35
X24.957 Y44.551
X24.829 Y45.007
X24.789 Y45.155
X24.735 Y45.356
X24.685 Y45.557
X24.59 Y45.96
X24.543 Y46.161
X24.497 Y46.362
X24.451 Y46.563
X24.427 Y46.688
X24.412 Y46.765
X24.373 Y46.966
X24.258 Y47.57
X24.226 Y47.76
X24.192 Y47.972
X24.162 Y48.173
X24.102 Y48.576
X24.073 Y48.777
X24.049 Y48.978
X24.025 Y49.18
X23.961 Y49.783
X23.942 Y49.984
X23.925 Y50.186
X23.91 Y50.387
X23.885 Y50.789
X23.872 Y50.991
X23.862 Y51.192
X23.852 Y51.393
X23.847 Y51.594
X23.839 Y51.997
X23.835 Y52.198
X23.831 Y52.399
Y52.601
X23.835 Y52.802
X23.839 Y53.003
X23.847 Y53.406
X23.852 Y53.607
X23.862 Y53.808
X23.872 Y54.009
X23.885 Y54.211
X23.91 Y54.613
X23.925 Y54.814
X23.942 Y55.016
X23.961 Y55.217
X24.025 Y55.82
X24.049 Y56.022
X24.073 Y56.223
X24.102 Y56.424
X24.162 Y56.827
X24.192 Y57.028
X24.226 Y57.24
X24.258 Y57.43
X24.373 Y58.034
X24.412 Y58.235
X24.427 Y58.312
X24.451 Y58.437
X24.497 Y58.638
X24.543 Y58.839
X24.59 Y59.04
X24.685 Y59.443
X24.735 Y59.644
X24.789 Y59.845
X24.829 Y59.993
X24.957 Y60.449
X25.013 Y60.65
X25.031 Y60.707
X25.075 Y60.851
X25.137 Y61.053
X25.333 Y61.656
X25.402 Y61.858
X25.433 Y61.949
X25.471 Y62.059
X25.545 Y62.26
X25.695 Y62.663
X25.771 Y62.864
X25.848 Y63.065
X25.93 Y63.266
X26.1 Y63.669
X26.185 Y63.87
X26.27 Y64.071
X26.36 Y64.273
X26.454 Y64.474
X26.548 Y64.675
X26.738 Y65.078
X26.837 Y65.279
X26.939 Y65.48
X27.044 Y65.681
X27.254 Y66.084
X27.363 Y66.285
X27.475 Y66.486
X27.59 Y66.687
X27.822 Y67.09
X27.848 Y67.135
X27.942 Y67.291
X28.049 Y67.47
X28.063 Y67.492
X28.191 Y67.694
X28.318 Y67.895
X28.446 Y68.096
X28.452 Y68.105
X28.577 Y68.297
X28.653 Y68.415
X28.71 Y68.499
X29.056 Y68.995
X29.13 Y69.102
X29.271 Y69.304
X29.42 Y69.505
X29.458 Y69.555
X29.572 Y69.706
X29.877 Y70.109
X30.034 Y70.31
X30.197 Y70.511
X30.263 Y70.592
X30.665 Y71.079
X30.696 Y71.115
X30.87 Y71.316
X31.049 Y71.517
X31.411 Y71.92
X31.47 Y71.984
X31.672 Y72.2
X31.789 Y72.322
X32.183 Y72.725
X32.275 Y72.818
X32.384 Y72.926
X32.477 Y73.019
X32.59 Y73.127
X33.019 Y73.53
X33.08 Y73.587
X33.235 Y73.731
X33.282 Y73.774
X33.46 Y73.932
X33.483 Y73.952
X33.684 Y74.126
X34.087 Y74.474
X34.159 Y74.536
X34.288 Y74.64
X34.407 Y74.737
X34.489 Y74.803
X34.913 Y75.14
X35.093 Y75.279
X35.294 Y75.431
X35.444 Y75.542
X35.898 Y75.872
X36 Y75.944
X36.099 Y76.014
X36.289 Y76.146
X36.3 Y76.153
X36.703 Y76.421
X36.895 Y76.548
X37.105 Y76.685
X37.205 Y76.749
X37.306 Y76.811
X37.709 Y77.055
X37.869 Y77.152
X38.111 Y77.297
X38.208 Y77.353
X38.313 Y77.411
X38.514 Y77.523
X38.571 Y77.554
X38.937 Y77.756
X39.118 Y77.855
X39.316 Y77.957
X39.52 Y78.061
X39.922 Y78.26
X40.122 Y78.359
X40.124 Y78.36
X40.325 Y78.455
X40.526 Y78.548
X40.554 Y78.561
X41.13 Y78.817
X41.331 Y78.903
X41.472 Y78.963
X41.532 Y78.989
X41.734 Y79.069
X42.136 Y79.228
X42.337 Y79.306
X42.539 Y79.383
X42.74 Y79.455
X43.142 Y79.595
X43.344 Y79.665
X43.545 Y79.734
X43.644 Y79.768
X43.746 Y79.8
X43.947 Y79.861
X44.149 Y79.922
X44.551 Y80.044
X44.752 Y80.103
X45.004 Y80.171
X45.155 Y80.21
X45.758 Y80.365
X45.785 Y80.372
X45.96 Y80.413
X46.161 Y80.459
X46.362 Y80.502
X46.765 Y80.588
X46.966 Y80.629
X47.167 Y80.668
X47.368 Y80.705
X47.972 Y80.808
X48.173 Y80.84
X48.375 Y80.871
X48.576 Y80.898
X48.978 Y80.949
X49.18 Y80.974
X49.381 Y80.998
X49.582 Y81.02
X49.783 Y81.038
X49.984 Y81.055
X50.387 Y81.089
X50.588 Y81.106
X50.789 Y81.117
X50.991 Y81.128
X51.192 Y81.137
X51.594 Y81.154
X51.796 Y81.16
X51.997 Y81.164
X52.198 Y81.167
X52.802
X53.003 Y81.164
X53.204 Y81.16
X53.406 Y81.154
X53.808 Y81.137
X54.009 Y81.128
X54.211 Y81.117
X54.412 Y81.106
X54.613 Y81.089
X55.016 Y81.055
X55.217 Y81.038
X55.418 Y81.02
X55.619 Y80.998
X55.82 Y80.974
X56.022 Y80.949
X56.424 Y80.898
X56.625 Y80.871
X56.827 Y80.84
X57.028 Y80.808
X57.632 Y80.705
X57.833 Y80.668
X58.034 Y80.629
X58.235 Y80.588
X58.638 Y80.502
X58.839 Y80.459
X59.04 Y80.413
X59.215 Y80.372
X59.242 Y80.365
X59.845 Y80.21
X59.996 Y80.171
X60.248 Y80.103
X60.449 Y80.044
X60.851 Y79.922
X61.053 Y79.861
X61.254 Y79.8
X61.356 Y79.768
X61.455 Y79.734
X61.656 Y79.665
X61.858 Y79.595
X62.26 Y79.455
X62.461 Y79.383
X62.663 Y79.306
X62.864 Y79.228
X63.266 Y79.069
X63.468 Y78.989
X63.528 Y78.963
X63.669 Y78.903
X63.87 Y78.817
X64.446 Y78.561
X64.474 Y78.548
X64.675 Y78.455
X64.876 Y78.36
X64.878 Y78.359
X65.078 Y78.26
X65.48 Y78.061
X65.684 Y77.957
X65.882 Y77.855
X66.063 Y77.756
X66.429 Y77.554
X66.486 Y77.523
X66.687 Y77.411
X66.792 Y77.353
X66.889 Y77.297
X67.131 Y77.152
X67.291 Y77.055
X67.694 Y76.811
X67.795 Y76.749
X67.895 Y76.685
X68.105 Y76.548
X68.297 Y76.421
X68.7 Y76.153
X68.711 Y76.146
X68.901 Y76.014
X69 Y75.944
X69.102 Y75.872
X69.556 Y75.542
X69.706 Y75.431
X69.907 Y75.279
X70.087 Y75.14
X70.511 Y74.803
X70.593 Y74.737
X70.712 Y74.64
X70.841 Y74.536
X70.913 Y74.474
X71.316 Y74.126
X71.517 Y73.952
X71.54 Y73.932
X71.718 Y73.774
X71.765 Y73.731
X71.92 Y73.587
X71.981 Y73.53
X72.41 Y73.127
X72.523 Y73.019
X72.616 Y72.926
X72.725 Y72.818
X72.817 Y72.725
X73.211 Y72.322
X73.328 Y72.2
X73.53 Y71.984
X73.589 Y71.92
X73.951 Y71.517
X74.13 Y71.316
X74.304 Y71.115
X74.335 Y71.079
X74.737 Y70.592
X74.803 Y70.511
X74.966 Y70.31
X75.123 Y70.109
X75.428 Y69.706
X75.542 Y69.555
X75.58 Y69.505
X75.729 Y69.304
X75.87 Y69.102
X75.944 Y68.995
X76.29 Y68.499
X76.347 Y68.415
X76.423 Y68.297
X76.548 Y68.105
X76.554 Y68.096
X76.682 Y67.895
X76.809 Y67.694
X76.937 Y67.492
X76.951 Y67.47
X77.058 Y67.291
X77.152 Y67.135
X77.178 Y67.09
X77.41 Y66.687
X77.525 Y66.486
X77.637 Y66.285
X77.746 Y66.084
X77.957 Y65.68
X78.061 Y65.48
X78.163 Y65.279
X78.262 Y65.078
X78.452 Y64.675
X78.546 Y64.474
X78.64 Y64.273
X78.73 Y64.071
X78.815 Y63.87
X78.9 Y63.669
X79.07 Y63.266
X79.152 Y63.065
X79.229 Y62.864
X79.305 Y62.663
X79.455 Y62.26
X79.529 Y62.059
X79.567 Y61.949
X79.598 Y61.858
X79.667 Y61.656
X79.863 Y61.053
X79.925 Y60.851
X79.969 Y60.707
X79.987 Y60.65
X80.043 Y60.449
X80.171 Y59.993
X80.211 Y59.845
X80.265 Y59.644
X80.315 Y59.443
X80.41 Y59.04
X80.457 Y58.839
X80.503 Y58.638
X80.549 Y58.437
X80.573 Y58.312
X80.588 Y58.235
X80.627 Y58.034
X80.742 Y57.43
X80.774 Y57.24
X80.808 Y57.028
X80.838 Y56.827
X80.898 Y56.424
X80.927 Y56.223
X80.951 Y56.022
X80.975 Y55.82
X81.039 Y55.217
X81.058 Y55.016
X81.075 Y54.814
X81.09 Y54.613
X81.115 Y54.211
X81.128 Y54.009
X81.138 Y53.808
X81.148 Y53.607
X81.153 Y53.406
X81.161 Y53.003
X81.165 Y52.802
X81.169 Y52.601
Y52.399
X81.165 Y52.198
X81.161 Y51.997
X81.153 Y51.594
X81.148 Y51.393
X81.138 Y51.192
X81.128 Y50.991
X81.115 Y50.789
X81.09 Y50.387
X81.075 Y50.186
X81.058 Y49.984
X81.039 Y49.783
X80.975 Y49.18
X80.951 Y48.978
X80.927 Y48.777
X80.898 Y48.576
X80.838 Y48.173
X80.808 Y47.972
X80.774 Y47.76
X80.742 Y47.57
X80.627 Y46.966
X80.588 Y46.765
X80.573 Y46.688
X80.549 Y46.563
X80.503 Y46.362
X80.457 Y46.161
X80.41 Y45.96
X80.315 Y45.557
X80.265 Y45.356
X80.211 Y45.155
X80.171 Y45.007
X80.043 Y44.551
X79.987 Y44.35
X79.969 Y44.293
X79.925 Y44.149
X79.863 Y43.947
X79.667 Y43.344
X79.598 Y43.142
X79.567 Y43.051
X79.529 Y42.941
X79.455 Y42.74
X79.305 Y42.337
X79.229 Y42.136
X79.152 Y41.935
X79.07 Y41.734
X78.9 Y41.331
X78.815 Y41.13
X78.73 Y40.929
X78.64 Y40.727
X78.546 Y40.526
X78.452 Y40.325
X78.262 Y39.922
X78.163 Y39.721
X78.061 Y39.52
X77.956 Y39.319
X77.746 Y38.916
X77.637 Y38.715
X77.525 Y38.514
X77.41 Y38.313
X77.178 Y37.91
X77.152 Y37.865
X77.058 Y37.709
X76.951 Y37.53
X76.937 Y37.508
X76.809 Y37.306
X76.682 Y37.105
X76.554 Y36.904
X76.548 Y36.895
X76.478 Y36.786
X76.423 Y36.703
X76.347 Y36.585
X76.29 Y36.501
X75.944 Y36.005
X75.87 Y35.898
X75.729 Y35.696
X75.58 Y35.495
X75.542 Y35.445
X75.428 Y35.294
X75.123 Y34.891
X74.966 Y34.69
X74.803 Y34.489
X74.737 Y34.408
X74.335 Y33.921
X74.304 Y33.885
X74.13 Y33.684
X73.951 Y33.483
X73.589 Y33.08
X73.53 Y33.016
X73.328 Y32.8
X73.211 Y32.678
X72.817 Y32.275
X72.725 Y32.182
X72.616 Y32.074
X72.523 Y31.981
X72.41 Y31.873
X71.981 Y31.47
X71.92 Y31.413
X71.765 Y31.269
X71.718 Y31.226
X71.54 Y31.068
X71.517 Y31.048
X71.316 Y30.874
X70.913 Y30.526
X70.841 Y30.464
X70.712 Y30.36
X70.593 Y30.263
X70.511 Y30.197
X70.087 Y29.86
X69.907 Y29.721
X69.706 Y29.569
X69.556 Y29.458
X69.102 Y29.128
X69 Y29.056
X68.901 Y28.986
X68.711 Y28.854
X68.7 Y28.847
X68.297 Y28.579
X68.105 Y28.452
X67.895 Y28.315
X67.795 Y28.251
X67.694 Y28.189
X67.291 Y27.945
X67.131 Y27.848
X66.889 Y27.703
X66.792 Y27.647
X66.687 Y27.589
X66.486 Y27.477
X66.429 Y27.446
X66.063 Y27.244
X65.882 Y27.145
X65.684 Y27.043
X65.48 Y26.939
X65.078 Y26.74
X64.878 Y26.641
X64.876 Y26.64
X64.675 Y26.545
X64.474 Y26.452
X64.446 Y26.439
X63.87 Y26.183
X63.669 Y26.097
X63.528 Y26.037
X63.468 Y26.011
X63.266 Y25.931
X62.864 Y25.772
X62.663 Y25.694
X62.461 Y25.617
X62.26 Y25.545
X61.858 Y25.405
X61.656 Y25.335
X61.455 Y25.266
X61.356 Y25.232
X61.254 Y25.2
X61.053 Y25.139
X60.851 Y25.078
X60.449 Y24.956
X60.248 Y24.897
X59.996 Y24.829
X59.845 Y24.79
X59.242 Y24.635
X59.215 Y24.628
X59.04 Y24.587
X58.839 Y24.541
X58.638 Y24.498
X58.375 Y24.442
X58.235 Y24.412
X58.034 Y24.371
X57.833 Y24.332
X57.632 Y24.294
X57.028 Y24.192
X56.827 Y24.16
X56.625 Y24.129
X56.424 Y24.102
X56.022 Y24.051
X55.82 Y24.026
X55.619 Y24.002
X55.418 Y23.98
X55.217 Y23.962
X55.016 Y23.945
X54.613 Y23.911
X54.412 Y23.894
X54.211 Y23.883
X54.009 Y23.872
X53.808 Y23.863
X53.406 Y23.846
X53.204 Y23.84
X53.003 Y23.836
X52.802 Y23.833
X52.198
X51.997 Y23.836
X51.796 Y23.84
X51.594 Y23.846
X51.192 Y23.863
X50.991 Y23.872
X50.789 Y23.883
X50.588 Y23.894
X50.387 Y23.911
X49.984 Y23.945
X49.783 Y23.962
X49.582 Y23.98
X49.381 Y24.002
X49.18 Y24.026
X48.978 Y24.051
X48.576 Y24.102
X48.375 Y24.129
X48.173 Y24.16
X47.972 Y24.192
X47.368 Y24.294
X47.167 Y24.332
X46.966 Y24.371
X46.765 Y24.412
X46.362 Y24.498
X46.161 Y24.541
X45.96 Y24.587
X45.785 Y24.628
X45.758 Y24.635
X45.155 Y24.79
X45.004 Y24.829
X44.752 Y24.897
X44.551 Y24.956
X44.149 Y25.078
X43.947 Y25.139
X43.746 Y25.2
X43.644 Y25.232
X43.545 Y25.266
X43.344 Y25.335
X43.142 Y25.405
X42.74 Y25.545
X42.539 Y25.617
X42.337 Y25.694
X42.136 Y25.772
X41.734 Y25.931
X41.532 Y26.011
X41.472 Y26.037
X41.331 Y26.097
X41.13 Y26.183
X40.554 Y26.439
X40.526 Y26.452
X40.325 Y26.545
X40.124 Y26.64
X40.122 Y26.641
X39.922 Y26.74
X39.52 Y26.939
X39.316 Y27.043
X39.118 Y27.145
X38.937 Y27.244
X38.571 Y27.446
X38.514 Y27.477
X38.313 Y27.589
X38.208 Y27.647
X38.111 Y27.703
X37.869 Y27.848
X37.709 Y27.945
X37.306 Y28.189
X37.205 Y28.251
X37.105 Y28.315
X36.895 Y28.452
X36.703 Y28.579
X36.3 Y28.847
X36.289 Y28.854
X36.099 Y28.986
X36 Y29.056
X35.898 Y29.128
X35.444 Y29.458
X35.294 Y29.569
X35.093 Y29.721
X34.913 Y29.86
X34.489 Y30.197
X34.407 Y30.263
X34.288 Y30.36
X34.159 Y30.464
X34.087 Y30.526
X33.684 Y30.874
X33.483 Y31.048
X33.46 Y31.068
X33.282 Y31.226
X33.235 Y31.269
X33.08 Y31.413
X33.019 Y31.47
X32.59 Y31.873
X32.477 Y31.981
X32.384 Y32.074
X32.275 Y32.182
X32.183 Y32.275
X31.789 Y32.678
X31.672 Y32.8
X31.47 Y33.016
X31.411 Y33.08
X31.049 Y33.483
X30.87 Y33.684
X30.696 Y33.885
X30.665 Y33.921
X30.263 Y34.408
X30.197 Y34.489
X30.034 Y34.69
X29.904 Y34.857
X29.707 Y35.073
X29.468 Y35.266
X29.203 Y35.437
X28.937 Y35.592
X28.644 Y35.754
X28.35 Y35.915
X28.065 Y36.083
X27.807 Y36.267
X27.573 Y36.475
X27.38 Y36.709
X27.219 Y36.963
X27.207 Y36.982
X27.133 Y37.105 Z-3.005
X27.012 Y37.306 Z-3.014
X26.894 Y37.508 Z-3.022
X26.661 Y37.91 Z-3.038
X26.641 Y37.946 Z-3.039
X26.549 Y38.111 Z-3.046
X26.438 Y38.313 Z-3.054
X26.33 Y38.514 Z-3.062
X26.12 Y38.916 Z-3.078
X26.037 Y39.078 Z-3.084
X25.914 Y39.319 Z-3.094
X25.836 Y39.479 Z-3.1
X25.627 Y39.922 Z-3.117
X25.533 Y40.124 Z-3.125
X25.433 Y40.337 Z-3.133
X25.349 Y40.526 Z-3.14
X25.232 Y40.802 Z-3.151
X25.178 Y40.929 Z-3.155
X25.009 Y41.331 Z-3.171
X24.927 Y41.532 Z-3.178
X24.772 Y41.935 Z-3.193
X24.697 Y42.136 Z-3.201
X24.622 Y42.337 Z-3.208
X24.548 Y42.539 Z-3.216
X24.478 Y42.74 Z-3.223
X24.409 Y42.941 Z-3.231
X24.341 Y43.142 Z-3.238
X24.211 Y43.545 Z-3.253
X24.148 Y43.746 Z-3.26
X24.086 Y43.947 Z-3.268
X24.025 Y44.149 Z-3.275
Y44.151
X23.969 Y44.35 Z-3.282
X23.913 Y44.551 Z-3.29
X23.857 Y44.752 Z-3.297
X23.749 Y45.155 Z-3.311
X23.7 Y45.356 Z-3.319
X23.605 Y45.758 Z-3.333
X23.559 Y45.96 Z-3.34
X23.512 Y46.161 Z-3.348
X23.467 Y46.362 Z-3.355
X23.428 Y46.563 Z-3.362
X23.389 Y46.765 Z-3.369
X23.35 Y46.966 Z-3.376
X23.273 Y47.368 Z-3.391
X23.239 Y47.57 Z-3.398
X23.207 Y47.771 Z-3.405
X23.175 Y47.972 Z-3.412
X23.116 Y48.375 Z-3.426
X23.086 Y48.576 Z-3.433
X23.061 Y48.777 Z-3.44
X23.037 Y48.978 Z-3.447
X23.018 Y49.134 Z-3.453
X22.971 Y49.582 Z-3.469
X22.951 Y49.783 Z-3.476
X22.916 Y50.186 Z-3.49
X22.903 Y50.387 Z-3.497
X22.877 Y50.789 Z-3.511
X22.866 Y50.991 Z-3.518
X22.856 Y51.192 Z-3.525
X22.846 Y51.393 Z-3.532
X22.842 Y51.594 Z-3.539
X22.837 Y51.796 Z-3.546
X22.833 Y51.997 Z-3.553
X22.826 Y52.399 Z-3.567
Y52.601 Z-3.574
X22.833 Y53.003 Z-3.588
X22.837 Y53.204 Z-3.595
X22.842 Y53.406 Z-3.602
X22.846 Y53.607 Z-3.609
X22.856 Y53.808 Z-3.616
X22.866 Y54.009 Z-3.623
X22.877 Y54.211 Z-3.63
X22.903 Y54.613 Z-3.644
X22.916 Y54.814 Z-3.652
X22.951 Y55.217 Z-3.666
X22.971 Y55.418 Z-3.673
X23.018 Y55.866 Z-3.688
X23.037 Y56.022 Z-3.694
X23.061 Y56.223 Z-3.701
X23.086 Y56.424 Z-3.708
X23.116 Y56.625 Z-3.715
X23.175 Y57.028 Z-3.729
X23.207 Y57.229 Z-3.736
X23.239 Y57.43 Z-3.744
X23.273 Y57.632 Z-3.751
X23.35 Y58.034 Z-3.765
X23.389 Y58.235 Z-3.772
X23.428 Y58.437 Z-3.779
X23.467 Y58.638 Z-3.786
X23.512 Y58.839 Z-3.794
X23.559 Y59.04 Z-3.801
X23.605 Y59.242 Z-3.808
X23.7 Y59.644 Z-3.823
X23.749 Y59.845 Z-3.83
X23.857 Y60.248 Z-3.844
X23.913 Y60.449 Z-3.852
X23.969 Y60.65 Z-3.859
X24.025 Y60.849 Z-3.866
Y60.851
X24.086 Y61.053 Z-3.874
X24.148 Y61.254 Z-3.881
X24.211 Y61.455 Z-3.888
X24.341 Y61.858 Z-3.903
X24.409 Y62.059 Z-3.91
X24.478 Y62.26 Z-3.918
X24.548 Y62.461 Z-3.925
X24.622 Y62.663 Z-3.933
X24.697 Y62.864 Z-3.94
X24.772 Y63.065 Z-3.948
X24.927 Y63.468 Z-3.963
X25.009 Y63.669 Z-3.97
X25.178 Y64.071 Z-3.986
X25.232 Y64.198 Z-3.991
X25.334 Y64.437 Z-4
X25.342 Y64.458
X25.349 Y64.474
X25.433 Y64.663
X25.533 Y64.876
X25.627 Y65.078
X25.836 Y65.521
X25.914 Y65.681
X26.037 Y65.922
X26.12 Y66.084
X26.33 Y66.486
X26.438 Y66.687
X26.549 Y66.889
X26.641 Y67.054
X26.661 Y67.09
X26.894 Y67.492
X27.012 Y67.694
X27.133 Y67.895
X27.244 Y68.079
X27.511 Y68.499
X27.64 Y68.7
X27.771 Y68.901
X27.848 Y69.019
X27.906 Y69.102
X28.185 Y69.505
X28.251 Y69.598
X28.452 Y69.885
X28.467 Y69.907
X28.617 Y70.109
X28.769 Y70.31
X28.854 Y70.423
X29.074 Y70.712
X29.23 Y70.913
X29.458 Y71.195
X29.557 Y71.316
X29.86 Y71.683
X29.89 Y71.718
X30.062 Y71.917
X30.239 Y72.121
X30.263 Y72.147
X30.601 Y72.523
X30.665 Y72.594
X30.787 Y72.725
X30.975 Y72.926
X31.068 Y73.023
X31.367 Y73.328
X31.47 Y73.433
X31.768 Y73.731
X31.873 Y73.832
X32.193 Y74.133
X32.275 Y74.21
X32.477 Y74.398
X32.625 Y74.536
X32.678 Y74.583
X32.879 Y74.758
X33.08 Y74.933
X33.32 Y75.14
X33.483 Y75.28
X33.556 Y75.341
X33.885 Y75.607
X34.056 Y75.743
X34.31 Y75.944
X34.489 Y76.082
X34.69 Y76.234
X34.841 Y76.347
X35.118 Y76.548
X35.294 Y76.676
X35.399 Y76.749
X35.696 Y76.958
X35.898 Y77.093
X36.099 Y77.227
X36.29 Y77.353
X36.6 Y77.554
X36.703 Y77.62
X36.904 Y77.743
X37.105 Y77.864
X37.258 Y77.957
X37.593 Y78.158
X37.709 Y78.226
X38.111 Y78.449
X38.514 Y78.67
X38.683 Y78.762
X38.715 Y78.778
X39.078 Y78.963
X39.118 Y78.983
X39.319 Y79.083
X39.52 Y79.183
X39.721 Y79.282
X40.124 Y79.469
X40.325 Y79.559
X40.526 Y79.649
X40.727 Y79.738
X40.797 Y79.768
X41.13 Y79.909
X41.277 Y79.969
X41.734 Y80.15
X41.786 Y80.171
X42.136 Y80.305
X42.315 Y80.372
X42.74 Y80.52
X42.894 Y80.573
X43.142 Y80.659
X43.344 Y80.727
X43.497 Y80.774
X43.746 Y80.85
X43.947 Y80.911
X44.35 Y81.033
X44.551 Y81.089
X44.878 Y81.177
X44.953 Y81.197
X45.356 Y81.3
X45.557 Y81.351
X45.96 Y81.444
X46.161 Y81.488
X46.592 Y81.579
X46.765 Y81.613
X46.966 Y81.653
X47.167 Y81.691
X47.368 Y81.725
X47.695 Y81.78
X47.771 Y81.793
X48.173 Y81.857
X48.375 Y81.885
X48.777 Y81.936
X48.978 Y81.961
X49.18 Y81.986
X49.381 Y82.011
X49.582 Y82.029
X49.783 Y82.047
X49.984 Y82.064
X50.387 Y82.098
X50.588 Y82.113
X50.991 Y82.134
X51.192 Y82.143
X51.594 Y82.16
X51.796 Y82.165
X51.997 Y82.169
X52.198 Y82.172
X52.399
X52.601
X52.802
X53.003 Y82.169
X53.204 Y82.165
X53.406 Y82.16
X53.808 Y82.143
X54.009 Y82.134
X54.412 Y82.113
X54.613 Y82.098
X55.016 Y82.064
X55.217 Y82.047
X55.418 Y82.029
X55.619 Y82.011
X55.82 Y81.986
X56.022 Y81.961
X56.223 Y81.936
X56.625 Y81.885
X56.827 Y81.857
X57.229 Y81.793
X57.305 Y81.78
X57.632 Y81.725
X57.833 Y81.691
X58.034 Y81.653
X58.235 Y81.613
X58.408 Y81.579
X58.839 Y81.488
X59.04 Y81.444
X59.443 Y81.351
X59.644 Y81.3
X60.047 Y81.197
X60.122 Y81.177
X60.449 Y81.089
X60.65 Y81.033
X61.053 Y80.911
X61.254 Y80.85
X61.503 Y80.774
X61.656 Y80.727
X61.858 Y80.659
X62.106 Y80.573
X62.26 Y80.52
X62.685 Y80.372
X62.864 Y80.305
X63.214 Y80.171
X63.266 Y80.15
X63.723 Y79.969
X63.87 Y79.909
X64.203 Y79.768
X64.273 Y79.738
X64.474 Y79.649
X64.675 Y79.559
X64.876 Y79.469
X65.279 Y79.282
X65.48 Y79.183
X65.681 Y79.083
X65.882 Y78.983
X65.922 Y78.963
X66.285 Y78.778
X66.317 Y78.762
X66.486 Y78.67
X66.889 Y78.449
X67.291 Y78.226
X67.407 Y78.158
X67.742 Y77.957
X67.895 Y77.864
X68.096 Y77.743
X68.297 Y77.62
X68.4 Y77.554
X68.71 Y77.353
X68.901 Y77.227
X69.102 Y77.093
X69.304 Y76.958
X69.601 Y76.749
X69.706 Y76.676
X70.109 Y76.383
X70.159 Y76.347
X70.31 Y76.234
X70.511 Y76.082
X70.69 Y75.944
X70.944 Y75.743
X71.115 Y75.607
X71.444 Y75.341
X71.517 Y75.28
X71.68 Y75.14
X71.92 Y74.933
X72.121 Y74.758
X72.322 Y74.583
X72.375 Y74.536
X72.523 Y74.398
X72.725 Y74.21
X72.807 Y74.133
X73.127 Y73.832
X73.232 Y73.731
X73.53 Y73.433
X73.633 Y73.328
X73.932 Y73.023
X74.025 Y72.926
X74.213 Y72.725
X74.335 Y72.594
X74.399 Y72.523
X74.737 Y72.147
X74.761 Y72.121
X74.938 Y71.917
X75.11 Y71.718
X75.14 Y71.683
X75.443 Y71.316
X75.542 Y71.195
X75.77 Y70.913
X75.926 Y70.712
X76.146 Y70.423
X76.231 Y70.31
X76.383 Y70.109
X76.533 Y69.907
X76.548 Y69.885
X76.749 Y69.598
X76.815 Y69.505
X77.094 Y69.102
X77.152 Y69.019
X77.229 Y68.901
X77.36 Y68.7
X77.489 Y68.499
X77.756 Y68.079
X77.867 Y67.895
X77.988 Y67.694
X78.106 Y67.492
X78.339 Y67.09
X78.359 Y67.054
X78.451 Y66.889
X78.562 Y66.687
X78.67 Y66.486
X78.88 Y66.084
X78.963 Y65.922
X79.086 Y65.681
X79.164 Y65.521
X79.373 Y65.078
X79.467 Y64.876
X79.567 Y64.663
X79.651 Y64.474
X79.768 Y64.198
X79.822 Y64.071
X79.991 Y63.669
X80.073 Y63.468
X80.228 Y63.065
X80.303 Y62.864
X80.378 Y62.663
X80.452 Y62.461
X80.522 Y62.26
X80.591 Y62.059
X80.659 Y61.858
X80.789 Y61.455
X80.852 Y61.254
X80.914 Y61.053
X80.975 Y60.851
Y60.849
X81.031 Y60.65
X81.087 Y60.449
X81.143 Y60.248
X81.251 Y59.845
X81.3 Y59.644
X81.395 Y59.242
X81.441 Y59.04
X81.488 Y58.839
X81.533 Y58.638
X81.572 Y58.437
X81.611 Y58.235
X81.65 Y58.034
X81.727 Y57.632
X81.761 Y57.43
X81.793 Y57.229
X81.825 Y57.028
X81.884 Y56.625
X81.914 Y56.424
X81.939 Y56.223
X81.963 Y56.022
X81.982 Y55.866
X82.029 Y55.418
X82.049 Y55.217
X82.084 Y54.814
X82.097 Y54.613
X82.123 Y54.211
X82.134 Y54.009
X82.144 Y53.808
X82.154 Y53.607
X82.158 Y53.406
X82.163 Y53.204
X82.167 Y53.003
X82.174 Y52.601
Y52.399
X82.167 Y51.997
X82.163 Y51.796
X82.158 Y51.594
X82.154 Y51.393
X82.144 Y51.192
X82.134 Y50.991
X82.123 Y50.789
X82.097 Y50.387
X82.084 Y50.186
X82.049 Y49.783
X82.029 Y49.582
X81.982 Y49.134
X81.963 Y48.978
X81.939 Y48.777
X81.914 Y48.576
X81.884 Y48.375
X81.825 Y47.972
X81.793 Y47.771
X81.761 Y47.57
X81.727 Y47.368
X81.65 Y46.966
X81.611 Y46.765
X81.572 Y46.563
X81.533 Y46.362
X81.488 Y46.161
X81.441 Y45.96
X81.395 Y45.758
X81.3 Y45.356
X81.251 Y45.155
X81.143 Y44.752
X81.087 Y44.551
X81.031 Y44.35
X80.975 Y44.151
Y44.149
X80.914 Y43.947
X80.852 Y43.746
X80.789 Y43.545
X80.659 Y43.142
X80.591 Y42.941
X80.522 Y42.74
X80.452 Y42.539
X80.378 Y42.337
X80.303 Y42.136
X80.228 Y41.935
X80.073 Y41.532
X79.991 Y41.331
X79.822 Y40.929
X79.768 Y40.802
X79.651 Y40.526
X79.567 Y40.337
X79.467 Y40.124
X79.373 Y39.922
X79.164 Y39.479
X79.086 Y39.319
X78.963 Y39.078
X78.88 Y38.916
X78.67 Y38.514
X78.562 Y38.313
X78.451 Y38.111
X78.359 Y37.946
X78.339 Y37.91
X78.106 Y37.508
X77.988 Y37.306
X77.867 Y37.105
X77.756 Y36.921
X77.489 Y36.501
X77.36 Y36.3
X77.229 Y36.099
X77.152 Y35.981
X77.094 Y35.898
X76.815 Y35.495
X76.749 Y35.402
X76.548 Y35.115
X76.533 Y35.093
X76.383 Y34.891
X76.231 Y34.69
X76.146 Y34.577
X75.926 Y34.288
X75.77 Y34.087
X75.542 Y33.805
X75.443 Y33.684
X75.14 Y33.317
X75.11 Y33.282
X74.938 Y33.083
X74.761 Y32.879
X74.737 Y32.853
X74.399 Y32.477
X74.335 Y32.406
X74.213 Y32.275
X74.025 Y32.074
X73.932 Y31.977
X73.633 Y31.672
X73.53 Y31.567
X73.232 Y31.269
X73.127 Y31.168
X72.807 Y30.867
X72.725 Y30.79
X72.523 Y30.602
X72.375 Y30.464
X72.322 Y30.417
X72.121 Y30.242
X71.92 Y30.067
X71.68 Y29.86
X71.517 Y29.72
X71.444 Y29.659
X71.115 Y29.393
X70.944 Y29.257
X70.69 Y29.056
X70.511 Y28.918
X70.31 Y28.766
X70.159 Y28.653
X69.882 Y28.452
X69.706 Y28.324
X69.601 Y28.251
X69.304 Y28.042
X69.102 Y27.907
X68.901 Y27.773
X68.71 Y27.647
X68.4 Y27.446
X68.297 Y27.38
X68.096 Y27.257
X67.895 Y27.136
X67.742 Y27.043
X67.407 Y26.842
X67.291 Y26.774
X66.889 Y26.551
X66.486 Y26.33
X66.317 Y26.238
X66.285 Y26.222
X65.922 Y26.037
X65.882 Y26.017
X65.681 Y25.917
X65.48 Y25.817
X65.279 Y25.718
X64.876 Y25.531
X64.675 Y25.441
X64.474 Y25.351
X64.273 Y25.262
X64.203 Y25.232
X63.87 Y25.091
X63.723 Y25.031
X63.266 Y24.85
X63.214 Y24.829
X62.864 Y24.695
X62.685 Y24.628
X62.26 Y24.48
X62.106 Y24.427
X61.858 Y24.341
X61.656 Y24.273
X61.503 Y24.226
X61.254 Y24.15
X61.053 Y24.089
X60.65 Y23.967
X60.449 Y23.911
X60.122 Y23.823
X60.047 Y23.803
X59.644 Y23.7
X59.443 Y23.649
X59.04 Y23.556
X58.839 Y23.512
X58.408 Y23.421
X58.235 Y23.387
X58.034 Y23.347
X57.833 Y23.309
X57.632 Y23.275
X57.305 Y23.22
X57.229 Y23.207
X56.827 Y23.143
X56.625 Y23.115
X56.223 Y23.064
X56.022 Y23.039
X55.82 Y23.014
X55.619 Y22.989
X55.418 Y22.971
X55.217 Y22.953
X55.016 Y22.936
X54.613 Y22.902
X54.412 Y22.887
X54.009 Y22.866
X53.808 Y22.857
X53.406 Y22.84
X53.204 Y22.835
X53.003 Y22.831
X52.802 Y22.828
X52.601
X52.399
X52.198
X51.997 Y22.831
X51.796 Y22.835
X51.594 Y22.84
X51.192 Y22.857
X50.991 Y22.866
X50.588 Y22.887
X50.387 Y22.902
X49.984 Y22.936
X49.783 Y22.953
X49.582 Y22.971
X49.381 Y22.989
X49.18 Y23.014
X48.978 Y23.039
X48.777 Y23.064
X48.375 Y23.115
X48.173 Y23.143
X47.771 Y23.207
X47.695 Y23.22
X47.368 Y23.275
X47.167 Y23.309
X46.966 Y23.347
X46.765 Y23.387
X46.592 Y23.421
X46.161 Y23.512
X45.96 Y23.556
X45.557 Y23.649
X45.356 Y23.7
X44.953 Y23.803
X44.878 Y23.823
X44.551 Y23.911
X44.35 Y23.967
X43.947 Y24.089
X43.746 Y24.15
X43.497 Y24.226
X43.344 Y24.273
X43.142 Y24.341
X42.894 Y24.427
X42.74 Y24.48
X42.315 Y24.628
X42.136 Y24.695
X41.786 Y24.829
X41.734 Y24.85
X41.277 Y25.031
X41.13 Y25.091
X40.797 Y25.232
X40.727 Y25.262
X40.526 Y25.351
X40.325 Y25.441
X40.124 Y25.531
X39.721 Y25.718
X39.52 Y25.817
X39.319 Y25.917
X39.118 Y26.017
X39.078 Y26.037
X38.715 Y26.222
X38.683 Y26.238
X38.514 Y26.33
X38.111 Y26.551
X37.709 Y26.774
X37.593 Y26.842
X37.258 Y27.043
X37.105 Y27.136
X36.904 Y27.257
X36.703 Y27.38
X36.6 Y27.446
X36.29 Y27.647
X36.099 Y27.773
X35.898 Y27.907
X35.696 Y28.042
X35.399 Y28.251
X35.294 Y28.324
X34.891 Y28.617
X34.841 Y28.653
X34.69 Y28.766
X34.489 Y28.918
X34.31 Y29.056
X34.056 Y29.257
X33.885 Y29.393
X33.556 Y29.659
X33.483 Y29.72
X33.32 Y29.86
X33.08 Y30.067
X32.879 Y30.242
X32.678 Y30.417
X32.625 Y30.464
X32.477 Y30.602
X32.275 Y30.79
X32.193 Y30.867
X31.873 Y31.168
X31.768 Y31.269
X31.47 Y31.567
X31.367 Y31.672
X31.068 Y31.977
X30.975 Y32.074
X30.787 Y32.275
X30.665 Y32.406
X30.601 Y32.477
X30.263 Y32.853
X30.239 Y32.879
X30.062 Y33.083
X29.89 Y33.282
X29.86 Y33.317
X29.557 Y33.684
X29.458 Y33.805
X29.23 Y34.087
X29.11 Y34.241
X29.074 Y34.288
X28.854 Y34.577
X28.769 Y34.69
X28.617 Y34.891
X28.467 Y35.093
X28.452 Y35.115
X28.251 Y35.402
X28.185 Y35.495
X27.906 Y35.898
X27.848 Y35.981
X27.771 Y36.099
X27.64 Y36.3
X27.511 Y36.501
X27.244 Y36.921
X27.133 Y37.105
X27.012 Y37.306
X26.894 Y37.508
X26.661 Y37.91
X26.641 Y37.946
X26.549 Y38.111
X26.438 Y38.313
X26.33 Y38.514
X26.12 Y38.916
X26.037 Y39.078
X25.914 Y39.319
X25.836 Y39.479
X25.627 Y39.922
X25.533 Y40.124
X25.433 Y40.337
X25.349 Y40.526
X25.232 Y40.802
X25.178 Y40.929
X25.009 Y41.331
X24.927 Y41.532
X24.772 Y41.935
X24.697 Y42.136
X24.622 Y42.337
X24.548 Y42.539
X24.478 Y42.74
X24.409 Y42.941
X24.341 Y43.142
X24.211 Y43.545
X24.148 Y43.746
X24.086 Y43.947
X24.025 Y44.149
Y44.151
X23.969 Y44.35
X23.913 Y44.551
X23.857 Y44.752
X23.749 Y45.155
X23.7 Y45.356
X23.605 Y45.758
X23.559 Y45.96
X23.512 Y46.161
X23.467 Y46.362
X23.428 Y46.563
X23.389 Y46.765
X23.35 Y46.966
X23.273 Y47.368
X23.239 Y47.57
X23.207 Y47.771
X23.175 Y47.972
X23.116 Y48.375
X23.086 Y48.576
X23.061 Y48.777
X23.037 Y48.978
X23.018 Y49.134
X22.971 Y49.582
X22.951 Y49.783
X22.916 Y50.186
X22.903 Y50.387
X22.877 Y50.789
X22.866 Y50.991
X22.856 Y51.192
X22.846 Y51.393
X22.842 Y51.594
X22.837 Y51.796
X22.833 Y51.997
X22.826 Y52.399
Y52.601
X22.833 Y53.003
X22.837 Y53.204
X22.842 Y53.406
X22.846 Y53.607
X22.856 Y53.808
X22.866 Y54.009
X22.877 Y54.211
X22.903 Y54.613
X22.916 Y54.814
X22.951 Y55.217
X22.971 Y55.418
X23.018 Y55.866
X23.037 Y56.022
X23.061 Y56.223
X23.086 Y56.424
X23.116 Y56.625
X23.175 Y57.028
X23.207 Y57.229
X23.239 Y57.43
X23.273 Y57.632
X23.35 Y58.034
X23.389 Y58.235
X23.428 Y58.437
X23.467 Y58.638
X23.512 Y58.839
X23.559 Y59.04
X23.605 Y59.242
X23.7 Y59.644
X23.749 Y59.845
X23.857 Y60.248
X23.913 Y60.449
X23.969 Y60.65
X24.025 Y60.849
Y60.851
X24.086 Y61.053
X24.148 Y61.254
X24.211 Y61.455
X24.341 Y61.858
X24.409 Y62.059
X24.478 Y62.26
X24.548 Y62.461
X24.622 Y62.663
X24.697 Y62.864
X24.772 Y63.065
X24.927 Y63.468
X25.009 Y63.669
X25.178 Y64.071
X25.232 Y64.198
X25.342 Y64.458
X25.358 Y64.494
X25.373 Y64.531
X25.406 Y64.604
X25.473 Y64.748
X25.621 Y65.067 Z-4.001
X25.769 Y65.386 Z-4.003
X25.907 Y65.678 Z-4.004
X26.066 Y65.994 Z-4.007
X26.221 Y66.3 Z-4.01
X26.379 Y66.61 Z-4.014
X26.538 Y66.905 Z-4.018
X26.699 Y67.2 Z-4.022
X26.786 Y67.355 Z-4.025
X26.872 Y67.509 Z-4.027
X26.954 Y67.656 Z-4.03
X27.038 Y67.801 Z-4.033
X27.125 Y67.95 Z-4.036
X27.211 Y68.099 Z-4.039
X27.3 Y68.244 Z-4.042
X27.388 Y68.389 Z-4.045
X27.477 Y68.536 Z-4.048
X27.567 Y68.682 Z-4.052
X27.66 Y68.833 Z-4.056
X27.753 Y68.983 Z-4.059
X27.841 Y69.119 Z-4.063
X27.93 Y69.255 Z-4.067
X28.027 Y69.402 Z-4.071
X28.124 Y69.548 Z-4.075
X28.222 Y69.695 Z-4.079
X28.319 Y69.842 Z-4.084
X28.409 Y69.977 Z-4.088
X28.503 Y70.11 Z-4.092
X28.604 Y70.253 Z-4.097
X28.706 Y70.395 Z-4.102
X28.808 Y70.538 Z-4.107
X28.91 Y70.681 Z-4.112
X29.01 Y70.821 Z-4.117
X29.06 Y70.891 Z-4.119
X29.111 Y70.96 Z-4.122
X29.162 Y71.027 Z-4.124
X29.213 Y71.093 Z-4.127
X29.264 Y71.16 Z-4.129
X29.314 Y71.227 Z-4.132
X29.366 Y71.295 Z-4.134
X29.419 Y71.364 Z-4.137
X29.472 Y71.432 Z-4.14
X29.524 Y71.5 Z-4.142
X29.578 Y71.569 Z-4.145
X29.631 Y71.638 Z-4.148
X29.684 Y71.706 Z-4.151
X29.737 Y71.775 Z-4.153
X29.79 Y71.842 Z-4.156
X29.843 Y71.908 Z-4.159
X29.897 Y71.973 Z-4.162
X29.95 Y72.039 Z-4.165
X30.005 Y72.106 Z-4.167
X30.059 Y72.173 Z-4.17
X30.114 Y72.24 Z-4.173
X30.169 Y72.307 Z-4.176
X30.225 Y72.373 Z-4.179
X30.281 Y72.44 Z-4.182
X30.337 Y72.506 Z-4.185
X30.447 Y72.638 Z-4.191
X30.502 Y72.703 Z-4.194
X30.557 Y72.767 Z-4.197
X30.613 Y72.831 Z-4.2
X30.67 Y72.896 Z-4.203
X30.726 Y72.961 Z-4.206
X30.783 Y73.026 Z-4.209
X30.839 Y73.091 Z-4.212
X30.896 Y73.155 Z-4.215
X30.954 Y73.219 Z-4.218
X31.012 Y73.282 Z-4.221
X31.07 Y73.346 Z-4.224
X31.129 Y73.409 Z-4.227
X31.187 Y73.473 Z-4.23
X31.245 Y73.537 Z-4.233
X31.304 Y73.6 Z-4.236
X31.364 Y73.665 Z-4.239
X31.424 Y73.73 Z-4.242
X31.485 Y73.795 Z-4.245
X31.545 Y73.859 Z-4.248
X31.601 Y73.92 Z-4.251
X31.658 Y73.979 Z-4.254
X31.717 Y74.038 Z-4.257
X31.775 Y74.097 Z-4.26
X31.899 Y74.222 Z-4.266
X32.023 Y74.347 Z-4.272
X32.085 Y74.409 Z-4.275
X32.21 Y74.534 Z-4.282
X32.272 Y74.596 Z-4.285
X32.389 Y74.713 Z-4.29
X32.447 Y74.77 Z-4.293
X32.507 Y74.827 Z-4.296
X32.636 Y74.947 Z-4.302
X32.83 Y75.128 Z-4.312
X32.894 Y75.188 Z-4.315
X33.087 Y75.367 Z-4.324
X33.216 Y75.485 Z-4.33
X33.28 Y75.545 Z-4.333
X33.343 Y75.6 Z-4.336
X33.47 Y75.711 Z-4.342
X33.534 Y75.766 Z-4.345
X33.666 Y75.881 Z-4.351
X33.732 Y75.938 Z-4.354
X33.798 Y75.994 Z-4.357
X33.932 Y76.108 Z-4.363
X34.066 Y76.222 Z-4.369
X34.13 Y76.277 Z-4.372
X34.196 Y76.331 Z-4.375
X34.533 Y76.604 Z-4.39
X34.602 Y76.66 Z-4.393
X34.67 Y76.712 Z-4.396
X35.008 Y76.977 Z-4.411
X35.076 Y77.029 Z-4.414
X35.214 Y77.133 Z-4.42
X35.422 Y77.29 Z-4.43
X35.491 Y77.342 Z-4.433
X35.561 Y77.393 Z-4.436
X35.917 Y77.647 Z-4.451
X35.989 Y77.699 Z-4.454
X36.345 Y77.948 Z-4.469
X36.416 Y77.998 Z-4.472
X36.487 Y78.046 Z-4.475
X36.923 Y78.331 Z-4.493
X37.071 Y78.427 Z-4.499
X37.36 Y78.615 Z-4.512
X37.432 Y78.66 Z-4.514
X37.507 Y78.705 Z-4.518
X37.882 Y78.931 Z-4.533
X37.957 Y78.976 Z-4.536
X38.329 Y79.197 Z-4.551
X38.404 Y79.241 Z-4.554
X38.48 Y79.284 Z-4.557
X38.863 Y79.496 Z-4.572
X38.94 Y79.538 Z-4.575
X39.172 Y79.664 Z-4.585
X39.326 Y79.746 Z-4.591
X39.401 Y79.787 Z-4.594
X39.478 Y79.826 Z-4.597
X39.633 Y79.905 Z-4.603
X39.791 Y79.986 Z-4.609
X39.87 Y80.026 Z-4.612
X39.947 Y80.065 Z-4.615
X40.103 Y80.141 Z-4.621
X40.181 Y80.179 Z-4.624
X40.337 Y80.255 Z-4.63
X40.415 Y80.293 Z-4.633
X40.494 Y80.33 Z-4.636
X40.654 Y80.405 Z-4.643
X40.893 Y80.516 Z-4.652
X40.971 Y80.552 Z-4.655
X41.05 Y80.587 Z-4.658
X41.129 Y80.622 Z-4.661
X41.29 Y80.692 Z-4.667
X41.451 Y80.762 Z-4.673
X41.532 Y80.797 Z-4.676
X41.695 Y80.866 Z-4.682
X41.776 Y80.901 Z-4.685
X41.935 Y80.968 Z-4.691
X42.014 Y81.001 Z-4.694
X42.094 Y81.033 Z-4.697
X42.259 Y81.097 Z-4.704
X42.506 Y81.193 Z-4.713
X42.588 Y81.225 Z-4.716
X42.834 Y81.319 Z-4.725
X42.996 Y81.382 Z-4.731
X43.078 Y81.413 Z-4.734
X43.16 Y81.442 Z-4.737
X43.326 Y81.499 Z-4.743
X43.408 Y81.528 Z-4.746
X43.492 Y81.556 Z-4.75
X43.575 Y81.585 Z-4.753
X43.659 Y81.614 Z-4.756
X43.743 Y81.642 Z-4.759
X43.826 Y81.671 Z-4.762
X43.91 Y81.699 Z-4.765
X43.994 Y81.728 Z-4.768
X44.077 Y81.756 Z-4.771
X44.159 Y81.784 Z-4.774
X44.242 Y81.811 Z-4.777
X44.325 Y81.836 Z-4.78
X44.408 Y81.861 Z-4.783
X44.492 Y81.887 Z-4.786
X44.577 Y81.913 Z-4.789
X44.661 Y81.939 Z-4.793
X44.746 Y81.965 Z-4.796
X44.83 Y81.99 Z-4.799
X44.914 Y82.015 Z-4.802
X44.999 Y82.039 Z-4.805
X45.167 Y82.089 Z-4.811
X45.251 Y82.114 Z-4.814
X45.335 Y82.137 Z-4.817
X45.505 Y82.183 Z-4.823
X45.59 Y82.205 Z-4.826
X45.676 Y82.228 Z-4.829
X45.761 Y82.251 Z-4.832
X45.846 Y82.273 Z-4.835
X45.931 Y82.295 Z-4.838
X46.016 Y82.316 Z-4.84
X46.101 Y82.337 Z-4.843
X46.186 Y82.358 Z-4.846
X46.272 Y82.379 Z-4.849
X46.357 Y82.4 Z-4.852
X46.442 Y82.421 Z-4.855
X46.529 Y82.441 Z-4.857
X46.615 Y82.46 Z-4.86
X46.701 Y82.48 Z-4.863
X46.787 Y82.499 Z-4.866
X46.873 Y82.518 Z-4.868
X46.958 Y82.538 Z-4.871
X47.044 Y82.557 Z-4.873
X47.13 Y82.574 Z-4.876
X47.217 Y82.591 Z-4.879
X47.303 Y82.608 Z-4.881
X47.39 Y82.626 Z-4.884
X47.476 Y82.643 Z-4.886
X47.563 Y82.66 Z-4.889
X47.65 Y82.676 Z-4.891
X47.823 Y82.708 Z-4.896
X47.997 Y82.741 Z-4.901
X48.17 Y82.773 Z-4.906
X48.344 Y82.799 Z-4.91
X48.518 Y82.826 Z-4.915
X48.692 Y82.852 Z-4.919
X48.867 Y82.878 Z-4.924
X49.041 Y82.904 Z-4.928
X49.216 Y82.929 Z-4.932
X49.391 Y82.952 Z-4.936
X49.566 Y82.971 Z-4.94
X49.742 Y82.99 Z-4.944
X49.917 Y83.009 Z-4.948
X50.093 Y83.028 Z-4.951
X50.269 Y83.046 Z-4.955
X50.444 Y83.064 Z-4.958
X50.62 Y83.077 Z-4.961
X50.796 Y83.089 Z-4.964
X50.973 Y83.101 Z-4.967
X51.149 Y83.113 Z-4.97
X51.325 Y83.123 Z-4.973
X51.502 Y83.133 Z-4.976
X51.678 Y83.141 Z-4.978
X52.031 Y83.152 Z-4.983
X52.385 Y83.159 Z-4.987
X52.738 Y83.163 Z-4.99
X53.092 Y83.16 Z-4.993
X53.445 Y83.155 Z-4.996
X53.798 Y83.143 Z-4.998
X54.151 Y83.127 Z-4.999
X54.505 Y83.109 Z-5
X54.618 Y83.101
X54.717 Y83.093
X54.731 Y83.092
X55.016 Y83.068
X55.217 Y83.05
X55.619 Y83.015
X55.82 Y82.993
X56.223 Y82.944
X56.424 Y82.919
X56.625 Y82.894
X56.827 Y82.868
X57.028 Y82.837
X57.43 Y82.773
X57.632 Y82.74
X57.833 Y82.706
X58.034 Y82.671
X58.474 Y82.585
X58.638 Y82.553
X58.839 Y82.51
X59.04 Y82.468
X59.242 Y82.423
X59.644 Y82.33
X59.845 Y82.281
X60.248 Y82.178
X60.449 Y82.124
X60.65 Y82.07
X60.851 Y82.016
X60.968 Y81.982
X61.254 Y81.895
X61.455 Y81.834
X61.858 Y81.711
X62.059 Y81.647
X62.461 Y81.508
X62.663 Y81.438
X62.864 Y81.368
X63.065 Y81.298
X63.266 Y81.221
X63.468 Y81.144
X63.669 Y81.067
X63.899 Y80.975
X64.071 Y80.907
X64.273 Y80.824
X64.675 Y80.653
X64.858 Y80.573
X65.078 Y80.475
X65.279 Y80.384
X65.738 Y80.171
X65.882 Y80.1
X66.146 Y79.969
X66.285 Y79.9
X66.687 Y79.695
X66.889 Y79.59
X67.09 Y79.479
X67.291 Y79.369
X67.694 Y79.146
X67.895 Y79.031
X68.344 Y78.762
X68.499 Y78.668
X68.7 Y78.546
X68.901 Y78.421
X69.306 Y78.158
X69.505 Y78.027
X69.706 Y77.893
X69.907 Y77.755
X70.194 Y77.554
X70.31 Y77.474
X70.476 Y77.353
X70.712 Y77.181
X70.752 Y77.152
X70.913 Y77.031
X71.115 Y76.879
X71.285 Y76.749
X71.539 Y76.548
X71.718 Y76.405
X72.038 Y76.146
X72.121 Y76.079
X72.278 Y75.944
X72.523 Y75.733
X72.725 Y75.558
X72.975 Y75.341
X73.127 Y75.202
X73.41 Y74.938
X73.53 Y74.826
X73.731 Y74.637
X73.839 Y74.536
X73.932 Y74.445
X74.243 Y74.133
X74.335 Y74.042
X74.639 Y73.731
X74.737 Y73.628
X75.017 Y73.328
X75.14 Y73.196
X75.382 Y72.926
X75.542 Y72.746
X75.743 Y72.514
X75.909 Y72.322
X76.146 Y72.036
X76.242 Y71.92
X76.568 Y71.517
X76.724 Y71.316
X76.876 Y71.115
X76.951 Y71.017
X77.18 Y70.712
X77.331 Y70.511
X77.353 Y70.479
X77.613 Y70.109
X77.753 Y69.907
X77.893 Y69.706
X77.957 Y69.614
X78.029 Y69.505
X78.29 Y69.102
X78.359 Y68.995
X78.561 Y68.678
X78.671 Y68.499
X78.912 Y68.096
X78.963 Y68.01
X79.164 Y67.661
X79.259 Y67.492
X79.482 Y67.09
X79.567 Y66.93
X79.694 Y66.687
X79.768 Y66.544
X80.003 Y66.084
X80.1 Y65.882
X80.194 Y65.681
X80.289 Y65.48
X80.477 Y65.078
X80.566 Y64.876
X80.737 Y64.474
X80.774 Y64.386
X80.906 Y64.071
X80.975 Y63.906
X80.99 Y63.87
X81.177 Y63.382
X81.221 Y63.266
X81.37 Y62.864
X81.378 Y62.843
X81.441 Y62.663
X81.579 Y62.26
X81.645 Y62.059
X81.711 Y61.858
X81.775 Y61.656
X81.898 Y61.254
X81.957 Y61.053
X82.07 Y60.65
X82.124 Y60.449
X82.232 Y60.047
X82.28 Y59.845
X82.328 Y59.644
X82.375 Y59.443
X82.468 Y59.04
X82.513 Y58.839
X82.552 Y58.638
X82.591 Y58.437
X82.63 Y58.235
X82.707 Y57.833
X82.741 Y57.632
X82.805 Y57.229
X82.836 Y57.028
X82.866 Y56.827
X82.896 Y56.625
X82.921 Y56.424
X82.97 Y56.022
X82.988 Y55.864
X83.014 Y55.619
X83.034 Y55.418
X83.07 Y55.016
X83.087 Y54.814
X83.1 Y54.613
X83.113 Y54.412
X83.124 Y54.211
X83.145 Y53.808
X83.154 Y53.607
X83.163 Y53.204
X83.167 Y53.003
X83.174 Y52.601
Y52.399
X83.167 Y51.997
X83.163 Y51.796
X83.154 Y51.393
X83.145 Y51.192
X83.124 Y50.789
X83.113 Y50.588
X83.1 Y50.387
X83.087 Y50.186
X83.07 Y49.984
X83.034 Y49.582
X83.014 Y49.381
X82.988 Y49.136
X82.97 Y48.978
X82.921 Y48.576
X82.896 Y48.375
X82.866 Y48.173
X82.836 Y47.972
X82.805 Y47.771
X82.741 Y47.368
X82.707 Y47.167
X82.63 Y46.765
X82.591 Y46.563
X82.552 Y46.362
X82.513 Y46.161
X82.468 Y45.96
X82.375 Y45.557
X82.328 Y45.356
X82.28 Y45.155
X82.232 Y44.953
X82.124 Y44.551
X82.07 Y44.35
X81.957 Y43.947
X81.898 Y43.746
X81.775 Y43.344
X81.711 Y43.142
X81.645 Y42.941
X81.579 Y42.74
X81.441 Y42.337
X81.378 Y42.157
X81.37 Y42.136
X81.221 Y41.734
X81.177 Y41.618
X80.99 Y41.13
X80.975 Y41.094
X80.906 Y40.929
X80.774 Y40.614
X80.737 Y40.526
X80.566 Y40.124
X80.477 Y39.922
X80.289 Y39.52
X80.194 Y39.319
X80.1 Y39.118
X80.003 Y38.916
X79.768 Y38.456
X79.694 Y38.313
X79.567 Y38.07
X79.482 Y37.91
X79.259 Y37.508
X79.164 Y37.339
X78.963 Y36.99
X78.912 Y36.904
X78.671 Y36.501
X78.561 Y36.322
X78.359 Y36.005
X78.29 Y35.898
X78.159 Y35.695
X78.029 Y35.495
X77.957 Y35.386
X77.893 Y35.294
X77.753 Y35.093
X77.613 Y34.891
X77.353 Y34.521
X77.331 Y34.489
X77.18 Y34.288
X76.951 Y33.983
X76.876 Y33.885
X76.724 Y33.684
X76.568 Y33.483
X76.242 Y33.08
X76.146 Y32.964
X75.909 Y32.678
X75.743 Y32.486
X75.542 Y32.254
X75.382 Y32.074
X75.14 Y31.804
X75.017 Y31.672
X74.737 Y31.372
X74.639 Y31.269
X74.335 Y30.958
X74.243 Y30.867
X73.932 Y30.555
X73.839 Y30.464
X73.731 Y30.363
X73.53 Y30.174
X73.41 Y30.062
X73.127 Y29.798
X72.975 Y29.659
X72.725 Y29.442
X72.523 Y29.267
X72.278 Y29.056
X72.121 Y28.921
X72.038 Y28.854
X71.718 Y28.595
X71.539 Y28.452
X71.285 Y28.251
X71.115 Y28.121
X70.913 Y27.969
X70.752 Y27.848
X70.712 Y27.819
X70.476 Y27.647
X70.31 Y27.526
X70.194 Y27.446
X69.907 Y27.244
X69.706 Y27.107
X69.505 Y26.973
X69.306 Y26.842
X68.901 Y26.579
X68.7 Y26.454
X68.499 Y26.332
X68.344 Y26.238
X67.895 Y25.969
X67.694 Y25.854
X67.291 Y25.631
X67.09 Y25.521
X66.889 Y25.41
X66.687 Y25.305
X66.285 Y25.1
X66.146 Y25.031
X65.882 Y24.9
X65.738 Y24.829
X65.279 Y24.616
X65.078 Y24.525
X64.858 Y24.427
X64.675 Y24.347
X64.273 Y24.176
X64.071 Y24.093
X63.87 Y24.013
X63.669 Y23.933
X63.468 Y23.856
X63.266 Y23.779
X63.065 Y23.702
X62.864 Y23.632
X62.663 Y23.562
X62.461 Y23.492
X62.059 Y23.353
X61.858 Y23.289
X61.455 Y23.166
X61.254 Y23.105
X60.968 Y23.018
X60.851 Y22.984
X60.65 Y22.93
X60.449 Y22.876
X60.248 Y22.822
X59.845 Y22.719
X59.644 Y22.67
X59.242 Y22.577
X59.04 Y22.532
X58.839 Y22.49
X58.638 Y22.447
X58.474 Y22.415
X58.034 Y22.329
X57.833 Y22.294
X57.632 Y22.26
X57.43 Y22.227
X57.028 Y22.163
X56.827 Y22.132
X56.625 Y22.106
X56.424 Y22.081
X56.223 Y22.056
X55.82 Y22.007
X55.619 Y21.985
X55.217 Y21.95
X55.016 Y21.932
X54.613 Y21.899
X54.412 Y21.886
X54.009 Y21.865
X53.808 Y21.856
X53.607 Y21.847
X53.406 Y21.839
X53.204 Y21.835
X52.802 Y21.828
X52.601 Y21.827
X52.399
X52.198 Y21.828
X51.796 Y21.835
X51.594 Y21.839
X51.393 Y21.847
X51.192 Y21.856
X50.991 Y21.865
X50.588 Y21.886
X50.387 Y21.899
X49.984 Y21.932
X49.783 Y21.95
X49.381 Y21.985
X49.18 Y22.007
X48.777 Y22.056
X48.576 Y22.081
X48.375 Y22.106
X48.173 Y22.132
X47.972 Y22.163
X47.57 Y22.227
X47.368 Y22.26
X47.167 Y22.294
X46.966 Y22.329
X46.526 Y22.415
X46.362 Y22.447
X46.161 Y22.49
X45.96 Y22.532
X45.758 Y22.577
X45.356 Y22.67
X45.155 Y22.719
X44.752 Y22.822
X44.551 Y22.876
X44.35 Y22.93
X44.149 Y22.984
X44.032 Y23.018
X43.746 Y23.105
X43.545 Y23.166
X43.142 Y23.289
X42.941 Y23.353
X42.539 Y23.492
X42.337 Y23.562
X42.136 Y23.632
X41.935 Y23.702
X41.734 Y23.779
X41.532 Y23.856
X41.331 Y23.933
X41.101 Y24.025
X40.929 Y24.093
X40.727 Y24.176
X40.325 Y24.347
X40.142 Y24.427
X39.922 Y24.525
X39.721 Y24.616
X39.262 Y24.829
X39.118 Y24.9
X38.854 Y25.031
X38.715 Y25.1
X38.313 Y25.305
X38.111 Y25.41
X37.91 Y25.521
X37.709 Y25.631
X37.306 Y25.854
X37.105 Y25.969
X36.656 Y26.238
X36.501 Y26.332
X36.3 Y26.454
X36.099 Y26.579
X35.694 Y26.842
X35.495 Y26.973
X35.294 Y27.107
X35.093 Y27.245
X34.806 Y27.446
X34.69 Y27.526
X34.524 Y27.647
X34.288 Y27.819
X34.248 Y27.848
X34.087 Y27.969
X33.885 Y28.121
X33.715 Y28.251
X33.461 Y28.452
X33.282 Y28.595
X32.962 Y28.854
X32.879 Y28.921
X32.722 Y29.056
X32.477 Y29.267
X32.275 Y29.442
X32.025 Y29.659
X31.873 Y29.798
X31.59 Y30.062
X31.47 Y30.174
X31.269 Y30.363
X31.161 Y30.464
X31.068 Y30.555
X30.757 Y30.867
X30.665 Y30.958
X30.361 Y31.269
X30.263 Y31.372
X29.983 Y31.672
X29.86 Y31.804
X29.618 Y32.074
X29.458 Y32.254
X29.257 Y32.486
X29.091 Y32.678
X28.854 Y32.964
X28.758 Y33.08
X28.432 Y33.483
X28.276 Y33.684
X28.124 Y33.885
X28.049 Y33.983
X27.82 Y34.288
X27.669 Y34.489
X27.647 Y34.521
X27.387 Y34.891
X27.247 Y35.093
X27.107 Y35.294
X27.043 Y35.386
X26.971 Y35.495
X26.71 Y35.898
X26.641 Y36.005
X26.439 Y36.322
X26.329 Y36.501
X26.088 Y36.904
X26.037 Y36.99
X25.836 Y37.339
X25.741 Y37.508
X25.518 Y37.91
X25.433 Y38.07
X25.306 Y38.313
X25.232 Y38.456
X24.997 Y38.916
X24.9 Y39.118
X24.806 Y39.319
X24.711 Y39.52
X24.523 Y39.922
X24.434 Y40.124
X24.263 Y40.526
X24.226 Y40.614
X24.094 Y40.929
X24.025 Y41.094
X24.011 Y41.13
X23.823 Y41.618
X23.779 Y41.734
X23.63 Y42.136
X23.622 Y42.157
X23.559 Y42.337
X23.421 Y42.74
X23.355 Y42.941
X23.289 Y43.142
X23.225 Y43.344
X23.102 Y43.746
X23.043 Y43.947
X22.93 Y44.35
X22.876 Y44.551
X22.768 Y44.953
X22.72 Y45.155
X22.672 Y45.356
X22.625 Y45.557
X22.532 Y45.96
X22.487 Y46.161
X22.448 Y46.362
X22.409 Y46.563
X22.37 Y46.765
X22.293 Y47.167
X22.259 Y47.368
X22.195 Y47.771
X22.164 Y47.972
X22.134 Y48.173
X22.104 Y48.375
X22.079 Y48.576
X22.03 Y48.978
X22.012 Y49.136
X21.986 Y49.381
X21.966 Y49.582
X21.93 Y49.984
X21.913 Y50.186
X21.9 Y50.387
X21.887 Y50.588
X21.876 Y50.789
X21.855 Y51.192
X21.846 Y51.393
X21.837 Y51.796
X21.833 Y51.997
X21.826 Y52.399
Y52.601
X21.833 Y53.003
X21.837 Y53.204
X21.846 Y53.607
X21.855 Y53.808
X21.876 Y54.211
X21.887 Y54.412
X21.9 Y54.613
X21.913 Y54.814
X21.93 Y55.016
X21.966 Y55.418
X21.986 Y55.619
X22.012 Y55.864
X22.03 Y56.022
X22.079 Y56.424
X22.104 Y56.625
X22.134 Y56.827
X22.164 Y57.028
X22.195 Y57.229
X22.259 Y57.632
X22.293 Y57.833
X22.37 Y58.235
X22.409 Y58.437
X22.448 Y58.638
X22.487 Y58.839
X22.532 Y59.04
X22.625 Y59.443
X22.672 Y59.644
X22.72 Y59.845
X22.768 Y60.047
X22.876 Y60.449
X22.93 Y60.65
X23.043 Y61.053
X23.102 Y61.254
X23.225 Y61.656
X23.289 Y61.858
X23.355 Y62.059
X23.421 Y62.26
X23.559 Y62.663
X23.622 Y62.843
X23.63 Y62.864
X23.779 Y63.266
X23.823 Y63.382
X24.011 Y63.87
X24.025 Y63.906
X24.094 Y64.071
X24.226 Y64.386
X24.263 Y64.474
X24.422 Y64.848
X24.434 Y64.876
X24.523 Y65.078
X24.711 Y65.48
X24.806 Y65.681
X24.9 Y65.882
X24.997 Y66.084
X25.232 Y66.544
X25.306 Y66.687
X25.433 Y66.93
X25.518 Y67.09
X25.741 Y67.492
X25.836 Y67.661
X26.037 Y68.01
X26.088 Y68.096
X26.329 Y68.499
X26.439 Y68.678
X26.641 Y68.995
X26.71 Y69.102
X26.971 Y69.505
X27.043 Y69.614
X27.107 Y69.706
X27.247 Y69.907
X27.387 Y70.109
X27.647 Y70.479
X27.669 Y70.511
X27.82 Y70.712
X28.049 Y71.017
X28.124 Y71.115
X28.276 Y71.316
X28.432 Y71.517
X28.758 Y71.92
X28.854 Y72.036
X29.091 Y72.322
X29.257 Y72.514
X29.458 Y72.746
X29.618 Y72.926
X29.86 Y73.196
X29.983 Y73.328
X30.263 Y73.628
X30.361 Y73.731
X30.665 Y74.042
X30.757 Y74.133
X31.068 Y74.445
X31.161 Y74.536
X31.269 Y74.637
X31.47 Y74.826
X31.59 Y74.938
X31.873 Y75.202
X32.025 Y75.341
X32.275 Y75.558
X32.477 Y75.733
X32.722 Y75.944
X32.879 Y76.079
X32.962 Y76.146
X33.282 Y76.405
X33.461 Y76.548
X33.715 Y76.749
X33.885 Y76.879
X34.087 Y77.031
X34.248 Y77.152
X34.288 Y77.181
X34.524 Y77.353
X34.69 Y77.474
X34.806 Y77.554
X35.093 Y77.756
X35.294 Y77.893
X35.495 Y78.027
X35.694 Y78.158
X36.099 Y78.421
X36.3 Y78.546
X36.501 Y78.668
X36.656 Y78.762
X37.105 Y79.031
X37.306 Y79.146
X37.709 Y79.369
X37.91 Y79.479
X38.111 Y79.59
X38.313 Y79.695
X38.715 Y79.9
X38.854 Y79.969
X39.118 Y80.1
X39.262 Y80.171
X39.721 Y80.384
X39.922 Y80.475
X40.142 Y80.573
X40.325 Y80.653
X40.727 Y80.824
X40.929 Y80.907
X41.13 Y80.987
X41.331 Y81.067
X41.532 Y81.144
X41.734 Y81.221
X41.935 Y81.298
X42.136 Y81.368
X42.337 Y81.438
X42.539 Y81.508
X42.941 Y81.647
X43.142 Y81.711
X43.545 Y81.834
X43.746 Y81.895
X44.032 Y81.982
X44.149 Y82.016
X44.35 Y82.07
X44.551 Y82.124
X44.752 Y82.178
X45.155 Y82.281
X45.356 Y82.33
X45.758 Y82.423
X45.96 Y82.468
X46.161 Y82.51
X46.362 Y82.553
X46.526 Y82.585
X46.966 Y82.671
X47.167 Y82.706
X47.368 Y82.74
X47.57 Y82.773
X47.972 Y82.837
X48.173 Y82.868
X48.375 Y82.894
X48.576 Y82.919
X48.777 Y82.944
X49.18 Y82.993
X49.381 Y83.015
X49.783 Y83.05
X49.984 Y83.068
X50.387 Y83.101
X50.588 Y83.114
X50.991 Y83.135
X51.192 Y83.144
X51.393 Y83.153
X51.594 Y83.161
X51.796 Y83.165
X52.198 Y83.172
X52.399 Y83.173
X52.601
X52.802 Y83.172
X53.204 Y83.165
X53.406 Y83.161
X53.607 Y83.153
X53.808 Y83.144
X54.009 Y83.135
X54.412 Y83.114
X54.613 Y83.101
X54.731 Y83.092
X54.774 Y83.088
X54.817 Y83.084
X54.904 Y83.077
X55.076 Y83.063
X55.428 Y83.033 Z-5.001
X55.751 Y83.005 Z-5.003
X56.096 Y82.964 Z-5.005
X56.446 Y82.923 Z-5.007
X56.787 Y82.883 Z-5.01
X57.114 Y82.837 Z-5.014
X57.464 Y82.786 Z-5.018
X57.804 Y82.734 Z-5.023
X58.129 Y82.68 Z-5.027
X58.303 Y82.649 Z-5.03
X58.477 Y82.618 Z-5.033
X58.644 Y82.589 Z-5.036
X58.811 Y82.556 Z-5.039
X58.977 Y82.524 Z-5.042
X59.144 Y82.492 Z-5.045
X59.315 Y82.456 Z-5.049
X59.485 Y82.42 Z-5.052
X59.654 Y82.385 Z-5.056
X59.822 Y82.349 Z-5.06
X59.987 Y82.31 Z-5.064
X60.153 Y82.272 Z-5.068
X60.32 Y82.232 Z-5.072
X60.488 Y82.192 Z-5.076
X60.66 Y82.15 Z-5.08
X60.832 Y82.109 Z-5.085
X60.989 Y82.068 Z-5.089
X61.146 Y82.025 Z-5.093
X61.315 Y81.979 Z-5.098
X61.484 Y81.933 Z-5.102
X61.654 Y81.886 Z-5.107
X61.739 Y81.862 Z-5.11
X61.824 Y81.839 Z-5.112
X61.98 Y81.796 Z-5.117
X62.135 Y81.749 Z-5.122
X62.219 Y81.723 Z-5.124
X62.304 Y81.697 Z-5.127
X62.388 Y81.671 Z-5.13
X62.473 Y81.644 Z-5.132
X62.557 Y81.618 Z-5.135
X62.64 Y81.592 Z-5.138
X62.724 Y81.566 Z-5.141
X62.808 Y81.54 Z-5.143
X62.89 Y81.514 Z-5.146
X62.972 Y81.488 Z-5.149
X63.054 Y81.463 Z-5.152
X63.136 Y81.436 Z-5.154
X63.216 Y81.409 Z-5.157
X63.295 Y81.381 Z-5.16
X63.375 Y81.354 Z-5.163
X63.536 Y81.298 Z-5.168
X63.618 Y81.27 Z-5.171
X63.699 Y81.241 Z-5.174
X63.781 Y81.213 Z-5.177
X63.864 Y81.183 Z-5.18
X63.947 Y81.153 Z-5.183
X64.03 Y81.124 Z-5.186
X64.113 Y81.094 Z-5.189
X64.192 Y81.066 Z-5.192
X64.27 Y81.037 Z-5.195
X64.348 Y81.007 Z-5.198
X64.426 Y80.977 Z-5.201
X64.509 Y80.945 Z-5.204
X64.591 Y80.914 Z-5.207
X64.674 Y80.882 Z-5.21
X64.756 Y80.85 Z-5.213
X64.836 Y80.82 Z-5.216
X64.915 Y80.788 Z-5.219
X64.993 Y80.756 Z-5.222
X65.072 Y80.724 Z-5.225
X65.151 Y80.692 Z-5.228
X65.23 Y80.66 Z-5.231
X65.309 Y80.628 Z-5.234
X65.387 Y80.595 Z-5.237
X65.469 Y80.561 Z-5.24
X65.55 Y80.526 Z-5.243
X65.632 Y80.492 Z-5.246
X65.713 Y80.457 Z-5.249
X65.867 Y80.391 Z-5.255
X65.944 Y80.358 Z-5.258
X66.021 Y80.323 Z-5.261
X66.181 Y80.25 Z-5.267
X66.341 Y80.178 Z-5.273
X66.42 Y80.141 Z-5.276
X66.578 Y80.068 Z-5.282
X66.657 Y80.031 Z-5.286
X66.811 Y79.959 Z-5.291
X66.888 Y79.923 Z-5.294
X66.965 Y79.887 Z-5.297
X67.042 Y79.849 Z-5.3
X67.196 Y79.771 Z-5.306
X67.273 Y79.732 Z-5.309
X67.352 Y79.692 Z-5.313
X67.43 Y79.652 Z-5.316
X67.666 Y79.532 Z-5.325
X67.823 Y79.452 Z-5.331
X67.902 Y79.412 Z-5.334
X67.976 Y79.374 Z-5.337
X68.049 Y79.335 Z-5.34
X68.193 Y79.255 Z-5.346
X68.348 Y79.17 Z-5.352
X68.579 Y79.041 Z-5.361
X68.656 Y78.998 Z-5.364
X68.883 Y78.871 Z-5.373
X68.957 Y78.83 Z-5.376
X69.031 Y78.788 Z-5.379
X69.103 Y78.745 Z-5.382
X69.253 Y78.655 Z-5.388
X69.553 Y78.475 Z-5.4
X69.628 Y78.43 Z-5.403
X69.774 Y78.339 Z-5.409
X69.991 Y78.206 Z-5.418
X70.065 Y78.159 Z-5.421
X70.51 Y77.871 Z-5.44
X70.584 Y77.822 Z-5.443
X70.655 Y77.775 Z-5.446
X70.94 Y77.582 Z-5.458
X71.011 Y77.534 Z-5.461
X71.153 Y77.435 Z-5.467
X71.512 Y77.183 Z-5.482
X71.582 Y77.134 Z-5.485
X71.719 Y77.032 Z-5.491
X71.931 Y76.876 Z-5.501
X72.001 Y76.823 Z-5.504
X72.42 Y76.508 Z-5.522
X72.489 Y76.455 Z-5.525
X72.557 Y76.401 Z-5.528
X72.826 Y76.185 Z-5.54
X72.895 Y76.13 Z-5.543
X73.305 Y75.798 Z-5.562
X73.373 Y75.743 Z-5.565
X73.438 Y75.688 Z-5.568
X73.503 Y75.632 Z-5.571
X73.899 Y75.287 Z-5.589
X73.965 Y75.229 Z-5.592
X74.229 Y74.999 Z-5.604
X74.292 Y74.942 Z-5.607
X74.355 Y74.884 Z-5.61
X74.417 Y74.826 Z-5.613
X74.547 Y74.705 Z-5.619
X74.74 Y74.525 Z-5.629
X74.804 Y74.465 Z-5.632
X74.867 Y74.405 Z-5.635
X74.931 Y74.345 Z-5.638
X75.057 Y74.225 Z-5.644
X75.12 Y74.164 Z-5.647
X75.182 Y74.103 Z-5.65
X75.306 Y73.979 Z-5.656
X75.492 Y73.793 Z-5.665
X75.616 Y73.669 Z-5.671
X75.678 Y73.606 Z-5.674
X75.799 Y73.481 Z-5.681
X75.921 Y73.355 Z-5.687
X75.981 Y73.292 Z-5.69
X76.1 Y73.164 Z-5.696
X76.159 Y73.1 Z-5.699
X76.28 Y72.971 Z-5.705
X76.4 Y72.843 Z-5.711
X76.459 Y72.779 Z-5.714
X76.517 Y72.714 Z-5.717
X76.69 Y72.518 Z-5.726
X76.749 Y72.452 Z-5.729
X76.806 Y72.386 Z-5.732
X76.864 Y72.32 Z-5.736
X76.922 Y72.253 Z-5.739
X76.98 Y72.186 Z-5.742
X77.038 Y72.119 Z-5.745
X77.096 Y72.053 Z-5.748
X77.153 Y71.987 Z-5.751
X77.21 Y71.921 Z-5.754
X77.266 Y71.854 Z-5.757
X77.321 Y71.786 Z-5.76
X77.376 Y71.718 Z-5.763
X77.432 Y71.651 Z-5.766
X77.487 Y71.583 Z-5.769
X77.542 Y71.515 Z-5.772
X77.598 Y71.446 Z-5.775
X77.654 Y71.377 Z-5.778
X77.709 Y71.308 Z-5.782
X77.765 Y71.24 Z-5.785
X77.82 Y71.172 Z-5.788
X77.875 Y71.104 Z-5.791
X77.929 Y71.037 Z-5.794
X77.983 Y70.968 Z-5.797
X78.036 Y70.898 Z-5.8
X78.089 Y70.828 Z-5.803
X78.142 Y70.757 Z-5.806
X78.301 Y70.546 Z-5.815
X78.354 Y70.475 Z-5.818
X78.407 Y70.405 Z-5.821
X78.46 Y70.334 Z-5.824
X78.513 Y70.263 Z-5.827
X78.566 Y70.192 Z-5.83
X78.619 Y70.121 Z-5.833
X78.671 Y70.051 Z-5.836
X78.721 Y69.98 Z-5.839
X78.77 Y69.908 Z-5.842
X78.921 Y69.691 Z-5.85
X78.972 Y69.619 Z-5.853
X79.022 Y69.546 Z-5.856
X79.072 Y69.474 Z-5.859
X79.122 Y69.401 Z-5.861
X79.171 Y69.328 Z-5.864
X79.221 Y69.255 Z-5.867
X79.27 Y69.183 Z-5.869
X79.319 Y69.11 Z-5.872
X79.367 Y69.037 Z-5.875
X79.462 Y68.889 Z-5.88
X79.51 Y68.814 Z-5.882
X79.558 Y68.74 Z-5.885
X79.605 Y68.665 Z-5.887
X79.7 Y68.517 Z-5.892
X79.793 Y68.368 Z-5.897
X79.885 Y68.217 Z-5.902
X79.977 Y68.066 Z-5.907
X80.067 Y67.914 Z-5.911
X80.156 Y67.762 Z-5.916
X80.245 Y67.61 Z-5.92
X80.334 Y67.458 Z-5.925
X80.42 Y67.304 Z-5.929
X80.505 Y67.15 Z-5.933
X80.59 Y66.995 Z-5.937
X80.673 Y66.839 Z-5.941
X80.757 Y66.683 Z-5.945
X80.84 Y66.527 Z-5.948
X80.922 Y66.371 Z-5.952
X81 Y66.214 Z-5.955
X81.078 Y66.055 Z-5.959
X81.156 Y65.896 Z-5.962
X81.233 Y65.737 Z-5.965
X81.311 Y65.578 Z-5.968
X81.388 Y65.42 Z-5.971
X81.461 Y65.259 Z-5.974
X81.532 Y65.098 Z-5.976
X81.604 Y64.936 Z-5.979
X81.746 Y64.612 Z-5.983
X81.886 Y64.288 Z-5.987
X82.016 Y63.959 Z-5.991
X82.146 Y63.63 Z-5.994
X82.271 Y63.3 Z-5.996
X82.391 Y62.967 Z-5.998
X82.507 Y62.633 Z-5.999
X82.619 Y62.298 Z-6
X82.648 Y62.209
X82.676 Y62.123
X82.677 Y62.12
X82.697 Y62.059
X82.881 Y61.455
X82.94 Y61.254
X82.996 Y61.053
X83.051 Y60.851
X83.189 Y60.336
X83.213 Y60.248
X83.261 Y60.047
X83.308 Y59.845
X83.354 Y59.644
X83.447 Y59.242
X83.492 Y59.04
X83.531 Y58.839
X83.609 Y58.437
X83.648 Y58.235
X83.687 Y58.034
X83.722 Y57.833
X83.817 Y57.229
X83.847 Y57.028
X83.877 Y56.827
X83.903 Y56.625
X83.953 Y56.223
X83.977 Y56.022
X83.994 Y55.863
X84.02 Y55.619
X84.038 Y55.418
X84.073 Y55.016
X84.09 Y54.814
X84.102 Y54.613
X84.115 Y54.412
X84.125 Y54.211
X84.146 Y53.808
X84.155 Y53.607
X84.159 Y53.406
X84.163 Y53.204
X84.174 Y52.601
Y52.399
X84.163 Y51.796
X84.159 Y51.594
X84.155 Y51.393
X84.146 Y51.192
X84.125 Y50.789
X84.115 Y50.588
X84.102 Y50.387
X84.09 Y50.186
X84.073 Y49.984
X84.038 Y49.582
X84.02 Y49.381
X83.994 Y49.137
X83.977 Y48.978
X83.953 Y48.777
X83.903 Y48.375
X83.877 Y48.173
X83.847 Y47.972
X83.817 Y47.771
X83.722 Y47.167
X83.687 Y46.966
X83.648 Y46.765
X83.609 Y46.563
X83.531 Y46.161
X83.492 Y45.96
X83.447 Y45.758
X83.354 Y45.356
X83.308 Y45.155
X83.261 Y44.953
X83.213 Y44.752
X83.189 Y44.664
X83.051 Y44.149
X82.996 Y43.947
X82.94 Y43.746
X82.881 Y43.545
X82.697 Y42.941
X82.632 Y42.74
X82.566 Y42.539
X82.498 Y42.337
X82.359 Y41.935
X82.288 Y41.734
X82.183 Y41.451
X82.137 Y41.331
X81.982 Y40.925
X81.906 Y40.727
X81.822 Y40.526
X81.738 Y40.325
X81.652 Y40.124
X81.481 Y39.721
X81.392 Y39.52
X81.177 Y39.058
X81.11 Y38.916
X80.975 Y38.63
X80.919 Y38.514
X80.612 Y37.91
X80.573 Y37.835
X80.507 Y37.709
X80.402 Y37.508
X80.372 Y37.453
X80.067 Y36.904
X79.969 Y36.732
X79.836 Y36.501
X79.768 Y36.387
X79.474 Y35.898
X79.366 Y35.724
X79.221 Y35.495
X79.164 Y35.408
X78.829 Y34.891
X78.762 Y34.792
X78.551 Y34.489
X78.158 Y33.927
X78.128 Y33.885
X77.977 Y33.684
X77.756 Y33.39
X77.674 Y33.282
X77.521 Y33.08
X77.365 Y32.879
X77.039 Y32.477
X76.951 Y32.368
X76.875 Y32.275
X76.708 Y32.074
X76.548 Y31.888
X76.347 Y31.657
X76.185 Y31.47
X76.146 Y31.427
X75.944 Y31.203
X75.82 Y31.068
X75.445 Y30.665
X75.341 Y30.556
X75.14 Y30.35
X75.053 Y30.263
X74.651 Y29.86
X74.536 Y29.747
X74.443 Y29.659
X74.335 Y29.558
X74.229 Y29.458
X73.797 Y29.056
X73.731 Y28.994
X73.573 Y28.854
X73.328 Y28.642
X73.127 Y28.467
X72.877 Y28.251
X72.725 Y28.124
X72.322 Y27.798
X72.133 Y27.647
X71.92 Y27.477
X71.879 Y27.446
X71.718 Y27.325
X71.316 Y27.021
X71.115 Y26.874
X71.07 Y26.842
X70.913 Y26.729
X70.5 Y26.439
X70.31 Y26.307
X70.206 Y26.238
X70.109 Y26.173
X69.907 Y26.04
X69.505 Y25.779
X69.304 Y25.65
X69.102 Y25.528
X68.945 Y25.433
X68.499 Y25.165
X68.297 Y25.046
X68.27 Y25.031
X67.694 Y24.711
X67.492 Y24.601
X67.291 Y24.491
X67.166 Y24.427
X66.687 Y24.183
X66.486 Y24.083
X66.369 Y24.025
X66.285 Y23.983
X66.084 Y23.888
X65.681 Y23.7
X65.51 Y23.622
X65.279 Y23.519
X65.078 Y23.432
X64.578 Y23.22
X64.474 Y23.176
X64.273 Y23.096
X64.075 Y23.018
X63.468 Y22.785
X63.266 Y22.713
X63.065 Y22.643
X62.988 Y22.616
X62.404 Y22.415
X62.26 Y22.366
X62.059 Y22.305
X61.656 Y22.182
X61.455 Y22.121
X61.254 Y22.06
X61.087 Y22.012
X60.65 Y21.895
X60.449 Y21.841
X60.331 Y21.811
X60.248 Y21.789
X60.047 Y21.738
X59.845 Y21.691
X59.443 Y21.598
X59.242 Y21.552
X59.04 Y21.51
X58.839 Y21.467
X58.235 Y21.35
X58.034 Y21.314
X57.833 Y21.28
X57.632 Y21.246
X57.028 Y21.151
X56.827 Y21.124
X56.625 Y21.098
X56.424 Y21.073
X55.875 Y21.006
X55.82 Y21
X55.619 Y20.981
X55.217 Y20.946
X55.016 Y20.929
X54.814 Y20.912
X54.613 Y20.896
X54.412 Y20.885
X54.009 Y20.864
X53.808 Y20.854
X53.607 Y20.846
X53.406 Y20.839
X52.802 Y20.828
X52.601 Y20.827
X52.399
X52.198 Y20.828
X51.594 Y20.839
X51.393 Y20.846
X51.192 Y20.854
X50.991 Y20.864
X50.588 Y20.885
X50.387 Y20.896
X50.186 Y20.912
X49.984 Y20.929
X49.783 Y20.946
X49.381 Y20.981
X49.18 Y21
X49.125 Y21.006
X48.576 Y21.073
X48.375 Y21.098
X48.173 Y21.124
X47.972 Y21.151
X47.368 Y21.246
X47.167 Y21.28
X46.966 Y21.314
X46.765 Y21.35
X46.161 Y21.467
X45.96 Y21.51
X45.758 Y21.552
X45.557 Y21.598
X45.155 Y21.691
X44.953 Y21.738
X44.752 Y21.789
X44.669 Y21.811
X44.551 Y21.841
X44.35 Y21.895
X43.913 Y22.012
X43.746 Y22.06
X43.545 Y22.121
X43.344 Y22.182
X42.941 Y22.305
X42.74 Y22.366
X42.596 Y22.415
X42.012 Y22.616
X41.935 Y22.643
X41.734 Y22.713
X41.532 Y22.785
X40.925 Y23.018
X40.727 Y23.096
X40.526 Y23.176
X40.422 Y23.22
X39.922 Y23.432
X39.721 Y23.519
X39.49 Y23.622
X39.319 Y23.7
X38.916 Y23.888
X38.715 Y23.983
X38.631 Y24.025
X38.514 Y24.083
X38.313 Y24.183
X37.834 Y24.427
X37.709 Y24.491
X37.508 Y24.601
X37.306 Y24.711
X36.73 Y25.031
X36.703 Y25.046
X36.501 Y25.165
X36.055 Y25.433
X35.898 Y25.528
X35.696 Y25.65
X35.495 Y25.779
X35.093 Y26.04
X34.891 Y26.173
X34.794 Y26.238
X34.69 Y26.307
X34.5 Y26.439
X34.087 Y26.729
X33.93 Y26.842
X33.885 Y26.874
X33.684 Y27.021
X33.282 Y27.325
X33.121 Y27.446
X33.08 Y27.477
X32.867 Y27.647
X32.678 Y27.798
X32.275 Y28.124
X32.123 Y28.251
X31.873 Y28.467
X31.659 Y28.653
X31.427 Y28.854
X31.269 Y28.994
X31.068 Y29.182
X30.771 Y29.458
X30.665 Y29.558
X30.557 Y29.659
X30.464 Y29.747
X30.349 Y29.86
X29.947 Y30.263
X29.86 Y30.35
X29.659 Y30.556
X29.555 Y30.665
X29.18 Y31.068
X29.056 Y31.203
X28.854 Y31.427
X28.815 Y31.47
X28.653 Y31.657
X28.452 Y31.888
X28.292 Y32.074
X28.125 Y32.275
X28.049 Y32.368
X27.961 Y32.477
X27.635 Y32.879
X27.479 Y33.08
X27.326 Y33.282
X27.244 Y33.39
X27.023 Y33.684
X26.872 Y33.885
X26.842 Y33.927
X26.449 Y34.489
X26.238 Y34.792
X26.171 Y34.891
X25.836 Y35.408
X25.779 Y35.495
X25.634 Y35.724
X25.526 Y35.898
X25.232 Y36.387
X25.164 Y36.501
X25.031 Y36.732
X24.933 Y36.904
X24.628 Y37.453
X24.598 Y37.508
X24.493 Y37.709
X24.427 Y37.835
X24.388 Y37.91
X24.081 Y38.514
X24.025 Y38.63
X23.89 Y38.916
X23.823 Y39.058
X23.608 Y39.52
X23.519 Y39.721
X23.348 Y40.124
X23.262 Y40.325
X23.178 Y40.526
X23.094 Y40.727
X23.017 Y40.929
X22.863 Y41.331
X22.817 Y41.451
X22.712 Y41.734
X22.641 Y41.935
X22.502 Y42.337
X22.434 Y42.539
X22.368 Y42.74
X22.303 Y42.941
X22.119 Y43.545
X22.06 Y43.746
X22.004 Y43.947
X21.949 Y44.149
X21.811 Y44.664
X21.787 Y44.752
X21.739 Y44.953
X21.692 Y45.155
X21.646 Y45.356
X21.553 Y45.758
X21.508 Y45.96
X21.469 Y46.161
X21.391 Y46.563
X21.352 Y46.765
X21.313 Y46.966
X21.278 Y47.167
X21.183 Y47.771
X21.153 Y47.972
X21.123 Y48.173
X21.097 Y48.375
X21.047 Y48.777
X21.023 Y48.978
X21.006 Y49.137
X20.98 Y49.381
X20.962 Y49.582
X20.927 Y49.984
X20.91 Y50.186
X20.898 Y50.387
X20.885 Y50.588
X20.875 Y50.789
X20.854 Y51.192
X20.845 Y51.393
X20.841 Y51.594
X20.837 Y51.796
X20.826 Y52.399
Y52.601
X20.837 Y53.204
X20.841 Y53.406
X20.845 Y53.607
X20.854 Y53.808
X20.875 Y54.211
X20.885 Y54.412
X20.898 Y54.613
X20.91 Y54.814
X20.927 Y55.016
X20.962 Y55.418
X20.98 Y55.619
X21.006 Y55.863
X21.023 Y56.022
X21.047 Y56.223
X21.097 Y56.625
X21.123 Y56.827
X21.153 Y57.028
X21.183 Y57.229
X21.278 Y57.833
X21.313 Y58.034
X21.352 Y58.235
X21.391 Y58.437
X21.469 Y58.839
X21.508 Y59.04
X21.553 Y59.242
X21.646 Y59.644
X21.692 Y59.845
X21.739 Y60.047
X21.787 Y60.248
X21.811 Y60.336
X21.949 Y60.851
X22.004 Y61.053
X22.06 Y61.254
X22.119 Y61.455
X22.303 Y62.059
X22.368 Y62.26
X22.434 Y62.461
X22.502 Y62.663
X22.641 Y63.065
X22.712 Y63.266
X22.817 Y63.549
X22.863 Y63.669
X23.018 Y64.075
X23.094 Y64.273
X23.178 Y64.474
X23.262 Y64.675
X23.348 Y64.876
X23.519 Y65.279
X23.608 Y65.48
X23.823 Y65.942
X23.89 Y66.084
X24.025 Y66.37
X24.081 Y66.486
X24.388 Y67.09
X24.427 Y67.165
X24.493 Y67.291
X24.598 Y67.492
X24.628 Y67.547
X24.933 Y68.096
X25.031 Y68.268
X25.164 Y68.499
X25.232 Y68.613
X25.526 Y69.102
X25.634 Y69.276
X25.779 Y69.505
X25.836 Y69.592
X26.171 Y70.109
X26.238 Y70.208
X26.449 Y70.511
X26.842 Y71.073
X26.872 Y71.115
X27.023 Y71.316
X27.244 Y71.61
X27.326 Y71.718
X27.479 Y71.92
X27.635 Y72.121
X27.961 Y72.523
X28.049 Y72.632
X28.125 Y72.725
X28.292 Y72.926
X28.452 Y73.112
X28.653 Y73.343
X28.815 Y73.53
X28.854 Y73.573
X29.056 Y73.797
X29.18 Y73.932
X29.555 Y74.335
X29.659 Y74.444
X29.86 Y74.65
X29.947 Y74.737
X30.349 Y75.14
X30.464 Y75.253
X30.557 Y75.341
X30.665 Y75.442
X30.771 Y75.542
X31.203 Y75.944
X31.269 Y76.006
X31.427 Y76.146
X31.672 Y76.358
X31.873 Y76.533
X32.123 Y76.749
X32.275 Y76.876
X32.678 Y77.202
X32.867 Y77.353
X33.08 Y77.523
X33.121 Y77.554
X33.282 Y77.675
X33.684 Y77.979
X33.885 Y78.126
X33.93 Y78.158
X34.087 Y78.271
X34.5 Y78.561
X34.69 Y78.693
X34.794 Y78.762
X34.891 Y78.827
X35.093 Y78.96
X35.495 Y79.221
X35.696 Y79.35
X35.898 Y79.472
X36.055 Y79.567
X36.501 Y79.835
X36.703 Y79.954
X36.73 Y79.969
X37.306 Y80.289
X37.508 Y80.399
X37.709 Y80.509
X37.834 Y80.573
X38.313 Y80.817
X38.514 Y80.917
X38.631 Y80.975
X38.715 Y81.017
X38.916 Y81.112
X39.319 Y81.3
X39.49 Y81.378
X39.721 Y81.481
X39.922 Y81.568
X40.422 Y81.78
X40.526 Y81.824
X40.727 Y81.904
X40.925 Y81.982
X41.532 Y82.215
X41.734 Y82.287
X41.935 Y82.357
X42.012 Y82.384
X42.596 Y82.585
X42.74 Y82.634
X42.941 Y82.695
X43.344 Y82.818
X43.545 Y82.879
X43.746 Y82.94
X43.913 Y82.988
X44.35 Y83.105
X44.551 Y83.159
X44.669 Y83.189
X44.752 Y83.211
X44.953 Y83.262
X45.155 Y83.309
X45.557 Y83.402
X45.758 Y83.448
X45.96 Y83.49
X46.161 Y83.533
X46.765 Y83.65
X46.966 Y83.686
X47.167 Y83.72
X47.368 Y83.754
X47.972 Y83.849
X48.173 Y83.876
X48.375 Y83.902
X48.576 Y83.927
X49.125 Y83.994
X49.18 Y84
X49.381 Y84.019
X49.783 Y84.054
X49.984 Y84.071
X50.186 Y84.088
X50.387 Y84.104
X50.588 Y84.115
X50.991 Y84.136
X51.192 Y84.146
X51.393 Y84.154
X51.594 Y84.161
X52.198 Y84.172
X52.399 Y84.173
X52.601
X52.802 Y84.172
X53.406 Y84.161
X53.607 Y84.154
X53.808 Y84.146
X54.009 Y84.136
X54.412 Y84.115
X54.613 Y84.104
X54.81 Y84.089
X54.814 Y84.088
X55.016 Y84.071
X55.217 Y84.054
X55.619 Y84.019
X55.82 Y84
X55.875 Y83.994
X56.424 Y83.927
X56.625 Y83.902
X56.827 Y83.876
X57.028 Y83.849
X57.632 Y83.754
X57.833 Y83.72
X58.034 Y83.686
X58.235 Y83.65
X58.839 Y83.533
X59.04 Y83.49
X59.242 Y83.448
X59.443 Y83.402
X59.845 Y83.309
X60.047 Y83.262
X60.248 Y83.211
X60.331 Y83.189
X60.449 Y83.159
X60.65 Y83.105
X61.087 Y82.988
X61.254 Y82.94
X61.455 Y82.879
X61.656 Y82.818
X62.059 Y82.695
X62.26 Y82.634
X62.404 Y82.585
X62.988 Y82.384
X63.065 Y82.357
X63.266 Y82.287
X63.468 Y82.215
X64.075 Y81.982
X64.273 Y81.904
X64.474 Y81.824
X64.578 Y81.78
X65.078 Y81.568
X65.279 Y81.481
X65.51 Y81.378
X65.681 Y81.3
X66.084 Y81.112
X66.285 Y81.017
X66.369 Y80.975
X66.486 Y80.917
X66.687 Y80.817
X67.166 Y80.573
X67.291 Y80.509
X67.492 Y80.399
X67.694 Y80.289
X68.27 Y79.969
X68.297 Y79.954
X68.499 Y79.835
X68.945 Y79.567
X69.102 Y79.472
X69.304 Y79.35
X69.505 Y79.221
X69.907 Y78.96
X70.109 Y78.827
X70.206 Y78.762
X70.31 Y78.693
X70.5 Y78.561
X70.913 Y78.271
X71.07 Y78.158
X71.115 Y78.126
X71.316 Y77.979
X71.718 Y77.675
X71.879 Y77.554
X71.92 Y77.523
X72.133 Y77.353
X72.322 Y77.202
X72.725 Y76.876
X72.877 Y76.749
X73.127 Y76.533
X73.341 Y76.347
X73.573 Y76.146
X73.731 Y76.006
X73.932 Y75.818
X74.229 Y75.542
X74.335 Y75.442
X74.443 Y75.341
X74.536 Y75.253
X74.651 Y75.14
X75.053 Y74.737
X75.14 Y74.65
X75.341 Y74.444
X75.445 Y74.335
X75.82 Y73.932
X75.944 Y73.797
X76.146 Y73.573
X76.185 Y73.53
X76.347 Y73.343
X76.548 Y73.112
X76.708 Y72.926
X76.875 Y72.725
X76.951 Y72.632
X77.039 Y72.523
X77.365 Y72.121
X77.521 Y71.92
X77.674 Y71.718
X77.756 Y71.61
X77.977 Y71.316
X78.128 Y71.115
X78.158 Y71.073
X78.551 Y70.511
X78.762 Y70.208
X78.829 Y70.109
X79.164 Y69.592
X79.221 Y69.505
X79.366 Y69.276
X79.474 Y69.102
X79.768 Y68.613
X79.836 Y68.499
X79.969 Y68.268
X80.067 Y68.096
X80.372 Y67.547
X80.402 Y67.492
X80.507 Y67.291
X80.573 Y67.165
X80.612 Y67.09
X80.919 Y66.486
X80.975 Y66.37
X81.11 Y66.084
X81.177 Y65.942
X81.392 Y65.48
X81.481 Y65.279
X81.652 Y64.876
X81.738 Y64.675
X81.822 Y64.474
X81.906 Y64.273
X81.983 Y64.071
X82.137 Y63.669
X82.183 Y63.549
X82.288 Y63.266
X82.359 Y63.065
X82.498 Y62.663
X82.566 Y62.461
X82.632 Y62.26
X82.677 Y62.12
G3 X83.847 Y62.025 I0.604 J0.195
G0 Z2
X60.284 Y54.965
Z1.633
G1 Z-0.439 F1524
X60.291 Y54.968 Z-0.526
X60.309 Y54.976 Z-0.612
X60.34 Y54.989 Z-0.693
X60.383 Y55.008 Z-0.769
X60.435 Y55.03 Z-0.836
X60.497 Y55.057 Z-0.893
X60.566 Y55.086 Z-0.939
X60.64 Y55.119 Z-0.973
X60.719 Y55.153 Z-0.993
X60.8 Y55.187 Z-1
G3 X61.132 Y56.022 I-0.251 J0.583
G1 X61.053 Y56.205
X60.955 Y56.424
X60.859 Y56.625
X60.755 Y56.827
X60.65 Y57.027
X60.412 Y57.43
X60.28 Y57.632
X60.146 Y57.833
X60.047 Y57.972
X59.845 Y58.239
X59.685 Y58.437
X59.516 Y58.638
X59.443 Y58.723
X59.143 Y59.04
X59.04 Y59.143
X58.723 Y59.443
X58.638 Y59.516
X58.437 Y59.685
X58.239 Y59.845
X57.972 Y60.047
X57.833 Y60.146
X57.632 Y60.28
X57.43 Y60.412
X57.027 Y60.65
X56.827 Y60.755
X56.625 Y60.859
X56.424 Y60.955
X56.205 Y61.053
X56.022 Y61.132
X55.619 Y61.285
X55.418 Y61.352
X55.094 Y61.455
X55.016 Y61.476
X54.613 Y61.58
X54.412 Y61.622
X54.211 Y61.662
X54.009 Y61.699
X53.607 Y61.756
X53.406 Y61.777
X53.204 Y61.794
X53.003 Y61.81
X52.601 Y61.821
X52.399
X51.997 Y61.81
X51.796 Y61.794
X51.594 Y61.777
X51.393 Y61.756
X50.991 Y61.699
X50.789 Y61.662
X50.588 Y61.622
X50.387 Y61.58
X49.984 Y61.476
X49.906 Y61.455
X49.582 Y61.352
X49.381 Y61.285
X48.978 Y61.132
X48.795 Y61.053
X48.576 Y60.955
X48.375 Y60.859
X48.173 Y60.755
X47.973 Y60.65
X47.57 Y60.412
X47.368 Y60.28
X47.167 Y60.146
X47.028 Y60.047
X46.761 Y59.845
X46.563 Y59.685
X46.362 Y59.516
X46.277 Y59.443
X45.96 Y59.143
X45.857 Y59.04
X45.557 Y58.723
X45.484 Y58.638
X45.315 Y58.437
X45.155 Y58.239
X44.953 Y57.972
X44.854 Y57.833
X44.72 Y57.632
X44.588 Y57.43
X44.35 Y57.027
X44.245 Y56.827
X44.141 Y56.625
X44.045 Y56.424
X43.947 Y56.205
X43.868 Y56.022
X43.715 Y55.619
X43.648 Y55.418
X43.545 Y55.094
X43.524 Y55.016
X43.42 Y54.613
X43.378 Y54.412
X43.338 Y54.211
X43.301 Y54.009
X43.244 Y53.607
X43.223 Y53.406
X43.206 Y53.204
X43.19 Y53.003
X43.179 Y52.601
Y52.399
X43.19 Y51.997
X43.206 Y51.796
X43.223 Y51.594
X43.244 Y51.393
X43.301 Y50.991
X43.338 Y50.789
X43.378 Y50.588
X43.42 Y50.387
X43.524 Y49.984
X43.545 Y49.906
X43.648 Y49.582
X43.715 Y49.381
X43.868 Y48.978
X43.947 Y48.795
X44.045 Y48.576
X44.141 Y48.375
X44.245 Y48.173
X44.35 Y47.973
X44.588 Y47.57
X44.72 Y47.368
X44.854 Y47.167
X44.953 Y47.028
X45.155 Y46.761
X45.315 Y46.563
X45.484 Y46.362
X45.557 Y46.277
X45.857 Y45.96
X45.96 Y45.857
X46.277 Y45.557
X46.362 Y45.484
X46.563 Y45.315
X46.761 Y45.155
X47.028 Y44.953
X47.167 Y44.854
X47.368 Y44.72
X47.57 Y44.588
X47.973 Y44.35
X48.173 Y44.245
X48.375 Y44.141
X48.576 Y44.045
X48.795 Y43.947
X48.978 Y43.868
X49.381 Y43.715
X49.582 Y43.648
X49.906 Y43.545
X49.984 Y43.524
X50.387 Y43.42
X50.588 Y43.378
X50.789 Y43.338
X50.991 Y43.301
X51.393 Y43.244
X51.594 Y43.223
X51.796 Y43.206
X51.997 Y43.19
X52.399 Y43.179
X52.601
X53.003 Y43.19
X53.204 Y43.206
X53.406 Y43.223
X53.607 Y43.244
X54.009 Y43.301
X54.211 Y43.338
X54.412 Y43.378
X54.613 Y43.42
X55.016 Y43.524
X55.094 Y43.545
X55.418 Y43.648
X55.619 Y43.715
X56.022 Y43.868
X56.205 Y43.947
X56.424 Y44.045
X56.625 Y44.141
X56.827 Y44.245
X57.027 Y44.35
X57.43 Y44.588
X57.632 Y44.72
X57.833 Y44.854
X57.972 Y44.953
X58.239 Y45.155
X58.437 Y45.315
X58.638 Y45.484
X58.723 Y45.557
X59.04 Y45.857
X59.143 Y45.96
X59.443 Y46.277
X59.516 Y46.362
X59.685 Y46.563
X59.845 Y46.761
X60.047 Y47.028
X60.146 Y47.167
X60.28 Y47.368
X60.412 Y47.57
X60.65 Y47.973
X60.755 Y48.173
X60.859 Y48.375
X60.955 Y48.576
X61.053 Y48.795
X61.132 Y48.978
X61.285 Y49.381
X61.352 Y49.582
X61.455 Y49.906
X61.476 Y49.984
X61.58 Y50.387
X61.622 Y50.588
X61.662 Y50.789
X61.699 Y50.991
X61.756 Y51.393
X61.777 Y51.594
X61.794 Y51.796
X61.81 Y51.997
X61.821 Y52.399
Y52.601
X61.81 Y53.003
X61.794 Y53.204
X61.777 Y53.406
X61.756 Y53.607
X61.699 Y54.009
X61.662 Y54.211
X61.622 Y54.412
X61.58 Y54.613
X61.476 Y55.016
X61.455 Y55.094
X61.38 Y55.332
X61.352 Y55.418
X61.285 Y55.619
X61.132 Y56.022
X61.116 Y56.063
X61.098 Y56.103
X61.062 Y56.184
X60.99 Y56.346
X60.839 Y56.665 Z-1.001
X60.676 Y56.979 Z-1.003
X60.498 Y57.285 Z-1.005
X60.312 Y57.585 Z-1.008
X60.115 Y57.879 Z-1.011
X59.903 Y58.162 Z-1.015
X59.684 Y58.439 Z-1.019
X59.455 Y58.709 Z-1.024
X59.334 Y58.838 Z-1.026
X59.213 Y58.966 Z-1.029
X59.091 Y59.095 Z-1.032
X58.963 Y59.216 Z-1.035
X58.834 Y59.337 Z-1.038
X58.705 Y59.458 Z-1.041
X58.57 Y59.573 Z-1.045
X58.435 Y59.687 Z-1.048
X58.3 Y59.8 Z-1.052
X58.158 Y59.906 Z-1.055
X58.017 Y60.013 Z-1.059
X57.875 Y60.118 Z-1.063
X57.728 Y60.216 Z-1.067
X57.581 Y60.314 Z-1.071
X57.433 Y60.411 Z-1.075
X57.281 Y60.501 Z-1.08
X57.128 Y60.591 Z-1.084
X56.975 Y60.678 Z-1.089
X56.818 Y60.76 Z-1.093
X56.661 Y60.841 Z-1.098
X56.503 Y60.92 Z-1.103
X56.341 Y60.992 Z-1.108
X56.261 Y61.028 Z-1.11
X56.18 Y61.064 Z-1.113
X56.099 Y61.1 Z-1.116
X56.017 Y61.133 Z-1.118
X55.935 Y61.165 Z-1.121
X55.852 Y61.196 Z-1.123
X55.77 Y61.228 Z-1.126
X55.687 Y61.259 Z-1.129
X55.604 Y61.291 Z-1.131
X55.521 Y61.319 Z-1.134
X55.436 Y61.346 Z-1.137
X55.352 Y61.373 Z-1.139
X55.268 Y61.4 Z-1.142
X55.184 Y61.427 Z-1.145
X55.1 Y61.453 Z-1.148
X55.014 Y61.477 Z-1.151
X54.929 Y61.499 Z-1.153
X54.843 Y61.521 Z-1.156
X54.757 Y61.543 Z-1.159
X54.672 Y61.565 Z-1.162
X54.586 Y61.587 Z-1.165
X54.5 Y61.605 Z-1.168
X54.413 Y61.622 Z-1.171
X54.326 Y61.639 Z-1.174
X54.24 Y61.657 Z-1.177
X54.153 Y61.674 Z-1.18
X54.066 Y61.691 Z-1.183
X53.979 Y61.704 Z-1.186
X53.891 Y61.716 Z-1.189
X53.804 Y61.728 Z-1.192
X53.716 Y61.741 Z-1.195
X53.629 Y61.753 Z-1.198
X53.541 Y61.765 Z-1.201
X53.453 Y61.773 Z-1.204
X53.365 Y61.78 Z-1.207
X53.277 Y61.788 Z-1.211
X53.101 Y61.803 Z-1.217
X53.012 Y61.809 Z-1.22
X52.924 Y61.812 Z-1.223
X52.747 Y61.817 Z-1.229
X52.571 Y61.822 Z-1.235
X52.482 Y61.823 Z-1.238
X52.305 Y61.818 Z-1.245
X52.217 Y61.816 Z-1.248
X52.04 Y61.811 Z-1.254
X51.952 Y61.807 Z-1.257
X51.864 Y61.8 Z-1.26
X51.688 Y61.785 Z-1.266
X51.512 Y61.77 Z-1.272
X51.424 Y61.761 Z-1.275
X51.249 Y61.736 Z-1.282
X51.161 Y61.723 Z-1.285
X50.986 Y61.699 Z-1.291
X50.899 Y61.684 Z-1.294
X50.812 Y61.667 Z-1.297
X50.639 Y61.632 Z-1.303
X50.465 Y61.598 Z-1.309
X50.379 Y61.578 Z-1.312
X50.208 Y61.534 Z-1.319
X50.123 Y61.512 Z-1.322
X49.951 Y61.468 Z-1.328
X49.867 Y61.443 Z-1.331
X49.782 Y61.416 Z-1.334
X49.614 Y61.362 Z-1.34
X49.445 Y61.308 Z-1.346
X49.362 Y61.278 Z-1.349
X49.197 Y61.215 Z-1.356
X49.115 Y61.184 Z-1.359
X48.949 Y61.121 Z-1.365
X48.868 Y61.086 Z-1.368
X48.707 Y61.013 Z-1.374
X48.465 Y60.905 Z-1.383
X48.386 Y60.865 Z-1.387
X47.993 Y60.662 Z-1.402
X47.917 Y60.617 Z-1.405
X47.689 Y60.483 Z-1.414
X47.613 Y60.438 Z-1.417
X47.537 Y60.393 Z-1.42
X47.316 Y60.245 Z-1.43
X47.169 Y60.147 Z-1.436
X47.096 Y60.097 Z-1.439
X46.743 Y59.832 Z-1.454
X46.673 Y59.778 Z-1.458
X46.335 Y59.493 Z-1.473
X46.268 Y59.434 Z-1.476
X45.947 Y59.131 Z-1.491
X45.884 Y59.069 Z-1.495
X45.581 Y58.748 Z-1.51
X45.522 Y58.682 Z-1.513
X45.236 Y58.344 Z-1.528
X45.182 Y58.275 Z-1.532
X44.916 Y57.922 Z-1.547
X44.865 Y57.849 Z-1.55
X44.62 Y57.482 Z-1.566
X44.573 Y57.406 Z-1.569
X44.439 Y57.178 Z-1.578
X44.349 Y57.026 Z-1.584
X44.307 Y56.948 Z-1.587
X44.104 Y56.555 Z-1.603
X44.068 Y56.474 Z-1.606
X43.96 Y56.232 Z-1.615
X43.887 Y56.071 Z-1.621
X43.856 Y55.988 Z-1.624
X43.73 Y55.658 Z-1.637
X43.698 Y55.575 Z-1.64
X43.671 Y55.491 Z-1.643
X43.618 Y55.323 Z-1.649
X43.564 Y55.154 Z-1.655
X43.538 Y55.07 Z-1.658
X43.494 Y54.899 Z-1.664
X43.472 Y54.813 Z-1.667
X43.427 Y54.642 Z-1.674
X43.406 Y54.556 Z-1.677
X43.389 Y54.469 Z-1.68
X43.355 Y54.296 Z-1.686
X43.32 Y54.123 Z-1.692
X43.304 Y54.036 Z-1.695
X43.28 Y53.861 Z-1.701
X43.267 Y53.773 Z-1.704
X43.243 Y53.598 Z-1.711
X43.232 Y53.51 Z-1.714
X43.225 Y53.422 Z-1.717
X43.21 Y53.246 Z-1.723
X43.195 Y53.07 Z-1.729
X43.19 Y52.982 Z-1.732
X43.185 Y52.805 Z-1.738
X43.182 Y52.716 Z-1.741
X43.177 Y52.54 Z-1.748
X43.178 Y52.451 Z-1.751
X43.18 Y52.363 Z-1.754
X43.185 Y52.186 Z-1.76
X43.19 Y52.01 Z-1.766
X43.196 Y51.921 Z-1.769
X43.21 Y51.745 Z-1.775
X43.218 Y51.657 Z-1.778
X43.233 Y51.481 Z-1.785
X43.244 Y51.393 Z-1.788
X43.256 Y51.306 Z-1.791
X43.268 Y51.218 Z-1.794
X43.281 Y51.131 Z-1.797
X43.293 Y51.043 Z-1.8
X43.306 Y50.956 Z-1.803
X43.322 Y50.869 Z-1.806
X43.339 Y50.782 Z-1.809
X43.356 Y50.695 Z-1.812
X43.374 Y50.609 Z-1.815
X43.391 Y50.522 Z-1.819
X43.408 Y50.435 Z-1.822
X43.43 Y50.349 Z-1.825
X43.452 Y50.264 Z-1.828
X43.474 Y50.178 Z-1.83
X43.496 Y50.093 Z-1.833
X43.518 Y50.007 Z-1.836
X43.54 Y49.921 Z-1.839
X43.567 Y49.837 Z-1.842
X43.594 Y49.753 Z-1.845
X43.62 Y49.669 Z-1.848
X43.647 Y49.585 Z-1.851
X43.674 Y49.5 Z-1.854
X43.701 Y49.416 Z-1.856
X43.733 Y49.334 Z-1.859
X43.764 Y49.251 Z-1.862
X43.796 Y49.168 Z-1.865
X43.827 Y49.086 Z-1.867
X43.859 Y49.003 Z-1.87
X43.891 Y48.921 Z-1.873
X43.927 Y48.84 Z-1.875
X43.963 Y48.759 Z-1.878
X43.999 Y48.679 Z-1.88
X44.035 Y48.598 Z-1.883
X44.071 Y48.517 Z-1.886
X44.109 Y48.437 Z-1.888
X44.19 Y48.28 Z-1.893
X44.271 Y48.123 Z-1.898
X44.353 Y47.967 Z-1.903
X44.443 Y47.814 Z-1.908
X44.533 Y47.662 Z-1.912
X44.624 Y47.511 Z-1.917
X44.723 Y47.364 Z-1.921
X44.821 Y47.217 Z-1.925
X44.921 Y47.071 Z-1.93
X45.027 Y46.93 Z-1.934
X45.134 Y46.789 Z-1.938
X45.242 Y46.649 Z-1.942
X45.356 Y46.514 Z-1.945
X45.47 Y46.379 Z-1.949
X45.587 Y46.246 Z-1.953
X45.708 Y46.118 Z-1.956
X45.83 Y45.989 Z-1.959
X45.954 Y45.863 Z-1.963
X46.082 Y45.742 Z-1.966
X46.211 Y45.62 Z-1.969
X46.342 Y45.502 Z-1.972
X46.477 Y45.388 Z-1.974
X46.612 Y45.274 Z-1.977
X46.891 Y45.057 Z-1.982
X47.176 Y44.848 Z-1.986
X47.47 Y44.652 Z-1.99
X47.772 Y44.468 Z-1.993
X48.08 Y44.293 Z-1.995
X48.394 Y44.131 Z-1.997
X48.715 Y43.983 Z-1.999
X49.04 Y43.845 Z-2
X49.187 Y43.789
X49.297 Y43.747
X49.334 Y43.733
X49.381 Y43.715
X49.582 Y43.648
X49.906 Y43.545
X49.984 Y43.524
X50.387 Y43.42
X50.588 Y43.378
X50.789 Y43.338
X50.991 Y43.301
X51.393 Y43.244
X51.594 Y43.223
X51.796 Y43.206
X51.997 Y43.19
X52.399 Y43.179
X52.601
X53.003 Y43.19
X53.204 Y43.206
X53.406 Y43.223
X53.607 Y43.244
X54.009 Y43.301
X54.211 Y43.338
X54.412 Y43.378
X54.613 Y43.42
X55.016 Y43.524
X55.094 Y43.545
X55.418 Y43.648
X55.619 Y43.715
X56.022 Y43.868
X56.205 Y43.947
X56.424 Y44.045
X56.625 Y44.141
X56.827 Y44.245
X57.027 Y44.35
X57.43 Y44.588
X57.632 Y44.72
X57.833 Y44.854
X57.972 Y44.953
X58.239 Y45.155
X58.437 Y45.315
X58.638 Y45.484
X58.723 Y45.557
X59.04 Y45.857
X59.143 Y45.96
X59.443 Y46.277
X59.516 Y46.362
X59.685 Y46.563
X59.845 Y46.761
X60.047 Y47.028
X60.146 Y47.167
X60.28 Y47.368
X60.412 Y47.57
X60.65 Y47.973
X60.755 Y48.173
X60.859 Y48.375
X60.955 Y48.576
X61.053 Y48.795
X61.132 Y48.978
X61.285 Y49.381
X61.352 Y49.582
X61.455 Y49.906
X61.476 Y49.984
X61.58 Y50.387
X61.622 Y50.588
X61.662 Y50.789
X61.699 Y50.991
X61.756 Y51.393
X61.777 Y51.594
X61.794 Y51.796
X61.81 Y51.997
X61.821 Y52.399
Y52.601
X61.81 Y53.003
X61.794 Y53.204
X61.777 Y53.406
X61.756 Y53.607
X61.699 Y54.009
X61.662 Y54.211
X61.622 Y54.412
X61.58 Y54.613
X61.476 Y55.016
X61.455 Y55.094
X61.352 Y55.418
X61.285 Y55.619
