%
(S+J 1-8bit)
(T2  D=3.175 CR=0.381 - ZMIN=-6.8 - bullnose end mill)
G90 G94
G17
G21

(Trace1)
M9
T2 M6
S10000 M3
G54
M9
G0 X-4.05 Y5.308
Z7
Z5
G1 Z-6.8 F762
X-4.312 Y5.504
X-4.594 Y5.67
X-4.897 Y5.805
X-5.221 Y5.91
X-5.565 Y5.984
X-5.93 Y6.027
X-6.316 Y6.04
X-6.722 Y6.022
X-7.024 Y5.99
X-7.304 Y5.944
X-7.563 Y5.884
X-7.801 Y5.813
X-8.018 Y5.729
X-8.214 Y5.635
X-8.389 Y5.53
X-8.545 Y5.417
X-8.68 Y5.295
X-8.795 Y5.166
X-8.89 Y5.029
X-8.966 Y4.887
X-9.059 Y4.589
X-9.077 Y4.276
X-9.03 Y3.976
X-8.923 Y3.712
X-8.845 Y3.594
X-8.75 Y3.485
X-8.635 Y3.386
X-8.502 Y3.297
X-8.347 Y3.218
X-8.172 Y3.148
X-7.974 Y3.089
X-7.752 Y3.041
X-7.507 Y3.002
X-7.237 Y2.975
X-6.94 Y2.959
X-6.616 Y2.953
X-5.979 Y2.946
X-5.415 Y2.917
X-5.16 Y2.89
X-4.923 Y2.854
X-4.704 Y2.806
X-4.503 Y2.745
X-4.32 Y2.669
X-4.154 Y2.577
X-4.005 Y2.468
X-3.874 Y2.339
X-3.76 Y2.19
X-3.664 Y2.019
X-3.584 Y1.824
X-3.521 Y1.604
X-3.49 Y1.375
X-3.494 Y1.156
X-3.532 Y0.946
X-3.603 Y0.748
X-3.704 Y0.562
X-3.834 Y0.387
X-3.992 Y0.226
X-4.176 Y0.079
X-4.383 Y-0.054
X-4.614 Y-0.171
X-4.865 Y-0.273
X-5.136 Y-0.357
X-5.424 Y-0.424
X-5.728 Y-0.473
X-6.047 Y-0.503
X-6.378 Y-0.513
X-6.871 Y-0.495
X-7.332 Y-0.442
X-7.761 Y-0.353
X-8.158 Y-0.229
X-8.522 Y-0.069
X-8.854 Y0.127
X-9.154 Y0.358
X-9.421 Y0.625
Z5
G0 X-1.325 Y2.662
G1 Z-6.8 F762
X1.48
Z5
G0 X0.078 Y4.038
G1 Z-6.8 F762
Y1.286
Z5
G0 X8.941 Y5.969
G1 Z-6.8 F762
Y2.106
X8.936 Y1.82
X8.912 Y1.52
X8.855 Y1.213
X8.749 Y0.906
X8.582 Y0.605
X8.471 Y0.459
X8.338 Y0.317
X8.183 Y0.179
X8.004 Y0.048
X7.799 Y-0.078
X7.565 Y-0.196
X7.311 Y-0.296
X7.048 Y-0.37
X6.778 Y-0.419
X6.503 Y-0.443
X6.227
X5.951 Y-0.42
X5.68 Y-0.375
X5.416 Y-0.308
X5.16 Y-0.221
X4.917 Y-0.114
X4.688 Y0.011
X4.477 Y0.154
X4.286 Y0.314
X4.118 Y0.491
X3.975 Y0.683
X3.861 Y0.889
Z5
G0 Z7

(2D Contour1)
M9
X17.065 Y3.78
Z4
Z3
G1 Z-1.683 F762
X17.057 Z-1.753
X17.033 Y3.783 Z-1.82
X16.996 Y3.787 Z-1.88
X16.946 Y3.793 Z-1.931
X16.886 Y3.799 Z-1.969
X16.819 Y3.807 Z-1.992
X16.749 Y3.814 Z-2
X16.434 Y3.849
G2 X16.153 Y4.2 I0.035 J0.316
G3 X16.16 Y4.287 I-1.894 J0.209
G1 X16.205 Y4.997
G3 X16.208 Y5.177 I-1.901 J0.121
G1 X16.186 Y5.877
G3 X16.173 Y6.054 I-1.904 J-0.06
G1 X16.086 Y6.743
G3 X16.057 Y6.913 I-1.89 J-0.237
G1 X15.909 Y7.593
G3 X15.886 Y7.687 I-1.861 J-0.407
G1 X15.753 Y8.174
G3 X15.717 Y8.29 I-1.838 J-0.501
G1 X15.557 Y8.76
G3 X15.512 Y8.877 I-1.803 J-0.616
G1 X15.323 Y9.331
G3 X15.269 Y9.449 I-1.758 J-0.733
G1 X15.051 Y9.886
G3 X14.988 Y10.002 I-1.704 J-0.851
G1 X14.739 Y10.423
G3 X14.668 Y10.535 I-1.641 J-0.967
G1 X14.39 Y10.94
G3 X14.312 Y11.046 I-1.57 J-1.079
G1 X14.002 Y11.436
G3 X13.919 Y11.534 I-1.492 J-1.185
G1 X13.577 Y11.909
G3 X13.469 Y12.018 I-1.408 J-1.283
G1 X12.969 Y12.485
G3 X12.838 Y12.597 I-1.3 J-1.392
G1 X12.312 Y13.006
G3 X12.169 Y13.107 I-1.169 J-1.504
G1 X11.616 Y13.46
G3 X11.466 Y13.546 I-1.026 J-1.605
G1 X10.888 Y13.846
G3 X10.736 Y13.916 I-0.876 J-1.692
G1 X10.133 Y14.163
G3 X9.981 Y14.219 I-0.723 J-1.762
G1 X9.354 Y14.415
G3 X9.207 Y14.455 I-0.571 J-1.818
G1 X8.557 Y14.604
G3 X8.418 Y14.63 I-0.424 J-1.857
G1 X7.745 Y14.732
G3 X7.628 Y14.746 I-0.285 J-1.884
G1 X7.171 Y14.786
G3 X7.027 Y14.794 I-0.168 J-1.898
G1 X6.571 Y14.8
G3 X6.447 Y14.797 I-0.024 J-1.905
G1 X5.99 Y14.773
G3 X5.888 Y14.765 I0.1 J-1.902
G1 X5.431 Y14.716
G3 X5.309 Y14.699 I0.203 J-1.894
G1 X4.735 Y14.6
G3 X4.606 Y14.573 I0.324 J-1.877
G1 X4.039 Y14.434
G3 X3.906 Y14.396 I0.453 J-1.85
G1 X3.354 Y14.218
G3 X3.215 Y14.166 I0.587 J-1.812
G1 X2.685 Y13.948
G3 X2.536 Y13.879 I0.726 J-1.761
G1 X2.11 Y13.659
G3 X2.004 Y13.6 I0.875 J-1.692
G1 X1.597 Y13.355
G3 X1.498 Y13.292 I0.98 J-1.634
G1 X1.109 Y13.024
G3 X1.016 Y12.956 I1.079 J-1.57
G1 X0.645 Y12.667
G3 X0.56 Y12.596 I1.172 J-1.502
G1 X0.206 Y12.286
G3 X0.129 Y12.214 I1.257 J-1.431
G1 X0.012 Y12.099
X-0.298 Y12.381
G3 X-0.38 Y12.452 I-1.284 J-1.407
G1 X-0.735 Y12.741
G3 X-0.819 Y12.806 I-1.203 J-1.477
G1 X-1.19 Y13.075
G3 X-1.278 Y13.135 I-1.118 J-1.542
G1 X-1.664 Y13.382
G3 X-1.754 Y13.437 I-1.03 J-1.602
G1 X-2.153 Y13.663
G3 X-2.247 Y13.713 I-0.94 J-1.657
G1 X-2.657 Y13.916
G3 X-2.755 Y13.961 I-0.845 J-1.707
G1 X-3.176 Y14.141
G3 X-3.277 Y14.18 I-0.747 J-1.753
G1 X-3.707 Y14.335
G3 X-3.812 Y14.37 I-0.646 J-1.792
G1 X-4.25 Y14.499
G3 X-4.359 Y14.528 I-0.54 J-1.827
G1 X-4.803 Y14.631
G3 X-4.916 Y14.654 I-0.432 J-1.855
G1 X-5.366 Y14.73
G3 X-5.482 Y14.746 I-0.319 J-1.878
G1 X-5.936 Y14.795
G3 X-6.07 Y14.805 I-0.204 J-1.894
G1 X-6.606 Y14.825
G3 X-6.746 I-0.07 J-1.904
G1 X-7.282 Y14.805
G3 X-7.422 Y14.795 I0.07 J-1.904
G1 X-7.958 Y14.735
G3 X-8.095 Y14.715 I0.21 J-1.893
G1 X-8.63 Y14.616
G3 X-8.752 Y14.589 I0.347 J-1.873
G1 X-9.241 Y14.465
G3 X-9.36 Y14.43 I0.469 J-1.846
G1 X-9.834 Y14.277
G3 X-9.953 Y14.234 I0.588 J-1.812
G1 X-10.412 Y14.05
G3 X-10.53 Y13.998 I0.707 J-1.769
G1 X-10.974 Y13.785
G3 X-11.088 Y13.725 I0.825 J-1.717
G1 X-11.517 Y13.482
G3 X-11.626 Y13.416 I0.939 J-1.657
G1 X-12.04 Y13.143
G3 X-12.143 Y13.07 I1.048 J-1.591
G1 X-12.542 Y12.768
G3 X-12.637 Y12.69 I1.151 J-1.518
G1 X-13.022 Y12.358
G3 X-13.118 Y12.268 I1.246 J-1.441
G1 X-13.662 Y11.729
G3 X-13.776 Y11.604 I1.343 J-1.351
G1 X-14.255 Y11.036
G3 X-14.364 Y10.892 I1.457 J-1.227
G1 X-14.778 Y10.294
G3 X-14.878 Y10.133 I1.567 J-1.083
G1 X-15.226 Y9.504
G3 X-15.311 Y9.329 I1.667 J-0.922
G1 X-15.593 Y8.668
G3 X-15.66 Y8.487 I1.752 J-0.748
G1 X-15.876 Y7.792
G3 X-15.923 Y7.609 I1.819 J-0.566
G1 X-16.072 Y6.879
G3 X-16.1 Y6.702 I1.866 J-0.383
G1 X-16.183 Y5.936
G3 X-16.194 Y5.774 I1.894 J-0.205
G1 X-16.209 Y5.12
G3 X-16.207 Y4.975 I1.905 J-0.043
G1 X-16.172 Y4.323
G3 X-16.159 Y4.179 I1.902 J0.101
G1 X-16.074 Y3.532
G3 X-16.05 Y3.387 I1.889 J0.246
G1 X-15.916 Y2.748
G3 X-15.89 Y2.642 I1.865 J0.391
G1 X-15.724 Y2.026
G3 X-15.691 Y1.917 I1.839 J0.496
G1 X-15.491 Y1.32
G3 X-15.451 Y1.213 I1.806 J0.606
G1 X-15.217 Y0.634
G3 X-15.172 Y0.531 I1.766 J0.714
G1 X-14.906 Y-0.03
G3 X-14.855 Y-0.129 I1.721 J0.817
G1 X-14.556 Y-0.674
G3 X-14.503 Y-0.766 I1.671 J0.916
G1 X-14.172 Y-1.296
G3 X-14.116 Y-1.382 I1.617 J1.008
G1 X-13.754 Y-1.898
G3 X-13.696 Y-1.976 I1.56 J1.093
G1 X-13.304 Y-2.478
G3 X-13.253 Y-2.541 I1.502 J1.172
G1 X-12.906 Y-2.949
G3 X-12.852 Y-3.01 I1.451 J1.234
G1 X-12.488 Y-3.403
G3 X-12.429 Y-3.463 I1.397 J1.295
G1 X-11.659 Y-4.224
G3 X-11.629 Y-4.252 I1.338 J1.356
G1 X-10.862 Y-4.978
G3 X-10.829 Y-5.007 I1.308 J1.385
G1 X-10.042 Y-5.718
G3 X-10.021 Y-5.737 I1.276 J1.414
G1 X-8.427 Y-7.132
X-8.425 Y-7.134
X-6.877 Y-8.486
X-5.388 Y-9.859
X-4.649 Y-10.58
X-3.944 Y-11.312
X-3.273 Y-12.06
X-2.644 Y-12.822
X-1.883 Y-13.862
G3 X-1.81 Y-13.956 I1.537 J1.125
G1 X-1.727 Y-14.055
G3 X-1.219 Y-14.484 I1.464 J1.219
G1 X-1.117 Y-14.543
G3 X-0.617 Y-14.745 I0.956 J1.648
G1 X-0.518 Y-14.769
G3 X0.094 Y-14.819 I0.457 J1.849
G1 X0.19 Y-14.811
G3 X0.84 Y-14.639 I-0.156 J1.899
G1 X0.931 Y-14.596
G3 X1.439 Y-14.25 I-0.805 J1.727
G1 X1.523 Y-14.17
G3 X1.677 Y-14.005 I-1.313 J1.381
G1 X2.444 Y-13.079
G3 X2.487 Y-13.025 I-1.467 J1.215
G1 X3.067 Y-12.272
X3.328 Y-11.962
X3.625 Y-11.644
X4.281 Y-10.97
X4.95 Y-10.317
X5.641 Y-9.675
X6.363 Y-9.034
X9.479 Y-6.314
G3 X9.496 Y-6.299 I-1.253 J1.435
G1 X10.28 Y-5.599
G3 X10.315 Y-5.567 I-1.27 J1.42
G1 X11.076 Y-4.851
G3 X11.117 Y-4.811 I-1.305 J1.388
G1 X11.853 Y-4.076
G3 X11.9 Y-4.028 I-1.346 J1.348
G1 X12.609 Y-3.268
G3 X12.653 Y-3.219 I-1.393 J1.3
G1 X13.434 Y-2.323
G3 X13.5 Y-2.243 I-1.437 J1.251
G1 X13.865 Y-1.773
G3 X13.931 Y-1.685 I-1.503 J1.171
G1 X14.266 Y-1.198
G3 X14.312 Y-1.128 I-1.568 J1.082
G1 X14.64 Y-0.606
G3 X14.702 Y-0.499 I-1.614 J1.012
G1 X14.991 Y0.036
G3 X15.047 Y0.149 I-1.676 J0.905
G1 X15.297 Y0.695
G3 X15.345 Y0.812 I-1.733 J0.792
G1 X15.558 Y1.371
G3 X15.598 Y1.489 I-1.781 J0.675
G1 X15.773 Y2.061
G3 X15.805 Y2.179 I-1.822 J0.558
G1 X15.943 Y2.763
G3 X15.967 Y2.88 I-1.854 J0.439
G1 X16.07 Y3.477
G3 X16.086 Y3.591 I-1.878 J0.322
G1 X16.153 Y4.2
G3 X16.014 Y4.456 I-0.255 J0.028
G2 X15.869 Y4.709 I0.12 J0.237
G1 X15.889 Y5.017
G3 X15.891 Y5.167 I-1.584 J0.101
G1 X15.869 Y5.867
G3 X15.858 Y6.014 I-1.587 J-0.05
G1 X15.771 Y6.704
G3 X15.747 Y6.846 I-1.575 J-0.197
G1 X15.598 Y7.525
G3 X15.579 Y7.604 I-1.551 J-0.339
G1 X15.446 Y8.091
G3 X15.417 Y8.187 I-1.532 J-0.417
G1 X15.256 Y8.657
G3 X15.219 Y8.755 I-1.502 J-0.513
G1 X15.03 Y9.209
G3 X14.985 Y9.307 I-1.465 J-0.611
G1 X14.767 Y9.744
G3 X14.714 Y9.841 I-1.42 J-0.709
G1 X14.466 Y10.262
G3 X14.407 Y10.355 I-1.368 J-0.806
G1 X14.128 Y10.761
G3 X14.063 Y10.849 I-1.308 J-0.899
G1 X13.753 Y11.238
G3 X13.684 Y11.32 I-1.243 J-0.987
G1 X13.343 Y11.695
G3 X13.252 Y11.786 I-1.174 J-1.069
G1 X12.753 Y12.253
G3 X12.643 Y12.346 I-1.083 J-1.16
G1 X12.117 Y12.755
G3 X11.998 Y12.839 I-0.974 J-1.254
G1 X11.445 Y13.192
G3 X11.32 Y13.264 I-0.855 J-1.338
G1 X10.742 Y13.564
G3 X10.615 Y13.623 I-0.73 J-1.41
G1 X10.013 Y13.87
G3 X9.886 Y13.916 I-0.603 J-1.469
G1 X9.259 Y14.112
G3 X9.137 Y14.145 I-0.476 J-1.515
G1 X8.486 Y14.294
G3 X8.371 Y14.316 I-0.354 J-1.548
G1 X7.697 Y14.418
G3 X7.6 Y14.43 I-0.238 J-1.57
G1 X7.143 Y14.47
G3 X7.023 Y14.476 I-0.14 J-1.581
G1 X6.567 Y14.482
G3 X6.463 Y14.48 I-0.02 J-1.587
G1 X6.007 Y14.456
G3 X5.921 Y14.449 I0.083 J-1.585
G1 X5.465 Y14.4
G3 X5.364 Y14.386 I0.169 J-1.579
G1 X4.789 Y14.287
G3 X4.682 Y14.265 I0.27 J-1.564
G1 X4.115 Y14.126
G3 X4.004 Y14.094 I0.378 J-1.542
G1 X3.452 Y13.916
G3 X3.336 Y13.873 I0.489 J-1.51
G1 X2.806 Y13.655
G3 X2.682 Y13.597 I0.605 J-1.468
G1 X2.256 Y13.377
G3 X2.168 Y13.328 I0.729 J-1.41
G1 X1.76 Y13.083
G3 X1.678 Y13.03 I0.817 J-1.361
G1 X1.289 Y12.763
G3 X1.212 Y12.706 I0.899 J-1.308
G1 X0.841 Y12.417
G3 X0.769 Y12.358 I0.977 J-1.252
G1 X0.416 Y12.047
G3 X0.352 Y11.987 I1.048 J-1.193
G1 X0.015 Y11.657
X0.011 Y11.653
X-0.109 Y11.776
G3 X-0.174 Y11.838 I-1.134 J-1.111
G1 X-0.512 Y12.147
G3 X-0.58 Y12.205 I-1.07 J-1.173
G1 X-0.936 Y12.495
G3 X-1.006 Y12.549 I-1.002 J-1.231
G1 X-1.377 Y12.818
G3 X-1.45 Y12.868 I-0.932 J-1.285
G1 X-1.835 Y13.115
G3 X-1.911 Y13.161 I-0.859 J-1.335
G1 X-2.309 Y13.387
G3 X-2.388 Y13.429 I-0.783 J-1.381
G1 X-2.798 Y13.632
G3 X-2.88 Y13.669 I-0.704 J-1.423
G1 X-3.3 Y13.848
G3 X-3.385 Y13.881 I-0.622 J-1.46
G1 X-3.814 Y14.036
G3 X-3.902 Y14.065 I-0.538 J-1.493
G1 X-4.34 Y14.195
G3 X-4.431 Y14.219 I-0.45 J-1.522
G1 X-4.875 Y14.322
G3 X-4.969 Y14.341 I-0.36 J-1.546
G1 X-5.42 Y14.417
G3 X-5.516 Y14.431 I-0.266 J-1.565
G1 X-5.97 Y14.48
G3 X-6.082 Y14.488 I-0.17 J-1.578
G1 X-6.617 Y14.508
G3 X-6.735 I-0.059 J-1.586
G1 X-7.27 Y14.488
G3 X-7.387 Y14.479 I0.059 J-1.586
G1 X-7.923 Y14.42
G3 X-8.037 Y14.403 I0.175 J-1.578
G1 X-8.573 Y14.303
G3 X-8.674 Y14.281 I0.289 J-1.561
G1 X-9.162 Y14.157
G3 X-9.262 Y14.128 I0.39 J-1.539
G1 X-9.736 Y13.975
G3 X-9.835 Y13.939 I0.49 J-1.51
G1 X-10.294 Y13.755
G3 X-10.392 Y13.712 I0.589 J-1.474
G1 X-10.836 Y13.499
G3 X-10.931 Y13.449 I0.687 J-1.431
G1 X-11.36 Y13.206
G3 X-11.451 Y13.151 I0.783 J-1.381
G1 X-11.865 Y12.878
G3 X-11.951 Y12.817 I0.873 J-1.326
G1 X-12.35 Y12.515
G3 X-12.43 Y12.45 I0.959 J-1.265
G1 X-12.814 Y12.118
G3 X-12.895 Y12.043 I1.038 J-1.201
G1 X-13.438 Y11.503
G3 X-13.534 Y11.4 I1.119 J-1.126
G1 X-14.012 Y10.831
G3 X-14.103 Y10.712 I1.215 J-1.022
G1 X-14.517 Y10.114
G3 X-14.6 Y9.979 I1.306 J-0.903
G1 X-14.948 Y9.35
G3 X-15.019 Y9.205 I1.389 J-0.768
G1 X-15.301 Y8.544
G3 X-15.356 Y8.392 I1.46 J-0.623
G1 X-15.572 Y7.697
G3 X-15.612 Y7.545 I1.516 J-0.472
G1 X-15.761 Y6.816
G3 X-15.785 Y6.668 I1.555 J-0.319
G1 X-15.868 Y5.902
G3 X-15.876 Y5.767 I1.578 J-0.171
G1 X-15.891 Y5.113
G3 X-15.889 Y4.992 I1.587 J-0.036
G1 X-15.855 Y4.34
G3 X-15.844 Y4.22 I1.585 J0.084
G1 X-15.759 Y3.573
G3 X-15.739 Y3.452 I1.574 J0.205
G1 X-15.605 Y2.813
G3 X-15.584 Y2.724 I1.554 J0.326
G1 X-15.418 Y2.109
G3 X-15.39 Y2.018 I1.533 J0.414
G1 X-15.19 Y1.421
G3 X-15.157 Y1.332 I1.505 J0.505
G1 X-14.923 Y0.753
G3 X-14.885 Y0.667 I1.472 J0.595
G1 X-14.619 Y0.106
G3 X-14.577 Y0.024 I1.434 J0.681
G1 X-14.278 Y-0.521
G3 X-14.233 Y-0.598 I1.392 J0.763
G1 X-13.903 Y-1.128
G3 X-13.856 Y-1.2 I1.347 J0.84
G1 X-13.494 Y-1.715
G3 X-13.446 Y-1.781 I1.3 J0.911
G1 X-13.054 Y-2.283
G3 X-13.011 Y-2.336 I1.252 J0.976
G1 X-12.665 Y-2.743
G3 X-12.619 Y-2.794 I1.209 J1.029
G1 X-12.255 Y-3.187
G3 X-12.206 Y-3.237 I1.164 J1.079
G1 X-11.436 Y-3.998
G3 X-11.411 Y-4.022 I1.115 J1.13
G1 X-10.644 Y-4.747
G3 X-10.617 Y-4.772 I1.09 J1.154
G1 X-9.83 Y-5.482
G3 X-9.812 Y-5.498 I1.063 J1.179
G1 X-8.218 Y-6.893
X-8.216 Y-6.895
X-6.665 Y-8.25
X-5.169 Y-9.629
X-4.424 Y-10.356
X-3.712 Y-11.096
X-3.033 Y-11.853
X-2.393 Y-12.627
X-1.627 Y-13.674
G3 X-1.566 Y-13.753 I1.281 J0.937
G1 X-1.483 Y-13.852
G3 X-1.06 Y-14.209 I1.22 J1.016
G1 X-0.957 Y-14.269
G3 X-0.541 Y-14.437 I0.797 J1.373
G1 X-0.442 Y-14.461
G3 X0.068 Y-14.502 I0.381 J1.541
G1 X0.164 Y-14.494
G3 X0.705 Y-14.351 I-0.13 J1.582
G1 X0.797 Y-14.308
G3 X1.22 Y-14.02 I-0.671 J1.439
G1 X1.304 Y-13.94
G3 X1.432 Y-13.803 I-1.094 J1.15
G1 X2.2 Y-12.877
G3 X2.236 Y-12.831 I-1.222 J1.013
G1 X2.819 Y-12.072
X3.09 Y-11.751
X3.396 Y-11.425
X4.056 Y-10.746
X4.731 Y-10.087
X5.428 Y-9.44
X6.153 Y-8.796
X9.271 Y-6.075
G3 X9.285 Y-6.062 I-1.044 J1.196
G1 X10.068 Y-5.362
G3 X10.097 Y-5.335 I-1.058 J1.184
G1 X10.858 Y-4.62
G3 X10.893 Y-4.587 I-1.087 J1.157
G1 X11.629 Y-3.852
G3 X11.668 Y-3.811 I-1.122 J1.123
G1 X12.377 Y-3.051
G3 X12.414 Y-3.011 I-1.161 J1.083
G1 X13.194 Y-2.115
G3 X13.249 Y-2.048 I-1.197 J1.043
G1 X13.615 Y-1.578
G3 X13.669 Y-1.504 I-1.252 J0.976
G1 X14.005 Y-1.018
G3 X14.043 Y-0.96 I-1.307 J0.902
G1 X14.371 Y-0.438
G3 X14.423 Y-0.348 I-1.345 J0.844
G1 X14.711 Y0.186
G3 X14.758 Y0.281 I-1.397 J0.754
G1 X15.008 Y0.827
G3 X15.049 Y0.925 I-1.444 J0.66
G1 X15.261 Y1.484
G3 X15.294 Y1.582 I-1.484 J0.563
G1 X15.469 Y2.154
G3 X15.496 Y2.253 I-1.518 J0.465
G1 X15.634 Y2.837
G3 X15.654 Y2.934 I-1.545 J0.366
G1 X15.757 Y3.531
G3 X15.77 Y3.625 I-1.565 J0.269
G1 X15.837 Y4.234
G3 X15.844 Y4.307 I-1.578 J0.174
G1 X15.869 Y4.709
G2 X16.206 Y5.006 I0.317 J-0.02
G1 X16.523 Y4.986
X16.593 Y4.982 Z-1.992
X16.66 Y4.977 Z-1.969
X16.72 Y4.973 Z-1.931
X16.771 Y4.97 Z-1.88
X16.808 Y4.968 Z-1.82
X16.832 Y4.966 Z-1.753
X16.84 Z-1.683
G0 Z2
X17.065 Y3.78
G1 Z1.212 F762
Z-3.683
X17.057 Z-3.753
X17.033 Y3.783 Z-3.82
X16.996 Y3.787 Z-3.88
X16.946 Y3.793 Z-3.931
X16.886 Y3.799 Z-3.969
X16.819 Y3.807 Z-3.992
X16.749 Y3.814 Z-4
X16.434 Y3.849
G2 X16.153 Y4.2 I0.035 J0.316
G3 X16.16 Y4.287 I-1.894 J0.209
G1 X16.205 Y4.997
G3 X16.208 Y5.177 I-1.901 J0.121
G1 X16.186 Y5.877
G3 X16.173 Y6.054 I-1.904 J-0.06
G1 X16.086 Y6.743
G3 X16.057 Y6.913 I-1.89 J-0.237
G1 X15.909 Y7.593
G3 X15.886 Y7.687 I-1.861 J-0.407
G1 X15.753 Y8.174
G3 X15.717 Y8.29 I-1.838 J-0.501
G1 X15.557 Y8.76
G3 X15.512 Y8.877 I-1.803 J-0.616
G1 X15.323 Y9.331
G3 X15.269 Y9.449 I-1.758 J-0.733
G1 X15.051 Y9.886
G3 X14.988 Y10.002 I-1.704 J-0.851
G1 X14.739 Y10.423
G3 X14.668 Y10.535 I-1.641 J-0.967
G1 X14.39 Y10.94
G3 X14.312 Y11.046 I-1.57 J-1.079
G1 X14.002 Y11.436
G3 X13.919 Y11.534 I-1.492 J-1.185
G1 X13.577 Y11.909
G3 X13.469 Y12.018 I-1.408 J-1.283
G1 X12.969 Y12.485
G3 X12.838 Y12.597 I-1.3 J-1.392
G1 X12.312 Y13.006
G3 X12.169 Y13.107 I-1.169 J-1.504
G1 X11.616 Y13.46
G3 X11.466 Y13.546 I-1.026 J-1.605
G1 X10.888 Y13.846
G3 X10.736 Y13.916 I-0.876 J-1.692
G1 X10.133 Y14.163
G3 X9.981 Y14.219 I-0.723 J-1.762
G1 X9.354 Y14.415
G3 X9.207 Y14.455 I-0.571 J-1.818
G1 X8.557 Y14.604
G3 X8.418 Y14.63 I-0.424 J-1.857
G1 X7.745 Y14.732
G3 X7.628 Y14.746 I-0.285 J-1.884
G1 X7.171 Y14.786
G3 X7.027 Y14.794 I-0.168 J-1.898
G1 X6.571 Y14.8
G3 X6.447 Y14.797 I-0.024 J-1.905
G1 X5.99 Y14.773
G3 X5.888 Y14.765 I0.1 J-1.902
G1 X5.431 Y14.716
G3 X5.309 Y14.699 I0.203 J-1.894
G1 X4.735 Y14.6
G3 X4.606 Y14.573 I0.324 J-1.877
G1 X4.039 Y14.434
G3 X3.906 Y14.396 I0.453 J-1.85
G1 X3.354 Y14.218
G3 X3.215 Y14.166 I0.587 J-1.812
G1 X2.685 Y13.948
G3 X2.536 Y13.879 I0.726 J-1.761
G1 X2.11 Y13.659
G3 X2.004 Y13.6 I0.875 J-1.692
G1 X1.597 Y13.355
G3 X1.498 Y13.292 I0.98 J-1.634
G1 X1.109 Y13.024
G3 X1.016 Y12.956 I1.079 J-1.57
G1 X0.645 Y12.667
G3 X0.56 Y12.596 I1.172 J-1.502
G1 X0.206 Y12.286
G3 X0.129 Y12.214 I1.257 J-1.431
G1 X0.012 Y12.099
X-0.298 Y12.381
G3 X-0.38 Y12.452 I-1.284 J-1.407
G1 X-0.735 Y12.741
G3 X-0.819 Y12.806 I-1.203 J-1.477
G1 X-1.19 Y13.075
G3 X-1.278 Y13.135 I-1.118 J-1.542
G1 X-1.664 Y13.382
G3 X-1.754 Y13.437 I-1.03 J-1.602
G1 X-2.153 Y13.663
G3 X-2.247 Y13.713 I-0.94 J-1.657
G1 X-2.657 Y13.916
G3 X-2.755 Y13.961 I-0.845 J-1.707
G1 X-3.176 Y14.141
G3 X-3.277 Y14.18 I-0.747 J-1.753
G1 X-3.707 Y14.335
G3 X-3.812 Y14.37 I-0.646 J-1.792
G1 X-4.25 Y14.499
G3 X-4.359 Y14.528 I-0.54 J-1.827
G1 X-4.803 Y14.631
G3 X-4.916 Y14.654 I-0.432 J-1.855
G1 X-5.366 Y14.73
G3 X-5.482 Y14.746 I-0.319 J-1.878
G1 X-5.936 Y14.795
G3 X-6.07 Y14.805 I-0.204 J-1.894
G1 X-6.606 Y14.825
G3 X-6.746 I-0.07 J-1.904
G1 X-7.282 Y14.805
G3 X-7.422 Y14.795 I0.07 J-1.904
G1 X-7.958 Y14.735
G3 X-8.095 Y14.715 I0.21 J-1.893
G1 X-8.63 Y14.616
G3 X-8.752 Y14.589 I0.347 J-1.873
G1 X-9.241 Y14.465
G3 X-9.36 Y14.43 I0.469 J-1.846
G1 X-9.834 Y14.277
G3 X-9.953 Y14.234 I0.588 J-1.812
G1 X-10.412 Y14.05
G3 X-10.53 Y13.998 I0.707 J-1.769
G1 X-10.974 Y13.785
G3 X-11.088 Y13.725 I0.825 J-1.717
G1 X-11.517 Y13.482
G3 X-11.626 Y13.416 I0.939 J-1.657
G1 X-12.04 Y13.143
G3 X-12.143 Y13.07 I1.048 J-1.591
G1 X-12.542 Y12.768
G3 X-12.637 Y12.69 I1.151 J-1.518
G1 X-13.022 Y12.358
G3 X-13.118 Y12.268 I1.246 J-1.441
G1 X-13.662 Y11.729
G3 X-13.776 Y11.604 I1.343 J-1.351
G1 X-14.255 Y11.036
G3 X-14.364 Y10.892 I1.457 J-1.227
G1 X-14.778 Y10.294
G3 X-14.878 Y10.133 I1.567 J-1.083
G1 X-15.226 Y9.504
G3 X-15.311 Y9.329 I1.667 J-0.922
G1 X-15.593 Y8.668
G3 X-15.66 Y8.487 I1.752 J-0.748
G1 X-15.876 Y7.792
G3 X-15.923 Y7.609 I1.819 J-0.566
G1 X-16.072 Y6.879
G3 X-16.1 Y6.702 I1.866 J-0.383
G1 X-16.183 Y5.936
G3 X-16.194 Y5.774 I1.894 J-0.205
G1 X-16.209 Y5.12
G3 X-16.207 Y4.975 I1.905 J-0.043
G1 X-16.172 Y4.323
G3 X-16.159 Y4.179 I1.902 J0.101
G1 X-16.074 Y3.532
G3 X-16.05 Y3.387 I1.889 J0.246
G1 X-15.916 Y2.748
G3 X-15.89 Y2.642 I1.865 J0.391
G1 X-15.724 Y2.026
G3 X-15.691 Y1.917 I1.839 J0.496
G1 X-15.491 Y1.32
G3 X-15.451 Y1.213 I1.806 J0.606
G1 X-15.217 Y0.634
G3 X-15.172 Y0.531 I1.766 J0.714
G1 X-14.906 Y-0.03
G3 X-14.855 Y-0.129 I1.721 J0.817
G1 X-14.556 Y-0.674
G3 X-14.503 Y-0.766 I1.671 J0.916
G1 X-14.172 Y-1.296
G3 X-14.116 Y-1.382 I1.617 J1.008
G1 X-13.754 Y-1.898
G3 X-13.696 Y-1.976 I1.56 J1.093
G1 X-13.304 Y-2.478
G3 X-13.253 Y-2.541 I1.502 J1.172
G1 X-12.906 Y-2.949
G3 X-12.852 Y-3.01 I1.451 J1.234
G1 X-12.488 Y-3.403
G3 X-12.429 Y-3.463 I1.397 J1.295
G1 X-11.659 Y-4.224
G3 X-11.629 Y-4.252 I1.338 J1.356
G1 X-10.862 Y-4.978
G3 X-10.829 Y-5.007 I1.308 J1.385
G1 X-10.042 Y-5.718
G3 X-10.021 Y-5.737 I1.276 J1.414
G1 X-8.427 Y-7.132
X-8.425 Y-7.134
X-6.877 Y-8.486
X-5.388 Y-9.859
X-4.649 Y-10.58
X-3.944 Y-11.312
X-3.273 Y-12.06
X-2.644 Y-12.822
X-1.883 Y-13.862
G3 X-1.81 Y-13.956 I1.537 J1.125
G1 X-1.727 Y-14.055
G3 X-1.219 Y-14.484 I1.464 J1.219
G1 X-1.117 Y-14.543
G3 X-0.617 Y-14.745 I0.956 J1.648
G1 X-0.518 Y-14.769
G3 X0.094 Y-14.819 I0.457 J1.849
G1 X0.19 Y-14.811
G3 X0.84 Y-14.639 I-0.156 J1.899
G1 X0.931 Y-14.596
G3 X1.439 Y-14.25 I-0.805 J1.727
G1 X1.523 Y-14.17
G3 X1.677 Y-14.005 I-1.313 J1.381
G1 X2.444 Y-13.079
G3 X2.487 Y-13.025 I-1.467 J1.215
G1 X3.067 Y-12.272
X3.328 Y-11.962
X3.625 Y-11.644
X4.281 Y-10.97
X4.95 Y-10.317
X5.641 Y-9.675
X6.363 Y-9.034
X9.479 Y-6.314
G3 X9.496 Y-6.299 I-1.253 J1.435
G1 X10.28 Y-5.599
G3 X10.315 Y-5.567 I-1.27 J1.42
G1 X11.076 Y-4.851
G3 X11.117 Y-4.811 I-1.305 J1.388
G1 X11.853 Y-4.076
G3 X11.9 Y-4.028 I-1.346 J1.348
G1 X12.609 Y-3.268
G3 X12.653 Y-3.219 I-1.393 J1.3
G1 X13.434 Y-2.323
G3 X13.5 Y-2.243 I-1.437 J1.251
G1 X13.865 Y-1.773
G3 X13.931 Y-1.685 I-1.503 J1.171
G1 X14.266 Y-1.198
G3 X14.312 Y-1.128 I-1.568 J1.082
G1 X14.64 Y-0.606
G3 X14.702 Y-0.499 I-1.614 J1.012
G1 X14.991 Y0.036
G3 X15.047 Y0.149 I-1.676 J0.905
G1 X15.297 Y0.695
G3 X15.345 Y0.812 I-1.733 J0.792
G1 X15.558 Y1.371
G3 X15.598 Y1.489 I-1.781 J0.675
G1 X15.773 Y2.061
G3 X15.805 Y2.179 I-1.822 J0.558
G1 X15.943 Y2.763
G3 X15.967 Y2.88 I-1.854 J0.439
G1 X16.07 Y3.477
G3 X16.086 Y3.591 I-1.878 J0.322
G1 X16.153 Y4.2
G3 X16.014 Y4.456 I-0.255 J0.028
G2 X15.869 Y4.709 I0.12 J0.237
G1 X15.889 Y5.017
G3 X15.891 Y5.167 I-1.584 J0.101
G1 X15.869 Y5.867
G3 X15.858 Y6.014 I-1.587 J-0.05
G1 X15.771 Y6.704
G3 X15.747 Y6.846 I-1.575 J-0.197
G1 X15.598 Y7.525
G3 X15.579 Y7.604 I-1.551 J-0.339
G1 X15.446 Y8.091
G3 X15.417 Y8.187 I-1.532 J-0.417
G1 X15.256 Y8.657
G3 X15.219 Y8.755 I-1.502 J-0.513
G1 X15.03 Y9.209
G3 X14.985 Y9.307 I-1.465 J-0.611
G1 X14.767 Y9.744
G3 X14.714 Y9.841 I-1.42 J-0.709
G1 X14.466 Y10.262
G3 X14.407 Y10.355 I-1.368 J-0.806
G1 X14.128 Y10.761
G3 X14.063 Y10.849 I-1.308 J-0.899
G1 X13.753 Y11.238
G3 X13.684 Y11.32 I-1.243 J-0.987
G1 X13.343 Y11.695
G3 X13.252 Y11.786 I-1.174 J-1.069
G1 X12.753 Y12.253
G3 X12.643 Y12.346 I-1.083 J-1.16
G1 X12.117 Y12.755
G3 X11.998 Y12.839 I-0.974 J-1.254
G1 X11.445 Y13.192
G3 X11.32 Y13.264 I-0.855 J-1.338
G1 X10.742 Y13.564
G3 X10.615 Y13.623 I-0.73 J-1.41
G1 X10.013 Y13.87
G3 X9.886 Y13.916 I-0.603 J-1.469
G1 X9.259 Y14.112
G3 X9.137 Y14.145 I-0.476 J-1.515
G1 X8.486 Y14.294
G3 X8.371 Y14.316 I-0.354 J-1.548
G1 X7.697 Y14.418
G3 X7.6 Y14.43 I-0.238 J-1.57
G1 X7.143 Y14.47
G3 X7.023 Y14.476 I-0.14 J-1.581
G1 X6.567 Y14.482
G3 X6.463 Y14.48 I-0.02 J-1.587
G1 X6.007 Y14.456
G3 X5.921 Y14.449 I0.083 J-1.585
G1 X5.465 Y14.4
G3 X5.364 Y14.386 I0.169 J-1.579
G1 X4.789 Y14.287
G3 X4.682 Y14.265 I0.27 J-1.564
G1 X4.115 Y14.126
G3 X4.004 Y14.094 I0.378 J-1.542
G1 X3.452 Y13.916
G3 X3.336 Y13.873 I0.489 J-1.51
G1 X2.806 Y13.655
G3 X2.682 Y13.597 I0.605 J-1.468
G1 X2.256 Y13.377
G3 X2.168 Y13.328 I0.729 J-1.41
G1 X1.76 Y13.083
G3 X1.678 Y13.03 I0.817 J-1.361
G1 X1.289 Y12.763
G3 X1.212 Y12.706 I0.899 J-1.308
G1 X0.841 Y12.417
G3 X0.769 Y12.358 I0.977 J-1.252
G1 X0.416 Y12.047
G3 X0.352 Y11.987 I1.048 J-1.193
G1 X0.015 Y11.657
X0.011 Y11.653
X-0.109 Y11.776
G3 X-0.174 Y11.838 I-1.134 J-1.111
G1 X-0.512 Y12.147
G3 X-0.58 Y12.205 I-1.07 J-1.173
G1 X-0.936 Y12.495
G3 X-1.006 Y12.549 I-1.002 J-1.231
G1 X-1.377 Y12.818
G3 X-1.45 Y12.868 I-0.932 J-1.285
G1 X-1.835 Y13.115
G3 X-1.911 Y13.161 I-0.859 J-1.335
G1 X-2.309 Y13.387
G3 X-2.388 Y13.429 I-0.783 J-1.381
G1 X-2.798 Y13.632
G3 X-2.88 Y13.669 I-0.704 J-1.423
G1 X-3.3 Y13.848
G3 X-3.385 Y13.881 I-0.622 J-1.46
G1 X-3.814 Y14.036
G3 X-3.902 Y14.065 I-0.538 J-1.493
G1 X-4.34 Y14.195
G3 X-4.431 Y14.219 I-0.45 J-1.522
G1 X-4.875 Y14.322
G3 X-4.969 Y14.341 I-0.36 J-1.546
G1 X-5.42 Y14.417
G3 X-5.516 Y14.431 I-0.266 J-1.565
G1 X-5.97 Y14.48
G3 X-6.082 Y14.488 I-0.17 J-1.578
G1 X-6.617 Y14.508
G3 X-6.735 I-0.059 J-1.586
G1 X-7.27 Y14.488
G3 X-7.387 Y14.479 I0.059 J-1.586
G1 X-7.923 Y14.42
G3 X-8.037 Y14.403 I0.175 J-1.578
G1 X-8.573 Y14.303
G3 X-8.674 Y14.281 I0.289 J-1.561
G1 X-9.162 Y14.157
G3 X-9.262 Y14.128 I0.39 J-1.539
G1 X-9.736 Y13.975
G3 X-9.835 Y13.939 I0.49 J-1.51
G1 X-10.294 Y13.755
G3 X-10.392 Y13.712 I0.589 J-1.474
G1 X-10.836 Y13.499
G3 X-10.931 Y13.449 I0.687 J-1.431
G1 X-11.36 Y13.206
G3 X-11.451 Y13.151 I0.783 J-1.381
G1 X-11.865 Y12.878
G3 X-11.951 Y12.817 I0.873 J-1.326
G1 X-12.35 Y12.515
G3 X-12.43 Y12.45 I0.959 J-1.265
G1 X-12.814 Y12.118
G3 X-12.895 Y12.043 I1.038 J-1.201
G1 X-13.438 Y11.503
G3 X-13.534 Y11.4 I1.119 J-1.126
G1 X-14.012 Y10.831
G3 X-14.103 Y10.712 I1.215 J-1.022
G1 X-14.517 Y10.114
G3 X-14.6 Y9.979 I1.306 J-0.903
G1 X-14.948 Y9.35
G3 X-15.019 Y9.205 I1.389 J-0.768
G1 X-15.301 Y8.544
G3 X-15.356 Y8.392 I1.46 J-0.623
G1 X-15.572 Y7.697
G3 X-15.612 Y7.545 I1.516 J-0.472
G1 X-15.761 Y6.816
G3 X-15.785 Y6.668 I1.555 J-0.319
G1 X-15.868 Y5.902
G3 X-15.876 Y5.767 I1.578 J-0.171
G1 X-15.891 Y5.113
G3 X-15.889 Y4.992 I1.587 J-0.036
G1 X-15.855 Y4.34
G3 X-15.844 Y4.22 I1.585 J0.084
G1 X-15.759 Y3.573
G3 X-15.739 Y3.452 I1.574 J0.205
G1 X-15.605 Y2.813
G3 X-15.584 Y2.724 I1.554 J0.326
G1 X-15.418 Y2.109
G3 X-15.39 Y2.018 I1.533 J0.414
G1 X-15.19 Y1.421
G3 X-15.157 Y1.332 I1.505 J0.505
G1 X-14.923 Y0.753
G3 X-14.885 Y0.667 I1.472 J0.595
G1 X-14.619 Y0.106
G3 X-14.577 Y0.024 I1.434 J0.681
G1 X-14.278 Y-0.521
G3 X-14.233 Y-0.598 I1.392 J0.763
G1 X-13.903 Y-1.128
G3 X-13.856 Y-1.2 I1.347 J0.84
G1 X-13.494 Y-1.715
G3 X-13.446 Y-1.781 I1.3 J0.911
G1 X-13.054 Y-2.283
G3 X-13.011 Y-2.336 I1.252 J0.976
G1 X-12.665 Y-2.743
G3 X-12.619 Y-2.794 I1.209 J1.029
G1 X-12.255 Y-3.187
G3 X-12.206 Y-3.237 I1.164 J1.079
G1 X-11.436 Y-3.998
G3 X-11.411 Y-4.022 I1.115 J1.13
G1 X-10.644 Y-4.747
G3 X-10.617 Y-4.772 I1.09 J1.154
G1 X-9.83 Y-5.482
G3 X-9.812 Y-5.498 I1.063 J1.179
G1 X-8.218 Y-6.893
X-8.216 Y-6.895
X-6.665 Y-8.25
X-5.169 Y-9.629
X-4.424 Y-10.356
X-3.712 Y-11.096
X-3.033 Y-11.853
X-2.393 Y-12.627
X-1.627 Y-13.674
G3 X-1.566 Y-13.753 I1.281 J0.937
G1 X-1.483 Y-13.852
G3 X-1.06 Y-14.209 I1.22 J1.016
G1 X-0.957 Y-14.269
G3 X-0.541 Y-14.437 I0.797 J1.373
G1 X-0.442 Y-14.461
G3 X0.068 Y-14.502 I0.381 J1.541
G1 X0.164 Y-14.494
G3 X0.705 Y-14.351 I-0.13 J1.582
G1 X0.797 Y-14.308
G3 X1.22 Y-14.02 I-0.671 J1.439
G1 X1.304 Y-13.94
G3 X1.432 Y-13.803 I-1.094 J1.15
G1 X2.2 Y-12.877
G3 X2.236 Y-12.831 I-1.222 J1.013
G1 X2.819 Y-12.072
X3.09 Y-11.751
X3.396 Y-11.425
X4.056 Y-10.746
X4.731 Y-10.087
X5.428 Y-9.44
X6.153 Y-8.796
X9.271 Y-6.075
G3 X9.285 Y-6.062 I-1.044 J1.196
G1 X10.068 Y-5.362
G3 X10.097 Y-5.335 I-1.058 J1.184
G1 X10.858 Y-4.62
G3 X10.893 Y-4.587 I-1.087 J1.157
G1 X11.629 Y-3.852
G3 X11.668 Y-3.811 I-1.122 J1.123
G1 X12.377 Y-3.051
G3 X12.414 Y-3.011 I-1.161 J1.083
G1 X13.194 Y-2.115
G3 X13.249 Y-2.048 I-1.197 J1.043
G1 X13.615 Y-1.578
G3 X13.669 Y-1.504 I-1.252 J0.976
G1 X14.005 Y-1.018
G3 X14.043 Y-0.96 I-1.307 J0.902
G1 X14.371 Y-0.438
G3 X14.423 Y-0.348 I-1.345 J0.844
G1 X14.711 Y0.186
G3 X14.758 Y0.281 I-1.397 J0.754
G1 X15.008 Y0.827
G3 X15.049 Y0.925 I-1.444 J0.66
G1 X15.261 Y1.484
G3 X15.294 Y1.582 I-1.484 J0.563
G1 X15.469 Y2.154
G3 X15.496 Y2.253 I-1.518 J0.465
G1 X15.634 Y2.837
G3 X15.654 Y2.934 I-1.545 J0.366
G1 X15.757 Y3.531
G3 X15.77 Y3.625 I-1.565 J0.269
G1 X15.837 Y4.234
G3 X15.844 Y4.307 I-1.578 J0.174
G1 X15.869 Y4.709
G2 X16.206 Y5.006 I0.317 J-0.02
G1 X16.523 Y4.986
X16.593 Y4.982 Z-3.992
X16.66 Y4.977 Z-3.969
X16.72 Y4.973 Z-3.931
X16.771 Y4.97 Z-3.88
X16.808 Y4.968 Z-3.82
X16.832 Y4.966 Z-3.753
X16.84 Z-3.683
G0 Z2
X17.065 Y3.78
G1 Z-0.788 F762
Z-5.683
X17.057 Z-5.753
X17.033 Y3.783 Z-5.82
X16.996 Y3.787 Z-5.88
X16.946 Y3.793 Z-5.931
X16.886 Y3.799 Z-5.969
X16.819 Y3.807 Z-5.992
X16.749 Y3.814 Z-6
X16.434 Y3.849
G2 X16.153 Y4.2 I0.035 J0.316
G3 X16.16 Y4.287 I-1.894 J0.209
G1 X16.205 Y4.997
G3 X16.208 Y5.177 I-1.901 J0.121
G1 X16.186 Y5.877
G3 X16.173 Y6.054 I-1.904 J-0.06
G1 X16.086 Y6.743
G3 X16.057 Y6.913 I-1.89 J-0.237
G1 X15.909 Y7.593
G3 X15.886 Y7.687 I-1.861 J-0.407
G1 X15.753 Y8.174
G3 X15.717 Y8.29 I-1.838 J-0.501
G1 X15.557 Y8.76
G3 X15.512 Y8.877 I-1.803 J-0.616
G1 X15.323 Y9.331
G3 X15.269 Y9.449 I-1.758 J-0.733
G1 X15.051 Y9.886
G3 X14.988 Y10.002 I-1.704 J-0.851
G1 X14.739 Y10.423
G3 X14.668 Y10.535 I-1.641 J-0.967
G1 X14.39 Y10.94
G3 X14.312 Y11.046 I-1.57 J-1.079
G1 X14.002 Y11.436
G3 X13.919 Y11.534 I-1.492 J-1.185
G1 X13.577 Y11.909
G3 X13.469 Y12.018 I-1.408 J-1.283
G1 X12.969 Y12.485
G3 X12.838 Y12.597 I-1.3 J-1.392
G1 X12.312 Y13.006
G3 X12.169 Y13.107 I-1.169 J-1.504
G1 X11.616 Y13.46
G3 X11.466 Y13.546 I-1.026 J-1.605
G1 X10.888 Y13.846
G3 X10.736 Y13.916 I-0.876 J-1.692
G1 X10.133 Y14.163
G3 X9.981 Y14.219 I-0.723 J-1.762
G1 X9.354 Y14.415
G3 X9.207 Y14.455 I-0.571 J-1.818
G1 X8.557 Y14.604
G3 X8.418 Y14.63 I-0.424 J-1.857
G1 X7.745 Y14.732
G3 X7.628 Y14.746 I-0.285 J-1.884
G1 X7.171 Y14.786
G3 X7.027 Y14.794 I-0.168 J-1.898
G1 X6.571 Y14.8
G3 X6.447 Y14.797 I-0.024 J-1.905
G1 X5.99 Y14.773
G3 X5.888 Y14.765 I0.1 J-1.902
G1 X5.431 Y14.716
G3 X5.309 Y14.699 I0.203 J-1.894
G1 X4.735 Y14.6
G3 X4.606 Y14.573 I0.324 J-1.877
G1 X4.039 Y14.434
G3 X3.906 Y14.396 I0.453 J-1.85
G1 X3.354 Y14.218
G3 X3.215 Y14.166 I0.587 J-1.812
G1 X2.685 Y13.948
G3 X2.536 Y13.879 I0.726 J-1.761
G1 X2.11 Y13.659
G3 X2.004 Y13.6 I0.875 J-1.692
G1 X1.597 Y13.355
G3 X1.498 Y13.292 I0.98 J-1.634
G1 X1.109 Y13.024
G3 X1.016 Y12.956 I1.079 J-1.57
G1 X0.645 Y12.667
G3 X0.56 Y12.596 I1.172 J-1.502
G1 X0.206 Y12.286
G3 X0.129 Y12.214 I1.257 J-1.431
G1 X0.012 Y12.099
X-0.298 Y12.381
G3 X-0.38 Y12.452 I-1.284 J-1.407
G1 X-0.735 Y12.741
G3 X-0.819 Y12.806 I-1.203 J-1.477
G1 X-1.19 Y13.075
G3 X-1.278 Y13.135 I-1.118 J-1.542
G1 X-1.664 Y13.382
G3 X-1.754 Y13.437 I-1.03 J-1.602
G1 X-2.153 Y13.663
G3 X-2.247 Y13.713 I-0.94 J-1.657
G1 X-2.657 Y13.916
G3 X-2.755 Y13.961 I-0.845 J-1.707
G1 X-3.176 Y14.141
G3 X-3.277 Y14.18 I-0.747 J-1.753
G1 X-3.707 Y14.335
G3 X-3.812 Y14.37 I-0.646 J-1.792
G1 X-4.25 Y14.499
G3 X-4.359 Y14.528 I-0.54 J-1.827
G1 X-4.803 Y14.631
G3 X-4.916 Y14.654 I-0.432 J-1.855
G1 X-5.366 Y14.73
G3 X-5.482 Y14.746 I-0.319 J-1.878
G1 X-5.936 Y14.795
G3 X-6.07 Y14.805 I-0.204 J-1.894
G1 X-6.606 Y14.825
G3 X-6.746 I-0.07 J-1.904
G1 X-7.282 Y14.805
G3 X-7.422 Y14.795 I0.07 J-1.904
G1 X-7.958 Y14.735
G3 X-8.095 Y14.715 I0.21 J-1.893
G1 X-8.63 Y14.616
G3 X-8.752 Y14.589 I0.347 J-1.873
G1 X-9.241 Y14.465
G3 X-9.36 Y14.43 I0.469 J-1.846
G1 X-9.834 Y14.277
G3 X-9.953 Y14.234 I0.588 J-1.812
G1 X-10.412 Y14.05
G3 X-10.53 Y13.998 I0.707 J-1.769
G1 X-10.974 Y13.785
G3 X-11.088 Y13.725 I0.825 J-1.717
G1 X-11.517 Y13.482
G3 X-11.626 Y13.416 I0.939 J-1.657
G1 X-12.04 Y13.143
G3 X-12.143 Y13.07 I1.048 J-1.591
G1 X-12.542 Y12.768
G3 X-12.637 Y12.69 I1.151 J-1.518
G1 X-13.022 Y12.358
G3 X-13.118 Y12.268 I1.246 J-1.441
G1 X-13.662 Y11.729
G3 X-13.776 Y11.604 I1.343 J-1.351
G1 X-14.255 Y11.036
G3 X-14.364 Y10.892 I1.457 J-1.227
G1 X-14.778 Y10.294
G3 X-14.878 Y10.133 I1.567 J-1.083
G1 X-15.226 Y9.504
G3 X-15.311 Y9.329 I1.667 J-0.922
G1 X-15.593 Y8.668
G3 X-15.66 Y8.487 I1.752 J-0.748
G1 X-15.876 Y7.792
G3 X-15.923 Y7.609 I1.819 J-0.566
G1 X-16.072 Y6.879
G3 X-16.1 Y6.702 I1.866 J-0.383
G1 X-16.183 Y5.936
G3 X-16.194 Y5.774 I1.894 J-0.205
G1 X-16.209 Y5.12
G3 X-16.207 Y4.975 I1.905 J-0.043
G1 X-16.172 Y4.323
G3 X-16.159 Y4.179 I1.902 J0.101
G1 X-16.074 Y3.532
G3 X-16.05 Y3.387 I1.889 J0.246
G1 X-15.916 Y2.748
G3 X-15.89 Y2.642 I1.865 J0.391
G1 X-15.724 Y2.026
G3 X-15.691 Y1.917 I1.839 J0.496
G1 X-15.491 Y1.32
G3 X-15.451 Y1.213 I1.806 J0.606
G1 X-15.217 Y0.634
G3 X-15.172 Y0.531 I1.766 J0.714
G1 X-14.906 Y-0.03
G3 X-14.855 Y-0.129 I1.721 J0.817
G1 X-14.556 Y-0.674
G3 X-14.503 Y-0.766 I1.671 J0.916
G1 X-14.172 Y-1.296
G3 X-14.116 Y-1.382 I1.617 J1.008
G1 X-13.754 Y-1.898
G3 X-13.696 Y-1.976 I1.56 J1.093
G1 X-13.304 Y-2.478
G3 X-13.253 Y-2.541 I1.502 J1.172
G1 X-12.906 Y-2.949
G3 X-12.852 Y-3.01 I1.451 J1.234
G1 X-12.488 Y-3.403
G3 X-12.429 Y-3.463 I1.397 J1.295
G1 X-11.659 Y-4.224
G3 X-11.629 Y-4.252 I1.338 J1.356
G1 X-10.862 Y-4.978
G3 X-10.829 Y-5.007 I1.308 J1.385
G1 X-10.042 Y-5.718
G3 X-10.021 Y-5.737 I1.276 J1.414
G1 X-8.427 Y-7.132
X-8.425 Y-7.134
X-6.877 Y-8.486
X-5.388 Y-9.859
X-4.649 Y-10.58
X-3.944 Y-11.312
X-3.273 Y-12.06
X-2.644 Y-12.822
X-1.883 Y-13.862
G3 X-1.81 Y-13.956 I1.537 J1.125
G1 X-1.727 Y-14.055
G3 X-1.219 Y-14.484 I1.464 J1.219
G1 X-1.117 Y-14.543
G3 X-0.617 Y-14.745 I0.956 J1.648
G1 X-0.518 Y-14.769
G3 X0.094 Y-14.819 I0.457 J1.849
G1 X0.19 Y-14.811
G3 X0.84 Y-14.639 I-0.156 J1.899
G1 X0.931 Y-14.596
G3 X1.439 Y-14.25 I-0.805 J1.727
G1 X1.523 Y-14.17
G3 X1.677 Y-14.005 I-1.313 J1.381
G1 X2.444 Y-13.079
G3 X2.487 Y-13.025 I-1.467 J1.215
G1 X3.067 Y-12.272
X3.328 Y-11.962
X3.625 Y-11.644
X4.281 Y-10.97
X4.95 Y-10.317
X5.641 Y-9.675
X6.363 Y-9.034
X9.479 Y-6.314
G3 X9.496 Y-6.299 I-1.253 J1.435
G1 X10.28 Y-5.599
G3 X10.315 Y-5.567 I-1.27 J1.42
G1 X11.076 Y-4.851
G3 X11.117 Y-4.811 I-1.305 J1.388
G1 X11.853 Y-4.076
G3 X11.9 Y-4.028 I-1.346 J1.348
G1 X12.609 Y-3.268
G3 X12.653 Y-3.219 I-1.393 J1.3
G1 X13.434 Y-2.323
G3 X13.5 Y-2.243 I-1.437 J1.251
G1 X13.865 Y-1.773
G3 X13.931 Y-1.685 I-1.503 J1.171
G1 X14.266 Y-1.198
G3 X14.312 Y-1.128 I-1.568 J1.082
G1 X14.64 Y-0.606
G3 X14.702 Y-0.499 I-1.614 J1.012
G1 X14.991 Y0.036
G3 X15.047 Y0.149 I-1.676 J0.905
G1 X15.297 Y0.695
G3 X15.345 Y0.812 I-1.733 J0.792
G1 X15.558 Y1.371
G3 X15.598 Y1.489 I-1.781 J0.675
G1 X15.773 Y2.061
G3 X15.805 Y2.179 I-1.822 J0.558
G1 X15.943 Y2.763
G3 X15.967 Y2.88 I-1.854 J0.439
G1 X16.07 Y3.477
G3 X16.086 Y3.591 I-1.878 J0.322
G1 X16.153 Y4.2
G3 X16.014 Y4.456 I-0.255 J0.028
G2 X15.869 Y4.709 I0.12 J0.237
G1 X15.889 Y5.017
G3 X15.891 Y5.167 I-1.584 J0.101
G1 X15.869 Y5.867
G3 X15.858 Y6.014 I-1.587 J-0.05
G1 X15.771 Y6.704
G3 X15.747 Y6.846 I-1.575 J-0.197
G1 X15.598 Y7.525
G3 X15.579 Y7.604 I-1.551 J-0.339
G1 X15.446 Y8.091
G3 X15.417 Y8.187 I-1.532 J-0.417
G1 X15.256 Y8.657
G3 X15.219 Y8.755 I-1.502 J-0.513
G1 X15.03 Y9.209
G3 X14.985 Y9.307 I-1.465 J-0.611
G1 X14.767 Y9.744
G3 X14.714 Y9.841 I-1.42 J-0.709
G1 X14.466 Y10.262
G3 X14.407 Y10.355 I-1.368 J-0.806
G1 X14.128 Y10.761
G3 X14.063 Y10.849 I-1.308 J-0.899
G1 X13.753 Y11.238
G3 X13.684 Y11.32 I-1.243 J-0.987
G1 X13.343 Y11.695
G3 X13.252 Y11.786 I-1.174 J-1.069
G1 X12.753 Y12.253
G3 X12.643 Y12.346 I-1.083 J-1.16
G1 X12.117 Y12.755
G3 X11.998 Y12.839 I-0.974 J-1.254
G1 X11.445 Y13.192
G3 X11.32 Y13.264 I-0.855 J-1.338
G1 X10.742 Y13.564
G3 X10.615 Y13.623 I-0.73 J-1.41
G1 X10.013 Y13.87
G3 X9.886 Y13.916 I-0.603 J-1.469
G1 X9.259 Y14.112
G3 X9.137 Y14.145 I-0.476 J-1.515
G1 X8.486 Y14.294
G3 X8.371 Y14.316 I-0.354 J-1.548
G1 X7.697 Y14.418
G3 X7.6 Y14.43 I-0.238 J-1.57
G1 X7.143 Y14.47
G3 X7.023 Y14.476 I-0.14 J-1.581
G1 X6.567 Y14.482
G3 X6.463 Y14.48 I-0.02 J-1.587
G1 X6.007 Y14.456
G3 X5.921 Y14.449 I0.083 J-1.585
G1 X5.465 Y14.4
G3 X5.364 Y14.386 I0.169 J-1.579
G1 X4.789 Y14.287
G3 X4.682 Y14.265 I0.27 J-1.564
G1 X4.115 Y14.126
G3 X4.004 Y14.094 I0.378 J-1.542
G1 X3.452 Y13.916
G3 X3.336 Y13.873 I0.489 J-1.51
G1 X2.806 Y13.655
G3 X2.682 Y13.597 I0.605 J-1.468
G1 X2.256 Y13.377
G3 X2.168 Y13.328 I0.729 J-1.41
G1 X1.76 Y13.083
G3 X1.678 Y13.03 I0.817 J-1.361
G1 X1.289 Y12.763
G3 X1.212 Y12.706 I0.899 J-1.308
G1 X0.841 Y12.417
G3 X0.769 Y12.358 I0.977 J-1.252
G1 X0.416 Y12.047
G3 X0.352 Y11.987 I1.048 J-1.193
G1 X0.015 Y11.657
X0.011 Y11.653
X-0.109 Y11.776
G3 X-0.174 Y11.838 I-1.134 J-1.111
G1 X-0.512 Y12.147
G3 X-0.58 Y12.205 I-1.07 J-1.173
G1 X-0.936 Y12.495
G3 X-1.006 Y12.549 I-1.002 J-1.231
G1 X-1.377 Y12.818
G3 X-1.45 Y12.868 I-0.932 J-1.285
G1 X-1.835 Y13.115
G3 X-1.911 Y13.161 I-0.859 J-1.335
G1 X-2.309 Y13.387
G3 X-2.388 Y13.429 I-0.783 J-1.381
G1 X-2.798 Y13.632
G3 X-2.88 Y13.669 I-0.704 J-1.423
G1 X-3.3 Y13.848
G3 X-3.385 Y13.881 I-0.622 J-1.46
G1 X-3.814 Y14.036
G3 X-3.902 Y14.065 I-0.538 J-1.493
G1 X-4.34 Y14.195
G3 X-4.431 Y14.219 I-0.45 J-1.522
G1 X-4.875 Y14.322
G3 X-4.969 Y14.341 I-0.36 J-1.546
G1 X-5.42 Y14.417
G3 X-5.516 Y14.431 I-0.266 J-1.565
G1 X-5.97 Y14.48
G3 X-6.082 Y14.488 I-0.17 J-1.578
G1 X-6.617 Y14.508
G3 X-6.735 I-0.059 J-1.586
G1 X-7.27 Y14.488
G3 X-7.387 Y14.479 I0.059 J-1.586
G1 X-7.923 Y14.42
G3 X-8.037 Y14.403 I0.175 J-1.578
G1 X-8.573 Y14.303
G3 X-8.674 Y14.281 I0.289 J-1.561
G1 X-9.162 Y14.157
G3 X-9.262 Y14.128 I0.39 J-1.539
G1 X-9.736 Y13.975
G3 X-9.835 Y13.939 I0.49 J-1.51
G1 X-10.294 Y13.755
G3 X-10.392 Y13.712 I0.589 J-1.474
G1 X-10.836 Y13.499
G3 X-10.931 Y13.449 I0.687 J-1.431
G1 X-11.36 Y13.206
G3 X-11.451 Y13.151 I0.783 J-1.381
G1 X-11.865 Y12.878
G3 X-11.951 Y12.817 I0.873 J-1.326
G1 X-12.35 Y12.515
G3 X-12.43 Y12.45 I0.959 J-1.265
G1 X-12.814 Y12.118
G3 X-12.895 Y12.043 I1.038 J-1.201
G1 X-13.438 Y11.503
G3 X-13.534 Y11.4 I1.119 J-1.126
G1 X-14.012 Y10.831
G3 X-14.103 Y10.712 I1.215 J-1.022
G1 X-14.517 Y10.114
G3 X-14.6 Y9.979 I1.306 J-0.903
G1 X-14.948 Y9.35
G3 X-15.019 Y9.205 I1.389 J-0.768
G1 X-15.301 Y8.544
G3 X-15.356 Y8.392 I1.46 J-0.623
G1 X-15.572 Y7.697
G3 X-15.612 Y7.545 I1.516 J-0.472
G1 X-15.761 Y6.816
G3 X-15.785 Y6.668 I1.555 J-0.319
G1 X-15.868 Y5.902
G3 X-15.876 Y5.767 I1.578 J-0.171
G1 X-15.891 Y5.113
G3 X-15.889 Y4.992 I1.587 J-0.036
G1 X-15.855 Y4.34
G3 X-15.844 Y4.22 I1.585 J0.084
G1 X-15.759 Y3.573
G3 X-15.739 Y3.452 I1.574 J0.205
G1 X-15.605 Y2.813
G3 X-15.584 Y2.724 I1.554 J0.326
G1 X-15.418 Y2.109
G3 X-15.39 Y2.018 I1.533 J0.414
G1 X-15.19 Y1.421
G3 X-15.157 Y1.332 I1.505 J0.505
G1 X-14.923 Y0.753
G3 X-14.885 Y0.667 I1.472 J0.595
G1 X-14.619 Y0.106
G3 X-14.577 Y0.024 I1.434 J0.681
G1 X-14.278 Y-0.521
G3 X-14.233 Y-0.598 I1.392 J0.763
G1 X-13.903 Y-1.128
G3 X-13.856 Y-1.2 I1.347 J0.84
G1 X-13.494 Y-1.715
G3 X-13.446 Y-1.781 I1.3 J0.911
G1 X-13.054 Y-2.283
G3 X-13.011 Y-2.336 I1.252 J0.976
G1 X-12.665 Y-2.743
G3 X-12.619 Y-2.794 I1.209 J1.029
G1 X-12.255 Y-3.187
G3 X-12.206 Y-3.237 I1.164 J1.079
G1 X-11.436 Y-3.998
G3 X-11.411 Y-4.022 I1.115 J1.13
G1 X-10.644 Y-4.747
G3 X-10.617 Y-4.772 I1.09 J1.154
G1 X-9.83 Y-5.482
G3 X-9.812 Y-5.498 I1.063 J1.179
G1 X-8.218 Y-6.893
X-8.216 Y-6.895
X-6.665 Y-8.25
X-5.169 Y-9.629
X-4.424 Y-10.356
X-3.712 Y-11.096
X-3.033 Y-11.853
X-2.393 Y-12.627
X-1.627 Y-13.674
G3 X-1.566 Y-13.753 I1.281 J0.937
G1 X-1.483 Y-13.852
G3 X-1.06 Y-14.209 I1.22 J1.016
G1 X-0.957 Y-14.269
G3 X-0.541 Y-14.437 I0.797 J1.373
G1 X-0.442 Y-14.461
G3 X0.068 Y-14.502 I0.381 J1.541
G1 X0.164 Y-14.494
G3 X0.705 Y-14.351 I-0.13 J1.582
G1 X0.797 Y-14.308
G3 X1.22 Y-14.02 I-0.671 J1.439
G1 X1.304 Y-13.94
G3 X1.432 Y-13.803 I-1.094 J1.15
G1 X2.2 Y-12.877
G3 X2.236 Y-12.831 I-1.222 J1.013
G1 X2.819 Y-12.072
X3.09 Y-11.751
X3.396 Y-11.425
X4.056 Y-10.746
X4.731 Y-10.087
X5.428 Y-9.44
X6.153 Y-8.796
X9.271 Y-6.075
G3 X9.285 Y-6.062 I-1.044 J1.196
G1 X10.068 Y-5.362
G3 X10.097 Y-5.335 I-1.058 J1.184
G1 X10.858 Y-4.62
G3 X10.893 Y-4.587 I-1.087 J1.157
G1 X11.629 Y-3.852
G3 X11.668 Y-3.811 I-1.122 J1.123
G1 X12.377 Y-3.051
G3 X12.414 Y-3.011 I-1.161 J1.083
G1 X13.194 Y-2.115
G3 X13.249 Y-2.048 I-1.197 J1.043
G1 X13.615 Y-1.578
G3 X13.669 Y-1.504 I-1.252 J0.976
G1 X14.005 Y-1.018
G3 X14.043 Y-0.96 I-1.307 J0.902
G1 X14.371 Y-0.438
G3 X14.423 Y-0.348 I-1.345 J0.844
G1 X14.711 Y0.186
G3 X14.758 Y0.281 I-1.397 J0.754
G1 X15.008 Y0.827
G3 X15.049 Y0.925 I-1.444 J0.66
G1 X15.261 Y1.484
G3 X15.294 Y1.582 I-1.484 J0.563
G1 X15.469 Y2.154
G3 X15.496 Y2.253 I-1.518 J0.465
G1 X15.634 Y2.837
G3 X15.654 Y2.934 I-1.545 J0.366
G1 X15.757 Y3.531
G3 X15.77 Y3.625 I-1.565 J0.269
G1 X15.837 Y4.234
G3 X15.844 Y4.307 I-1.578 J0.174
G1 X15.869 Y4.709
G2 X16.206 Y5.006 I0.317 J-0.02
G1 X16.523 Y4.986
X16.593 Y4.982 Z-5.992
X16.66 Y4.977 Z-5.969
X16.72 Y4.973 Z-5.931
X16.771 Y4.97 Z-5.88
X16.808 Y4.968 Z-5.82
X16.832 Y4.966 Z-5.753
X16.84 Z-5.683
G0 Z2
X17.065 Y3.78
G1 Z-2.788 F762
Z-6.483
X17.057 Z-6.553
X17.033 Y3.783 Z-6.62
X16.996 Y3.787 Z-6.68
X16.946 Y3.793 Z-6.731
X16.886 Y3.799 Z-6.769
X16.819 Y3.807 Z-6.792
X16.749 Y3.814 Z-6.8
X16.434 Y3.849
G2 X16.153 Y4.2 I0.035 J0.316
G3 X16.16 Y4.287 I-1.894 J0.209
G1 X16.205 Y4.997
G3 X16.208 Y5.177 I-1.901 J0.121
G1 X16.186 Y5.877
G3 X16.173 Y6.054 I-1.904 J-0.06
G1 X16.086 Y6.743
G3 X16.057 Y6.913 I-1.89 J-0.237
G1 X15.909 Y7.593
G3 X15.886 Y7.687 I-1.861 J-0.407
G1 X15.753 Y8.174
G3 X15.717 Y8.29 I-1.838 J-0.501
G1 X15.557 Y8.76
G3 X15.512 Y8.877 I-1.803 J-0.616
G1 X15.323 Y9.331
G3 X15.269 Y9.449 I-1.758 J-0.733
G1 X15.181 Y9.626
X15.051 Y9.886 Z-6.663
G3 X14.988 Y10.002 Z-6.601 I-1.704 J-0.851
G1 X14.739 Y10.423 Z-6.366
G3 X14.668 Y10.535 Z-6.302 I-1.641 J-0.967
G1 X14.39 Y10.94 Z-6.062
G3 X14.322 Y11.032 Z-6.006 I-1.57 J-1.079
X14.312 Y11.046 I-1.503 J-1.171
G1 X14.002 Y11.436
G3 X13.919 Y11.534 I-1.492 J-1.185
G1 X13.577 Y11.909
G3 X13.469 Y12.018 I-1.408 J-1.283
G1 X12.969 Y12.485
G3 X12.838 Y12.597 I-1.3 J-1.392
G1 X12.489 Y12.868
X12.312 Y13.006 Z-6.118
G3 X12.169 Y13.107 Z-6.205 I-1.169 J-1.504
G1 X11.616 Y13.46 Z-6.527
G3 X11.466 Y13.546 Z-6.611 I-1.026 J-1.605
G1 X11.118 Y13.726 Z-6.8
X10.888 Y13.846
G3 X10.736 Y13.916 I-0.876 J-1.692
G1 X10.133 Y14.163
G3 X9.981 Y14.219 I-0.723 J-1.762
G1 X9.354 Y14.415
G3 X9.207 Y14.455 I-0.571 J-1.818
G1 X8.557 Y14.604
G3 X8.418 Y14.63 I-0.424 J-1.857
G1 X7.745 Y14.732
G3 X7.628 Y14.746 I-0.285 J-1.884
G1 X7.171 Y14.786
G3 X7.027 Y14.794 I-0.168 J-1.898
G1 X6.571 Y14.8
G3 X6.447 Y14.797 I-0.024 J-1.905
G1 X5.99 Y14.773
G3 X5.888 Y14.765 I0.1 J-1.902
G1 X5.431 Y14.716
G3 X5.309 Y14.699 I0.203 J-1.894
G1 X4.735 Y14.6
G3 X4.606 Y14.573 I0.324 J-1.877
G1 X4.039 Y14.434
G3 X3.906 Y14.396 I0.453 J-1.85
G1 X3.354 Y14.218
G3 X3.215 Y14.166 I0.587 J-1.812
G1 X2.685 Y13.948
G3 X2.536 Y13.879 I0.726 J-1.761
G1 X2.11 Y13.659
G3 X2.004 Y13.6 I0.875 J-1.692
G1 X1.597 Y13.355
G3 X1.498 Y13.292 I0.98 J-1.634
G1 X1.109 Y13.024
G3 X1.016 Y12.956 I1.079 J-1.57
G1 X0.645 Y12.667
G3 X0.56 Y12.596 I1.172 J-1.502
G1 X0.206 Y12.286
G3 X0.129 Y12.214 I1.257 J-1.431
G1 X0.012 Y12.099
X-0.298 Y12.381
G3 X-0.38 Y12.452 I-1.284 J-1.407
G1 X-0.735 Y12.741
G3 X-0.819 Y12.806 I-1.203 J-1.477
G1 X-1.19 Y13.075
G3 X-1.278 Y13.135 I-1.118 J-1.542
G1 X-1.664 Y13.382
G3 X-1.754 Y13.437 I-1.03 J-1.602
G1 X-2.153 Y13.663
G3 X-2.247 Y13.713 I-0.94 J-1.657
G1 X-2.657 Y13.916
G3 X-2.755 Y13.961 I-0.845 J-1.707
G1 X-3.176 Y14.141
G3 X-3.277 Y14.18 I-0.747 J-1.753
G1 X-3.707 Y14.335
G3 X-3.812 Y14.37 I-0.646 J-1.792
G1 X-4.25 Y14.499
G3 X-4.359 Y14.528 I-0.54 J-1.827
G1 X-4.803 Y14.631
G3 X-4.916 Y14.654 I-0.432 J-1.855
G1 X-5.366 Y14.73
G3 X-5.482 Y14.746 I-0.319 J-1.878
G1 X-5.936 Y14.795
G3 X-6.07 Y14.805 I-0.204 J-1.894
G1 X-6.606 Y14.825
G3 X-6.746 I-0.07 J-1.904
G1 X-7.282 Y14.805
G3 X-7.422 Y14.795 I0.07 J-1.904
G1 X-7.958 Y14.735
G3 X-8.095 Y14.715 I0.21 J-1.893
G1 X-8.63 Y14.616
G3 X-8.752 Y14.589 I0.347 J-1.873
G1 X-9.241 Y14.465
G3 X-9.36 Y14.43 I0.469 J-1.846
G1 X-9.834 Y14.277
G3 X-9.953 Y14.234 I0.588 J-1.812
G1 X-10.412 Y14.05
G3 X-10.53 Y13.998 I0.707 J-1.769
G1 X-10.694 Y13.919
X-10.974 Y13.785 Z-6.653
G3 X-11.088 Y13.725 Z-6.592 I0.825 J-1.717
G1 X-11.517 Y13.482 Z-6.354
G3 X-11.626 Y13.416 Z-6.292 I0.939 J-1.657
G1 X-12.04 Y13.143 Z-6.049
G3 X-12.111 Y13.094 Z-6.006 I1.048 J-1.591
X-12.143 Y13.07 I1.119 J-1.542
G1 X-12.542 Y12.768
G3 X-12.637 Y12.69 I1.151 J-1.518
G1 X-13.022 Y12.358
G3 X-13.118 Y12.268 I1.246 J-1.441
G1 X-13.662 Y11.729
G3 X-13.776 Y11.604 I1.343 J-1.351
G1 X-14.01 Y11.326
X-14.255 Y11.036 Z-6.195
G3 X-14.364 Y10.892 Z-6.285 I1.457 J-1.227
G1 X-14.778 Y10.294 Z-6.642
G3 X-14.878 Y10.133 Z-6.735 I1.567 J-1.083
G1 X-14.944 Y10.013 Z-6.8
X-15.226 Y9.504
G3 X-15.311 Y9.329 I1.667 J-0.922
G1 X-15.593 Y8.668
G3 X-15.66 Y8.487 I1.752 J-0.748
G1 X-15.876 Y7.792
G3 X-15.923 Y7.609 I1.819 J-0.566
G1 X-16.072 Y6.879
G3 X-16.1 Y6.702 I1.866 J-0.383
G1 X-16.183 Y5.936
G3 X-16.194 Y5.774 I1.894 J-0.205
G1 X-16.209 Y5.12
G3 X-16.207 Y4.975 I1.905 J-0.043
G1 X-16.172 Y4.323
G3 X-16.159 Y4.179 I1.902 J0.101
G1 X-16.074 Y3.532
G3 X-16.05 Y3.387 I1.889 J0.246
G1 X-15.916 Y2.748
G3 X-15.89 Y2.642 I1.865 J0.391
G1 X-15.724 Y2.026
G3 X-15.691 Y1.917 I1.839 J0.496
G1 X-15.491 Y1.32
G3 X-15.451 Y1.213 I1.806 J0.606
G1 X-15.217 Y0.634
G3 X-15.172 Y0.531 I1.766 J0.714
G1 X-14.906 Y-0.03
G3 X-14.855 Y-0.129 I1.721 J0.817
G1 X-14.556 Y-0.674
G3 X-14.503 Y-0.766 I1.671 J0.916
G1 X-14.172 Y-1.296
G3 X-14.116 Y-1.382 I1.617 J1.008
G1 X-13.754 Y-1.898
G3 X-13.696 Y-1.976 I1.56 J1.093
G1 X-13.304 Y-2.478
G3 X-13.253 Y-2.541 I1.502 J1.172
G1 X-12.906 Y-2.949
G3 X-12.852 Y-3.01 I1.451 J1.234
G1 X-12.488 Y-3.403
G3 X-12.429 Y-3.463 I1.397 J1.295
G1 X-11.659 Y-4.224
G3 X-11.629 Y-4.252 I1.338 J1.356
G1 X-10.862 Y-4.978
G3 X-10.829 Y-5.007 I1.308 J1.385
G1 X-10.588 Y-5.226
X-10.042 Y-5.718 Z-6.433
G3 X-10.021 Y-5.737 Z-6.419 I1.276 J1.414
G1 X-9.401 Y-6.28 Z-6.006
X-8.427 Y-7.132
X-8.425 Y-7.134
X-7.449 Y-7.987
X-6.877 Y-8.486 Z-6.386
X-6.268 Y-9.048 Z-6.8
X-5.388 Y-9.859
X-4.649 Y-10.58
X-3.944 Y-11.312
X-3.273 Y-12.06
X-2.644 Y-12.822
X-1.883 Y-13.862
G3 X-1.81 Y-13.956 I1.537 J1.125
G1 X-1.727 Y-14.055
G3 X-1.219 Y-14.484 I1.464 J1.219
G1 X-1.117 Y-14.543
G3 X-0.617 Y-14.745 I0.956 J1.648
G1 X-0.518 Y-14.769
G3 X0.094 Y-14.819 I0.457 J1.849
G1 X0.19 Y-14.811
G3 X0.84 Y-14.639 I-0.156 J1.899
G1 X0.931 Y-14.596
G3 X1.439 Y-14.25 I-0.805 J1.727
G1 X1.523 Y-14.17
G3 X1.677 Y-14.005 I-1.313 J1.381
G1 X2.444 Y-13.079
G3 X2.487 Y-13.025 I-1.467 J1.215
G1 X3.067 Y-12.272
X3.328 Y-11.962
X3.625 Y-11.644
X4.281 Y-10.97
X4.95 Y-10.317
X5.641 Y-9.675
X6.363 Y-9.034
X7.324 Y-8.196
X8.52 Y-7.152 Z-6.006
X9.479 Y-6.314
G3 X9.496 Y-6.299 I-1.253 J1.435
G1 X10.28 Y-5.599
G3 X10.315 Y-5.567 I-1.27 J1.42
G1 X10.459 Y-5.431
X11.076 Y-4.851 Z-6.429
G3 X11.117 Y-4.811 Z-6.458 I-1.305 J1.388
G1 X11.602 Y-4.327 Z-6.8
X11.853 Y-4.076
G3 X11.9 Y-4.028 I-1.346 J1.348
G1 X12.609 Y-3.268
G3 X12.653 Y-3.219 I-1.393 J1.3
G1 X13.434 Y-2.323
G3 X13.5 Y-2.243 I-1.437 J1.251
G1 X13.865 Y-1.773
G3 X13.931 Y-1.685 I-1.503 J1.171
G1 X14.266 Y-1.198
G3 X14.312 Y-1.128 I-1.568 J1.082
G1 X14.64 Y-0.606
G3 X14.702 Y-0.499 I-1.614 J1.012
G1 X14.991 Y0.036
G3 X15.047 Y0.149 I-1.676 J0.905
G1 X15.297 Y0.695
G3 X15.345 Y0.812 I-1.733 J0.792
G1 X15.558 Y1.371
G3 X15.598 Y1.489 I-1.781 J0.675
G1 X15.773 Y2.061
G3 X15.805 Y2.179 I-1.822 J0.558
G1 X15.943 Y2.763
G3 X15.967 Y2.88 I-1.854 J0.439
G1 X16.07 Y3.477
G3 X16.086 Y3.591 I-1.878 J0.322
G1 X16.153 Y4.2
G3 X16.014 Y4.456 I-0.255 J0.028
G2 X15.869 Y4.709 I0.12 J0.237
G1 X15.889 Y5.017
G3 X15.891 Y5.167 I-1.584 J0.101
G1 X15.869 Y5.867
G3 X15.858 Y6.014 I-1.587 J-0.05
G1 X15.771 Y6.704
G3 X15.747 Y6.846 I-1.575 J-0.197
G1 X15.598 Y7.525
G3 X15.579 Y7.604 I-1.551 J-0.339
G1 X15.446 Y8.091
G3 X15.417 Y8.187 I-1.532 J-0.417
G1 X15.256 Y8.657
G3 X15.219 Y8.755 I-1.502 J-0.513
G1 X15.03 Y9.209
G3 X14.985 Y9.307 I-1.465 J-0.611
G1 X14.95 Y9.378
X14.767 Y9.744 Z-6.608
G3 X14.714 Y9.841 Z-6.556 I-1.42 J-0.709
G1 X14.466 Y10.262 Z-6.321
G3 X14.407 Y10.355 Z-6.268 I-1.368 J-0.806
G1 X14.128 Y10.761 Z-6.028
G3 X14.102 Y10.797 Z-6.006 I-1.308 J-0.899
X14.063 Y10.849 I-1.283 J-0.935
G1 X13.753 Y11.238
G3 X13.684 Y11.32 I-1.243 J-0.987
G1 X13.343 Y11.695
G3 X13.252 Y11.786 I-1.174 J-1.069
G1 X12.753 Y12.253
G3 X12.643 Y12.346 I-1.083 J-1.16
G1 X12.271 Y12.635
X12.117 Y12.755 Z-6.104
G3 X11.998 Y12.839 Z-6.176 I-0.974 J-1.254
G1 X11.445 Y13.192 Z-6.498
G3 X11.32 Y13.264 Z-6.569 I-0.855 J-1.338
G1 X10.893 Y13.485 Z-6.8
X10.742 Y13.564
G3 X10.615 Y13.623 I-0.73 J-1.41
G1 X10.013 Y13.87
G3 X9.886 Y13.916 I-0.603 J-1.469
G1 X9.259 Y14.112
G3 X9.137 Y14.145 I-0.476 J-1.515
G1 X8.486 Y14.294
G3 X8.371 Y14.316 I-0.354 J-1.548
G1 X7.697 Y14.418
G3 X7.6 Y14.43 I-0.238 J-1.57
G1 X7.143 Y14.47
G3 X7.023 Y14.476 I-0.14 J-1.581
G1 X6.567 Y14.482
G3 X6.463 Y14.48 I-0.02 J-1.587
G1 X6.007 Y14.456
G3 X5.921 Y14.449 I0.083 J-1.585
G1 X5.465 Y14.4
G3 X5.364 Y14.386 I0.169 J-1.579
G1 X4.789 Y14.287
G3 X4.682 Y14.265 I0.27 J-1.564
G1 X4.115 Y14.126
G3 X4.004 Y14.094 I0.378 J-1.542
G1 X3.452 Y13.916
G3 X3.336 Y13.873 I0.489 J-1.51
G1 X2.806 Y13.655
G3 X2.682 Y13.597 I0.605 J-1.468
G1 X2.256 Y13.377
G3 X2.168 Y13.328 I0.729 J-1.41
G1 X1.76 Y13.083
G3 X1.678 Y13.03 I0.817 J-1.361
G1 X1.289 Y12.763
G3 X1.212 Y12.706 I0.899 J-1.308
G1 X0.841 Y12.417
G3 X0.769 Y12.358 I0.977 J-1.252
G1 X0.416 Y12.047
G3 X0.352 Y11.987 I1.048 J-1.193
G1 X0.015 Y11.657
X0.011 Y11.653
X-0.109 Y11.776
G3 X-0.174 Y11.838 I-1.134 J-1.111
G1 X-0.512 Y12.147
G3 X-0.58 Y12.205 I-1.07 J-1.173
G1 X-0.936 Y12.495
G3 X-1.006 Y12.549 I-1.002 J-1.231
G1 X-1.377 Y12.818
G3 X-1.45 Y12.868 I-0.932 J-1.285
G1 X-1.835 Y13.115
G3 X-1.911 Y13.161 I-0.859 J-1.335
G1 X-2.309 Y13.387
G3 X-2.388 Y13.429 I-0.783 J-1.381
G1 X-2.798 Y13.632
G3 X-2.88 Y13.669 I-0.704 J-1.423
G1 X-3.3 Y13.848
G3 X-3.385 Y13.881 I-0.622 J-1.46
G1 X-3.814 Y14.036
G3 X-3.902 Y14.065 I-0.538 J-1.493
G1 X-4.34 Y14.195
G3 X-4.431 Y14.219 I-0.45 J-1.522
G1 X-4.875 Y14.322
G3 X-4.969 Y14.341 I-0.36 J-1.546
G1 X-5.42 Y14.417
G3 X-5.516 Y14.431 I-0.266 J-1.565
G1 X-5.97 Y14.48
G3 X-6.082 Y14.488 I-0.17 J-1.578
G1 X-6.617 Y14.508
G3 X-6.735 I-0.059 J-1.586
G1 X-7.27 Y14.488
G3 X-7.387 Y14.479 I0.059 J-1.586
G1 X-7.923 Y14.42
G3 X-8.037 Y14.403 I0.175 J-1.578
G1 X-8.573 Y14.303
G3 X-8.674 Y14.281 I0.289 J-1.561
G1 X-9.162 Y14.157
G3 X-9.262 Y14.128 I0.39 J-1.539
G1 X-9.736 Y13.975
G3 X-9.835 Y13.939 I0.49 J-1.51
G1 X-10.294 Y13.755
G3 X-10.392 Y13.712 I0.589 J-1.474
G1 X-10.457 Y13.681
X-10.836 Y13.499 Z-6.601
G3 X-10.931 Y13.449 Z-6.55 I0.687 J-1.431
G1 X-11.36 Y13.206 Z-6.312
G3 X-11.451 Y13.151 Z-6.26 I0.783 J-1.381
G1 X-11.865 Y12.878 Z-6.017
G3 X-11.884 Y12.865 Z-6.006 I0.873 J-1.326
X-11.951 Y12.817 I0.892 J-1.313
G1 X-12.35 Y12.515
G3 X-12.43 Y12.45 I0.959 J-1.265
G1 X-12.814 Y12.118
G3 X-12.895 Y12.043 I1.038 J-1.201
G1 X-13.438 Y11.503
G3 X-13.534 Y11.4 I1.119 J-1.126
G1 X-13.785 Y11.1
X-14.012 Y10.831 Z-6.181
G3 X-14.103 Y10.712 Z-6.256 I1.215 J-1.022
G1 X-14.517 Y10.114 Z-6.613
G3 X-14.6 Y9.979 Z-6.69 I1.306 J-0.903
G1 X-14.711 Y9.779 Z-6.8
X-14.948 Y9.35
G3 X-15.019 Y9.205 I1.389 J-0.768
G1 X-15.301 Y8.544
G3 X-15.356 Y8.392 I1.46 J-0.623
G1 X-15.572 Y7.697
G3 X-15.612 Y7.545 I1.516 J-0.472
G1 X-15.761 Y6.816
G3 X-15.785 Y6.668 I1.555 J-0.319
G1 X-15.868 Y5.902
G3 X-15.876 Y5.767 I1.578 J-0.171
G1 X-15.891 Y5.113
G3 X-15.889 Y4.992 I1.587 J-0.036
G1 X-15.855 Y4.34
G3 X-15.844 Y4.22 I1.585 J0.084
G1 X-15.759 Y3.573
G3 X-15.739 Y3.452 I1.574 J0.205
G1 X-15.605 Y2.813
G3 X-15.584 Y2.724 I1.554 J0.326
G1 X-15.418 Y2.109
G3 X-15.39 Y2.018 I1.533 J0.414
G1 X-15.19 Y1.421
G3 X-15.157 Y1.332 I1.505 J0.505
G1 X-14.923 Y0.753
G3 X-14.885 Y0.667 I1.472 J0.595
G1 X-14.619 Y0.106
G3 X-14.577 Y0.024 I1.434 J0.681
G1 X-14.278 Y-0.521
G3 X-14.233 Y-0.598 I1.392 J0.763
G1 X-13.903 Y-1.128
G3 X-13.856 Y-1.2 I1.347 J0.84
G1 X-13.494 Y-1.715
G3 X-13.446 Y-1.781 I1.3 J0.911
G1 X-13.054 Y-2.283
G3 X-13.011 Y-2.336 I1.252 J0.976
G1 X-12.665 Y-2.743
G3 X-12.619 Y-2.794 I1.209 J1.029
G1 X-12.255 Y-3.187
G3 X-12.206 Y-3.237 I1.164 J1.079
G1 X-11.436 Y-3.998
G3 X-11.411 Y-4.022 I1.115 J1.13
G1 X-10.644 Y-4.747
G3 X-10.617 Y-4.772 I1.09 J1.154
G1 X-10.379 Y-4.986
X-9.83 Y-5.482 Z-6.43
G3 X-9.812 Y-5.498 Z-6.418 I1.063 J1.179
G1 X-9.192 Y-6.041 Z-6.006
X-8.218 Y-6.893
X-8.216 Y-6.895
X-7.24 Y-7.747
X-6.665 Y-8.25 Z-6.388
X-6.059 Y-8.808 Z-6.8
X-5.169 Y-9.629
X-4.424 Y-10.356
X-3.712 Y-11.096
X-3.033 Y-11.853
X-2.393 Y-12.627
X-1.627 Y-13.674
G3 X-1.566 Y-13.753 I1.281 J0.937
G1 X-1.483 Y-13.852
G3 X-1.06 Y-14.209 I1.22 J1.016
G1 X-0.957 Y-14.269
G3 X-0.541 Y-14.437 I0.797 J1.373
G1 X-0.442 Y-14.461
G3 X0.068 Y-14.502 I0.381 J1.541
G1 X0.164 Y-14.494
G3 X0.705 Y-14.351 I-0.13 J1.582
G1 X0.797 Y-14.308
G3 X1.22 Y-14.02 I-0.671 J1.439
G1 X1.304 Y-13.94
G3 X1.432 Y-13.803 I-1.094 J1.15
G1 X2.2 Y-12.877
G3 X2.236 Y-12.831 I-1.222 J1.013
G1 X2.819 Y-12.072
X3.09 Y-11.751
X3.396 Y-11.425
X4.056 Y-10.746
X4.731 Y-10.087
X5.428 Y-9.44
X6.153 Y-8.796
X7.112 Y-7.959
X8.308 Y-6.915 Z-6.006
X9.271 Y-6.075
G3 X9.285 Y-6.062 I-1.044 J1.196
G1 X10.068 Y-5.362
G3 X10.097 Y-5.335 I-1.058 J1.184
G1 X10.248 Y-5.194
X10.858 Y-4.62 Z-6.425
G3 X10.893 Y-4.587 Z-6.449 I-1.087 J1.157
G1 X11.39 Y-4.09 Z-6.8
X11.629 Y-3.852
G3 X11.668 Y-3.811 I-1.122 J1.123
G1 X12.377 Y-3.051
G3 X12.414 Y-3.011 I-1.161 J1.083
G1 X13.194 Y-2.115
G3 X13.249 Y-2.048 I-1.197 J1.043
G1 X13.615 Y-1.578
G3 X13.669 Y-1.504 I-1.252 J0.976
G1 X14.005 Y-1.018
G3 X14.043 Y-0.96 I-1.307 J0.902
G1 X14.371 Y-0.438
G3 X14.423 Y-0.348 I-1.345 J0.844
G1 X14.711 Y0.186
G3 X14.758 Y0.281 I-1.397 J0.754
G1 X15.008 Y0.827
G3 X15.049 Y0.925 I-1.444 J0.66
G1 X15.261 Y1.484
G3 X15.294 Y1.582 I-1.484 J0.563
G1 X15.469 Y2.154
G3 X15.496 Y2.253 I-1.518 J0.465
G1 X15.634 Y2.837
G3 X15.654 Y2.934 I-1.545 J0.366
G1 X15.757 Y3.531
G3 X15.77 Y3.625 I-1.565 J0.269
G1 X15.837 Y4.234
G3 X15.844 Y4.307 I-1.578 J0.174
G1 X15.869 Y4.709
G2 X16.206 Y5.006 I0.317 J-0.02
G1 X16.523 Y4.986
X16.593 Y4.982 Z-6.792
X16.66 Y4.977 Z-6.769
X16.72 Y4.973 Z-6.731
X16.771 Y4.97 Z-6.68
X16.808 Y4.968 Z-6.62
X16.832 Y4.966 Z-6.553
X16.84 Z-6.483
G0 Z4
M9
M30
%
